(1001)
(T1  D=0.125 CR=0 - ZMIN=-0.08 - flat end mill)
G90 G94
G17
G20
G28 G91 Z0
G90

(Pocket1)
T1
S1000 M3
G54
G0 X0.2016 Y1.2786
Z0.3
Z0.0544
G1 Z0.0225 F2
X0.2018 Y1.2783 Z0.0197 F12
X0.2022 Y1.2775 Z0.0171
X0.2028 Y1.2762 Z0.0147
X0.2037 Y1.2744 Z0.0128
X0.2048 Y1.2723 Z0.0113
X0.206 Y1.27 Z0.0103
X0.2072 Y1.2675 Z0.01
X0.2358 Y1.2112 Z0.0093
X0.2363 Y1.2103
X0.2582 Y1.1633 Z0.0088
X0.2775 Y1.1215 Z0.0083
X0.2777 Y1.1211
X0.2938 Y1.0849 Z0.0079
X0.294 Y1.0844
X0.3013 Y1.0674 Z0.0077
X0.3019 Y1.0657
X0.3211 Y1.0125 Z0.0071
X0.3212 Y1.012
X0.3454 Y0.9411 Z0.0063
X0.3574 Y0.9055 Z0.0059
X0.3575 Y0.905
X0.3744 Y0.8518 Z0.0053
X0.375 Y0.8496
X0.3852 Y0.8066 Z0.0048
X0.3834 Y0.8404 Z0.0044
X0.3797 Y0.8928 Z0.0039
X0.3741 Y0.9446 Z0.0033
X0.3686 Y0.9788 Z0.003
X0.3654 Y0.9956 Z0.0028
X0.3576 Y1.0304 Z0.0024
X0.345 Y1.0833 Z0.0019
X0.3366 Y1.1181 Z0.0015
X0.3217 Y1.1702 Z0.0009
X0.3051 Y1.2221 Z0.0003
X0.2984 Y1.2393 Z0.0001
X0.2911 Y1.2527 Z0
X0.274 Y1.2816 Z-0.0004
X0.2567 Y1.3087 Z-0.0007
X0.2486 Y1.3211 Z-0.0009
X0.2316 Y1.3444 Z-0.0012
X0.2242 Y1.3519 Z-0.0013
X0.206 Y1.3687 Z-0.0015
X0.1861 Y1.3855 Z-0.0018
X0.1585 Y1.4067 Z-0.0022
X0.1245 Y1.4298 Z-0.0026
X0.1037 Y1.4426 Z-0.0029
X0.1144 Y1.4303 Z-0.003
X0.1159 Y1.4284 Z-0.0031
X0.1352 Y1.4021 Z-0.0034
X0.1372 Y1.3991
X0.1525 Y1.3721 Z-0.0038
X0.1533 Y1.3707
X0.171 Y1.3355 Z-0.0042
X0.1894 Y1.3007 Z-0.0046
X0.1992 Y1.2833 Z-0.0048
X0.1998 Y1.2821
X0.2358 Y1.2112 Z-0.0057
X0.2363 Y1.2103
X0.2582 Y1.1633 Z-0.0062
X0.2775 Y1.1215 Z-0.0067
X0.2777 Y1.1211
X0.2938 Y1.0849 Z-0.0071
X0.294 Y1.0844
X0.3013 Y1.0674 Z-0.0073
X0.3019 Y1.0657
X0.3211 Y1.0125 Z-0.0079
X0.3212 Y1.012
X0.3454 Y0.9411 Z-0.0087
X0.3574 Y0.9055 Z-0.0091
X0.3575 Y0.905
X0.3744 Y0.8518 Z-0.0097
X0.375 Y0.8496
X0.3852 Y0.8066 Z-0.0102
X0.3834 Y0.8404 Z-0.0106
X0.3797 Y0.8928 Z-0.0111
X0.3741 Y0.9446 Z-0.0117
X0.3686 Y0.9788 Z-0.012
X0.3654 Y0.9956 Z-0.0122
X0.3576 Y1.0304 Z-0.0126
X0.345 Y1.0833 Z-0.0131
X0.3366 Y1.1181 Z-0.0135
X0.3217 Y1.1702 Z-0.0141
X0.3051 Y1.2221 Z-0.0147
X0.2984 Y1.2393 Z-0.0149
X0.2917 Y1.2517 Z-0.015
X0.2911 Y1.2527 F20
X0.274 Y1.2816
X0.2567 Y1.3087
X0.2486 Y1.3211
X0.2316 Y1.3444
X0.2242 Y1.3519
X0.206 Y1.3687
X0.1861 Y1.3855
X0.1585 Y1.4067
X0.1245 Y1.4298
X0.1037 Y1.4426
X0.1144 Y1.4303
X0.1159 Y1.4284
X0.1352 Y1.4021
X0.1372 Y1.3991
X0.1525 Y1.3721
X0.1533 Y1.3707
X0.171 Y1.3355
X0.1894 Y1.3007
X0.1992 Y1.2833
X0.1998 Y1.2821
X0.2358 Y1.2112
X0.2363 Y1.2103
X0.2582 Y1.1633
X0.2775 Y1.1215
X0.2777 Y1.1211
X0.2938 Y1.0849
X0.294 Y1.0844
X0.3013 Y1.0674
X0.3019 Y1.0657
X0.3211 Y1.0125
X0.3212 Y1.012
X0.3454 Y0.9411
X0.3574 Y0.9055
X0.3575 Y0.905
X0.3744 Y0.8518
X0.375 Y0.8496
X0.3852 Y0.8066
X0.3834 Y0.8404
X0.3797 Y0.8928
X0.3741 Y0.9446
X0.3686 Y0.9788
X0.3654 Y0.9956
X0.3576 Y1.0304
X0.345 Y1.0833
X0.3366 Y1.1181
X0.3217 Y1.1702
X0.3051 Y1.2221
X0.2984 Y1.2393
X0.2917 Y1.2517
X0.2906 Y1.2532 Z-0.0147
X0.289 Y1.2543 Z-0.0144
X0.2874 Y1.2548 Z-0.0135
X0.2857 Y1.2549 Z-0.0127
X0.2843 Y1.2546 Z-0.0113
X0.2831 Y1.2541 Z-0.01
X0.2821 Y1.2534 Z-0.0088
X0.2813 Y1.2525 Z-0.0076
X0.2805 Y1.2513 Z-0.0068
X0.2801 Y1.2499 Z-0.0059
X0.2796 Y1.2476 Z-0.0052
X0.2792 Y1.2453 Z-0.005
X0.2714 Y1.2057
X0.2712 Y1.2042
X0.2715 Y1.2027
X0.3764 Y0.8505
X0.377 Y0.8483 Z-0.0052
X0.3777 Y0.8462 Z-0.0059
X0.3783 Y0.8442 Z-0.0069
X0.3788 Y0.8424 Z-0.0083
X0.3792 Y0.8409 Z-0.01
X0.3796 Y0.8397 Z-0.0115
X0.38 Y0.8382 Z-0.0128
X0.3805 Y0.8366 Z-0.0138
X0.3814 Y0.8352 Z-0.0144
X0.3822 Y0.8338 Z-0.0148
X0.3826 Y0.8335 Z-0.0149
X0.3832 Y0.8334
X0.3836 Y0.8338 Z-0.015
X0.3838 Y0.8343
X0.3834 Y0.8404 Z-0.0152 F12
X0.3797 Y0.8928 Z-0.017
X0.3741 Y0.9446 Z-0.0189
X0.3686 Y0.9788 Z-0.0201
X0.3654 Y0.9956 Z-0.0207
X0.3576 Y1.0304 Z-0.0219
X0.345 Y1.0833 Z-0.0238
X0.3366 Y1.1181 Z-0.0251
X0.3217 Y1.1702 Z-0.027
X0.3051 Y1.2221 Z-0.0289
X0.2984 Y1.2393 Z-0.0295
X0.2917 Y1.2517 Z-0.03
X0.2911 Y1.2527 F20
X0.274 Y1.2816
X0.2567 Y1.3087
X0.2486 Y1.3211
X0.2316 Y1.3444
X0.2242 Y1.3519
X0.206 Y1.3687
X0.1861 Y1.3855
X0.1585 Y1.4067
X0.1245 Y1.4298
X0.1037 Y1.4426
X0.1144 Y1.4303
X0.1159 Y1.4284
X0.1352 Y1.4021
X0.1372 Y1.3991
X0.1525 Y1.3721
X0.1533 Y1.3707
X0.171 Y1.3355
X0.1894 Y1.3007
X0.1992 Y1.2833
X0.1998 Y1.2821
X0.2358 Y1.2112
X0.2363 Y1.2103
X0.2582 Y1.1633
X0.2775 Y1.1215
X0.2777 Y1.1211
X0.2938 Y1.0849
X0.294 Y1.0844
X0.3013 Y1.0674
X0.3019 Y1.0657
X0.3211 Y1.0125
X0.3212 Y1.012
X0.3454 Y0.9411
X0.3574 Y0.9055
X0.3575 Y0.905
X0.3744 Y0.8518
X0.375 Y0.8496
X0.3852 Y0.8066
X0.3834 Y0.8404
X0.3797 Y0.8928
X0.3741 Y0.9446
X0.3686 Y0.9788
X0.3654 Y0.9956
X0.3576 Y1.0304
X0.345 Y1.0833
X0.3366 Y1.1181
X0.3217 Y1.1702
X0.3051 Y1.2221
X0.2984 Y1.2393
X0.2917 Y1.2517
X0.2906 Y1.2532 Z-0.0297
X0.289 Y1.2543 Z-0.0294
X0.2874 Y1.2548 Z-0.0285
X0.2857 Y1.2549 Z-0.0277
X0.2843 Y1.2546 Z-0.0263
X0.2831 Y1.2541 Z-0.025
X0.2821 Y1.2534 Z-0.0238
X0.2813 Y1.2525 Z-0.0226
X0.2805 Y1.2513 Z-0.0218
X0.2801 Y1.2499 Z-0.0209
X0.2796 Y1.2476 Z-0.0202
X0.2792 Y1.2453 Z-0.02
X0.2714 Y1.2057
X0.2712 Y1.2042
X0.2715 Y1.2027
X0.3764 Y0.8505
X0.377 Y0.8483 Z-0.0202
X0.3777 Y0.8462 Z-0.0209
X0.3783 Y0.8442 Z-0.0219
X0.3788 Y0.8424 Z-0.0233
X0.3792 Y0.8409 Z-0.025
X0.3796 Y0.8397 Z-0.0265
X0.38 Y0.8382 Z-0.0278
X0.3805 Y0.8366 Z-0.0288
X0.3814 Y0.8352 Z-0.0294
X0.3822 Y0.8338 Z-0.0298
X0.3826 Y0.8335 Z-0.0299
X0.3832 Y0.8334
X0.3836 Y0.8338 Z-0.03
X0.3838 Y0.8343
X0.3834 Y0.8404 Z-0.0302 F12
X0.3797 Y0.8928 Z-0.032
X0.3741 Y0.9446 Z-0.0339
X0.3686 Y0.9788 Z-0.0351
X0.3654 Y0.9956 Z-0.0357
X0.3576 Y1.0304 Z-0.0369
X0.345 Y1.0833 Z-0.0388
X0.3366 Y1.1181 Z-0.0401
X0.3217 Y1.1702 Z-0.042
X0.3051 Y1.2221 Z-0.0439
X0.2984 Y1.2393 Z-0.0445
X0.2917 Y1.2517 Z-0.045
X0.2911 Y1.2527 F20
X0.274 Y1.2816
X0.2567 Y1.3087
X0.2486 Y1.3211
X0.2316 Y1.3444
X0.2242 Y1.3519
X0.206 Y1.3687
X0.1861 Y1.3855
X0.1585 Y1.4067
X0.1245 Y1.4298
X0.1037 Y1.4426
X0.1144 Y1.4303
X0.1159 Y1.4284
X0.1352 Y1.4021
X0.1372 Y1.3991
X0.1525 Y1.3721
X0.1533 Y1.3707
X0.171 Y1.3355
X0.1894 Y1.3007
X0.1992 Y1.2833
X0.1998 Y1.2821
X0.2358 Y1.2112
X0.2363 Y1.2103
X0.2582 Y1.1633
X0.2775 Y1.1215
X0.2777 Y1.1211
X0.2938 Y1.0849
X0.294 Y1.0844
X0.3013 Y1.0674
X0.3019 Y1.0657
X0.3211 Y1.0125
X0.3212 Y1.012
X0.3454 Y0.9411
X0.3574 Y0.9055
X0.3575 Y0.905
X0.3744 Y0.8518
X0.375 Y0.8496
X0.3852 Y0.8066
X0.3834 Y0.8404
X0.3797 Y0.8928
X0.3741 Y0.9446
X0.3686 Y0.9788
X0.3654 Y0.9956
X0.3576 Y1.0304
X0.345 Y1.0833
X0.3366 Y1.1181
X0.3217 Y1.1702
X0.3051 Y1.2221
X0.2984 Y1.2393
X0.2917 Y1.2517
X0.2906 Y1.2532 Z-0.0447
X0.289 Y1.2543 Z-0.0444
X0.2874 Y1.2548 Z-0.0435
X0.2857 Y1.2549 Z-0.0427
X0.2843 Y1.2546 Z-0.0413
X0.2831 Y1.2541 Z-0.04
X0.2821 Y1.2534 Z-0.0388
X0.2813 Y1.2525 Z-0.0376
X0.2805 Y1.2513 Z-0.0368
X0.2801 Y1.2499 Z-0.0359
X0.2796 Y1.2476 Z-0.0352
X0.2792 Y1.2453 Z-0.035
X0.2714 Y1.2057
X0.2712 Y1.2042
X0.2715 Y1.2027
X0.3764 Y0.8505
X0.377 Y0.8483 Z-0.0352
X0.3777 Y0.8462 Z-0.0359
X0.3783 Y0.8442 Z-0.0369
X0.3788 Y0.8424 Z-0.0383
X0.3792 Y0.8409 Z-0.04
X0.3796 Y0.8397 Z-0.0415
X0.38 Y0.8382 Z-0.0428
X0.3805 Y0.8366 Z-0.0438
X0.3814 Y0.8352 Z-0.0444
X0.3822 Y0.8338 Z-0.0448
X0.3826 Y0.8335 Z-0.0449
X0.3832 Y0.8334
X0.3836 Y0.8338 Z-0.045
X0.3838 Y0.8343
X0.3834 Y0.8404 Z-0.0452 F12
X0.3797 Y0.8928 Z-0.047
X0.3741 Y0.9446 Z-0.0489
X0.3686 Y0.9788 Z-0.0501
X0.3654 Y0.9956 Z-0.0507
X0.3576 Y1.0304 Z-0.0519
X0.345 Y1.0833 Z-0.0538
X0.3366 Y1.1181 Z-0.0551
X0.3217 Y1.1702 Z-0.057
X0.3051 Y1.2221 Z-0.0589
X0.2984 Y1.2393 Z-0.0595
X0.2917 Y1.2517 Z-0.06
X0.2911 Y1.2527 F20
X0.274 Y1.2816
X0.2567 Y1.3087
X0.2486 Y1.3211
X0.2316 Y1.3444
X0.2242 Y1.3519
X0.206 Y1.3687
X0.1861 Y1.3855
X0.1585 Y1.4067
X0.1245 Y1.4298
X0.1037 Y1.4426
X0.1144 Y1.4303
X0.1159 Y1.4284
X0.1352 Y1.4021
X0.1372 Y1.3991
X0.1525 Y1.3721
X0.1533 Y1.3707
X0.171 Y1.3355
X0.1894 Y1.3007
X0.1992 Y1.2833
X0.1998 Y1.2821
X0.2358 Y1.2112
X0.2363 Y1.2103
X0.2582 Y1.1633
X0.2775 Y1.1215
X0.2777 Y1.1211
X0.2938 Y1.0849
X0.294 Y1.0844
X0.3013 Y1.0674
X0.3019 Y1.0657
X0.3211 Y1.0125
X0.3212 Y1.012
X0.3454 Y0.9411
X0.3574 Y0.9055
X0.3575 Y0.905
X0.3744 Y0.8518
X0.375 Y0.8496
X0.3852 Y0.8066
X0.3834 Y0.8404
X0.3797 Y0.8928
X0.3741 Y0.9446
X0.3686 Y0.9788
X0.3654 Y0.9956
X0.3576 Y1.0304
X0.345 Y1.0833
X0.3366 Y1.1181
X0.3217 Y1.1702
X0.3051 Y1.2221
X0.2984 Y1.2393
X0.2917 Y1.2517
X0.2906 Y1.2532 Z-0.0597
X0.289 Y1.2543 Z-0.0594
X0.2874 Y1.2548 Z-0.0585
X0.2857 Y1.2549 Z-0.0577
X0.2843 Y1.2546 Z-0.0563
X0.2831 Y1.2541 Z-0.055
X0.2821 Y1.2534 Z-0.0538
X0.2813 Y1.2525 Z-0.0526
X0.2805 Y1.2513 Z-0.0518
X0.2801 Y1.2499 Z-0.0509
X0.2796 Y1.2476 Z-0.0502
X0.2792 Y1.2453 Z-0.05
X0.2714 Y1.2057
X0.2712 Y1.2042
X0.2715 Y1.2027
X0.3764 Y0.8505
X0.377 Y0.8483 Z-0.0502
X0.3777 Y0.8462 Z-0.0509
X0.3783 Y0.8442 Z-0.0519
X0.3788 Y0.8424 Z-0.0533
X0.3792 Y0.8409 Z-0.055
X0.3796 Y0.8397 Z-0.0565
X0.38 Y0.8382 Z-0.0578
X0.3805 Y0.8366 Z-0.0588
X0.3814 Y0.8352 Z-0.0594
X0.3822 Y0.8338 Z-0.0598
X0.3826 Y0.8335 Z-0.0599
X0.3832 Y0.8334
X0.3836 Y0.8338 Z-0.06
X0.3838 Y0.8343
X0.3834 Y0.8404 Z-0.0602 F12
X0.3797 Y0.8928 Z-0.062
X0.3741 Y0.9446 Z-0.0639
X0.3686 Y0.9788 Z-0.0651
X0.3654 Y0.9956 Z-0.0657
X0.3576 Y1.0304 Z-0.0669
X0.345 Y1.0833 Z-0.0688
X0.3366 Y1.1181 Z-0.0701
X0.3217 Y1.1702 Z-0.072
X0.3051 Y1.2221 Z-0.0739
X0.2984 Y1.2393 Z-0.0745
X0.2917 Y1.2517 Z-0.075
X0.2911 Y1.2527 F20
X0.274 Y1.2816
X0.2567 Y1.3087
X0.2486 Y1.3211
X0.2316 Y1.3444
X0.2242 Y1.3519
X0.206 Y1.3687
X0.1861 Y1.3855
X0.1585 Y1.4067
X0.1245 Y1.4298
X0.1037 Y1.4426
X0.1144 Y1.4303
X0.1159 Y1.4284
X0.1352 Y1.4021
X0.1372 Y1.3991
X0.1525 Y1.3721
X0.1533 Y1.3707
X0.171 Y1.3355
X0.1894 Y1.3007
X0.1992 Y1.2833
X0.1998 Y1.2821
X0.2358 Y1.2112
X0.2363 Y1.2103
X0.2582 Y1.1633
X0.2775 Y1.1215
X0.2777 Y1.1211
X0.2938 Y1.0849
X0.294 Y1.0844
X0.3013 Y1.0674
X0.3019 Y1.0657
X0.3211 Y1.0125
X0.3212 Y1.012
X0.3454 Y0.9411
X0.3574 Y0.9055
X0.3575 Y0.905
X0.3744 Y0.8518
X0.375 Y0.8496
X0.3852 Y0.8066
X0.3834 Y0.8404
X0.3797 Y0.8928
X0.3741 Y0.9446
X0.3686 Y0.9788
X0.3654 Y0.9956
X0.3576 Y1.0304
X0.345 Y1.0833
X0.3366 Y1.1181
X0.3217 Y1.1702
X0.3051 Y1.2221
X0.2984 Y1.2393
X0.2917 Y1.2517
X0.2909 Y1.2526 Z-0.0748
X0.2897 Y1.2531 Z-0.0746
X0.2884 Y1.2529 Z-0.0744
X0.2875 Y1.2523 Z-0.0738
X0.2868 Y1.2514 Z-0.0732
X0.2867 Y1.2502 Z-0.0727
Y1.2488 Z-0.0714
X0.2868 Y1.2475 Z-0.07
X0.2869 Y1.246 Z-0.0683
X0.287 Y1.2443 Z-0.067
X0.2871 Y1.2423 Z-0.0659
X0.2873 Y1.2402 Z-0.0653
X0.2881 Y1.2377 Z-0.065
X0.3268 Y1.1269
X0.3275 Y1.1247 Z-0.0652
X0.3283 Y1.1226 Z-0.0659
X0.329 Y1.1206 Z-0.0669
X0.33 Y1.1192 Z-0.0683
X0.3309 Y1.1179 Z-0.07
X0.3316 Y1.1169 Z-0.0714
X0.3324 Y1.1158 Z-0.0726
X0.3334 Y1.1145 Z-0.0736
X0.3341 Y1.1139 Z-0.074
X0.335 Y1.1136 Z-0.0743
X0.3359 Y1.1138 Z-0.0746
X0.3367 Y1.1143 Z-0.0748
X0.3371 Y1.1152 Z-0.0749
Y1.1162 Z-0.075
X0.3366 Y1.1181 Z-0.0751 F12
X0.3217 Y1.1702 Z-0.077
X0.3051 Y1.2221 Z-0.0789
X0.2984 Y1.2393 Z-0.0795
X0.2917 Y1.2517 Z-0.08
X0.2911 Y1.2527 F20
X0.274 Y1.2816
X0.2567 Y1.3087
X0.2486 Y1.3211
X0.2316 Y1.3444
X0.2242 Y1.3519
X0.206 Y1.3687
X0.1861 Y1.3855
X0.1585 Y1.4067
X0.1245 Y1.4298
X0.1037 Y1.4426
X0.1144 Y1.4303
X0.1159 Y1.4284
X0.1352 Y1.4021
X0.1372 Y1.3991
X0.1525 Y1.3721
X0.1533 Y1.3707
X0.171 Y1.3355
X0.1894 Y1.3007
X0.1992 Y1.2833
X0.1998 Y1.2821
X0.2358 Y1.2112
X0.2363 Y1.2103
X0.2582 Y1.1633
X0.2775 Y1.1215
X0.2777 Y1.1211
X0.2938 Y1.0849
X0.294 Y1.0844
X0.3013 Y1.0674
X0.3019 Y1.0657
X0.3211 Y1.0125
X0.3212 Y1.012
X0.3454 Y0.9411
X0.3574 Y0.9055
X0.3575 Y0.905
X0.3744 Y0.8518
X0.375 Y0.8496
X0.3852 Y0.8066
X0.3834 Y0.8404
X0.3797 Y0.8928
X0.3741 Y0.9446
X0.3686 Y0.9788
X0.3654 Y0.9956
X0.3576 Y1.0304
X0.345 Y1.0833
X0.3366 Y1.1181
X0.3217 Y1.1702
X0.3051 Y1.2221
X0.2984 Y1.2393
X0.2917 Y1.2517
X0.2907 Y1.2533 Z-0.0797
X0.2894 Y1.2547 Z-0.0794
X0.288 Y1.2558 Z-0.0785
X0.2866 Y1.2568 Z-0.0776
X0.284 Y1.2578 Z-0.0748
X0.2823 Y1.2581 Z-0.0714
X0.2816 Y1.2582 Z-0.0675
G0 Z0.1
X-0.5717 Y0.9718
Z0.0225
G1 X-0.5714 Y0.9723 Z0.0187 F12
X-0.5703 Y0.9736 Z0.0153
X-0.5686 Y0.9757 Z0.0125
X-0.5667 Y0.9784 Z0.0107
X-0.5647 Y0.9816 Z0.01
G3 X-0.6673 Y1.0413 Z0.0035 I-0.0513 J0.0299
X-0.5647 Y0.9816 Z-0.003 I0.0513 J-0.0299
X-0.6673 Y1.0413 Z-0.0095 I-0.0513 J0.0299
X-0.5857 Y0.9604 Z-0.015 I0.0513 J-0.0299
G1 X-0.5821 Y0.9627 F20
G3 X-0.5804 Y0.9951 I-0.0122 J0.0169
G1 X-0.5991 Y1.0119
G3 X-0.6252 Y0.9969 I-0.0106 J-0.0118
X-0.622 Y0.9832 I0.2903 J0.0604
X-0.6176 Y0.9697 I0.1164 J0.0301
X-0.5899 Y0.9582 I0.0194 J0.0075
G1 X-0.5859 Y0.9603
X-0.5857 Y0.9604
G2 X-0.53 Y0.9485 I0.0215 J-0.0362
G3 X-0.4749 Y0.9633 I0.0248 J0.0176
X-0.4801 Y0.9853 I-0.0352 J0.0033
X-0.5204 Y1.0333 I-0.1897 J-0.1182
X-0.5678 Y1.0743 I-1.0681 J-1.1882
X-0.63 Y1.1252 I-3.6992 J-4.455
X-0.6939 Y1.1741 I-0.9713 J-1.2033
X-0.7217 Y1.157 I-0.0104 J-0.0143
G2 X-0.708 Y1.0544 I-1.9294 J-0.31
G3 X-0.6853 Y0.9534 I0.4509 J0.0481
G1 X-0.6735 Y0.9194
G3 X-0.6582 Y0.8842 I0.2426 J0.0844
X-0.609 Y0.8695 I0.0318 J0.0167
X-0.5545 Y0.9002 I-1.683 J3.0461
G1 X-0.4924 Y0.936
G3 X-0.4749 Y0.9633 I-0.0176 J0.0306
G2 X-0.4575 Y1.0181 I0.136 J-0.0129
G3 X-0.4639 Y1.0753 I-0.0424 J0.0242
X-0.5624 Y1.1643 I-0.5166 J-0.473
G2 X-0.7899 Y1.3371 I8.488 J11.4085
G3 X-0.8176 Y1.3209 I-0.0106 J-0.0137
X-0.7708 Y1.018 I22.7286 J3.3578
X-0.7387 Y0.8928 I0.7203 J0.1177
X-0.6808 Y0.7773 I0.4866 J0.1717
X-0.6308 Y0.7684 I0.0293 J0.0197
G2 X-0.5823 Y0.8004 I0.3874 J-0.5338
X-0.5307 Y0.8268 I0.2235 J-0.3731
G3 X-0.4996 Y0.8445 I-0.0631 J0.1467
G2 X-0.3888 Y0.9044 I0.2771 J-0.3798
G3 X-0.3719 Y0.9491 I-0.0113 J0.0298
G1 X-0.3723 Y0.9498
X-0.3727 Y0.9505
G3 X-0.4639 Y1.0753 I-0.6077 J-0.3482
G2 X-0.4753 Y1.1352 I0.0428 J0.0392
G3 X-0.4915 Y1.194 I-0.0482 J0.0184
X-0.5178 Y1.2145 I-0.9306 J-1.1712
X-0.7092 Y1.3519 I-2.6882 J-3.5431
G2 X-0.8831 Y1.5106 I0.4615 J0.6802
X-0.9514 Y1.6396 I0.2837 J0.2328
X-0.9709 Y1.7841 I0.4609 J0.136
G3 X-1.0024 Y1.8021 I-0.0207 J0.0004
X-1.0494 Y1.771 I0.4103 J-0.6695
X-1.0944 Y1.7372 I0.718 J-1.0025
X-1.0924 Y1.6955 I0.0159 J-0.0201
G2 X-0.8933 Y1.3778 I-0.2403 J-0.3719
G3 X-0.8401 Y1.0067 I9.5076 J1.1737
X-0.7835 Y0.8284 I0.6373 J0.1041
X-0.6915 Y0.6655 I1.3743 J0.6684
X-0.6469 Y0.6614 I0.0239 J0.0155
G2 X-0.5018 Y0.7628 I0.3152 J-0.2967
G3 X-0.4592 Y0.7871 I-0.0836 J0.1961
G2 X-0.419 Y0.8146 I0.4334 J-0.5899
X-0.3758 Y0.8371 I0.1513 J-0.2375
X-0.3325 Y0.8505 I0.0916 J-0.2205
X-0.2881 Y0.8593 I0.6905 J-3.3391
G3 X-0.2678 Y0.8986 I-0.0053 J0.0276
X-0.3173 Y0.9882 I-0.5895 J-0.2671
G2 X-0.3732 Y1.0741 I6.329 J4.1811
G3 X-0.4393 Y1.1507 I-0.3012 J-0.1932
X-0.4915 Y1.194 I-0.9827 J-1.1279
G2 X-0.5133 Y1.2596 I0.0393 J0.0495
G3 X-0.5357 Y1.325 I-0.0602 J0.0159
G1 X-0.7499 Y1.4879
G2 X-0.8495 Y1.6057 I0.3207 J0.3723
X-0.8977 Y1.7523 I0.2934 J0.1776
X-0.8906 Y1.8372 I0.2454 J0.0223
X-0.8616 Y1.9174 I0.4552 J-0.1196
G3 X-0.8832 Y1.9418 I-0.0161 J0.0075
X-1.0732 Y1.8466 I0.2174 J-0.671
X-1.2358 Y1.7097 I0.7325 J-1.0354
X-1.2252 Y1.6706 I0.0165 J-0.0165
G2 X-1.0643 Y1.5713 I-0.0822 J-0.3134
X-0.9776 Y1.4033 I-0.2916 J-0.2568
G1 X-0.9165 Y0.9942
G3 X-0.8543 Y0.8007 I0.6751 J0.1103
X-0.7529 Y0.6245 I1.4705 J0.7291
G1 X-0.7196 Y0.5743
G3 X-0.6861 Y0.5293 I0.4069 J0.269
X-0.6457 Y0.5332 I0.0188 J0.0158
G2 X-0.5717 Y0.6271 I0.3255 J-0.1807
X-0.4712 Y0.6917 I0.2386 J-0.2604
G3 X-0.4137 Y0.7245 I-0.1112 J0.2618
G2 X-0.2339 Y0.79 I0.2013 J-0.2734
X-0.2035 Y0.789 I0.0102 J-0.1644
G3 X-0.1732 Y0.7858 I0.1255 J1.0155
X-0.149 Y0.8174 I0.0022 J0.0234
X-0.1949 Y0.9214 I-0.9065 J-0.3378
X-0.2492 Y1.0213 I-2.1983 J-1.1285
X-0.3286 Y1.1401 I-0.9016 J-0.5166
X-0.4278 Y1.2429 I-0.5152 J-0.3981
G1 X-0.5357 Y1.325
G2 X-0.5564 Y1.3849 I0.0346 J0.0455
G3 X-0.5772 Y1.4449 I-0.0553 J0.0144
G1 X-0.704 Y1.5413
G2 X-0.787 Y1.6379 I0.278 J0.3228
X-0.8277 Y1.7587 I0.2324 J0.1456
X-0.7669 Y1.9426 I0.2422 J0.022
X-0.5976 Y2.0367 I0.2195 J-0.1959
X-0.4721 Y2.0288 I0.0463 J-0.2675
X-0.3545 Y1.9843 I-0.2797 J-0.917
X-0.1708 Y1.8876 I-0.7496 J-1.6464
G3 X-0.1362 Y1.8857 I0.0191 J0.0314
G2 X-0.1066 Y1.8986 I0.2475 J-0.5296
X-0.0759 Y1.9083 I0.0791 J-0.1968
X-0.0644 Y1.9103 I0.0224 J-0.0958
G3 X-0.0528 Y1.9116 I-0.2232 J1.9973
X-0.049 Y1.9384 I-0.0016 J0.0139
X-0.294 Y2.0189 I-0.5915 J-1.3861
X-0.5499 Y2.0517 I-0.2835 J-1.2001
X-0.8985 Y2.0018 I-0.0241 J-1.0745
X-1.2062 Y1.8305 I0.2661 J-0.8401
X-1.3007 Y1.7392 I0.7234 J-0.8431
X-1.3808 Y1.6351 I0.5543 J-0.5096
X-1.3629 Y1.6087 I0.0146 J-0.0093
G2 X-1.0424 Y1.3754 I0.051 J-0.2668
G3 X-0.986 Y0.9829 I10.1718 J1.2603
X-0.8958 Y0.7202 I0.8161 J0.1333
X-0.7401 Y0.4902 I1.2739 J0.695
X-0.7011 Y0.4442 I2.0529 J1.6982
X-0.6575 Y0.4025 I0.2416 J0.2092
X-0.6142 Y0.4188 I0.0167 J0.0212
G2 X-0.5541 Y0.546 I0.2703 J-0.05
X-0.4402 Y0.6285 I0.2229 J-0.1879
G3 X-0.375 Y0.6656 I-0.1042 J0.2585
G2 X-0.2422 Y0.7184 I0.16 J-0.2091
X-0.1005 Y0.7004 I0.0324 J-0.3113
G3 X-0.0521 Y0.7207 I0.0134 J0.0359
X-0.0502 Y0.7434 I-0.0318 J0.0142
X-0.0564 Y0.7653 I-0.3594 J-0.091
X-0.1816 Y1.0545 I-1.5216 J-0.4866
X-0.3828 Y1.2971 I-0.7475 J-0.4153
G1 X-0.5772 Y1.4449
X-0.5788 Y1.4459 Z-0.0147
X-0.5806 Y1.4466 Z-0.0144
X-0.5823 Y1.447 Z-0.0135
X-0.584 Y1.4472 Z-0.0126
X-0.5867 Y1.447 Z-0.0098
X-0.5885 Y1.4466 Z-0.0064
X-0.589 Y1.4464 Z-0.0025
G0 Z0.1
X0.9509 Y0.7832
Z0.0225
G1 X0.9511 Y0.7827 Z0.0187 F12
X0.9517 Y0.7811 Z0.0153
X0.9527 Y0.7786 Z0.0125
X0.9542 Y0.7756 Z0.0107
X0.956 Y0.7723 Z0.01
G3 X1.0578 Y0.8335 Z0.0035 I0.0509 J0.0306
X0.956 Y0.7723 Z-0.003 I-0.0509 J-0.0306
X1.0578 Y0.8335 Z-0.0095 I0.0509 J0.0306
X0.9475 Y0.801 Z-0.015 I-0.0509 J-0.0306
G1 X0.9477 Y0.7955 F20
G3 X0.9732 Y0.7686 I0.0279 J0.0009
G1 X1.0086 Y0.7655
G3 X1.0267 Y0.7957 I0.0017 J0.0195
G1 X0.9717 Y0.8791
G3 X0.9448 Y0.8703 I-0.0122 J-0.0081
G2 X0.9475 Y0.801 I-5.1604 J-0.2359
X0.9147 Y0.7622 I-0.0379 J-0.0012
G3 X0.9057 Y0.7122 I0.0035 J-0.0265
X0.9223 Y0.7075 I0.0192 J0.0361
G2 X1.026 Y0.6995 I-0.2312 J-3.6656
X1.1291 Y0.6859 I-0.1197 J-1.3081
G3 X1.1489 Y0.7141 I0.0032 J0.0188
G1 X0.8736 Y1.1248
G3 X0.8495 Y1.1134 I-0.0109 J-0.0082
G2 X0.8766 Y0.9443 I-1.1469 J-0.271
X0.8846 Y0.7732 I-2.1408 J-0.1858
X0.8843 Y0.7606 I-0.2021 J-0.0014
G3 X0.884 Y0.748 I0.2018 J-0.0112
X0.9057 Y0.7122 I0.0409 J0.0003
G2 X0.9384 Y0.6733 I-0.0321 J-0.0603
G3 X0.9789 Y0.6425 I0.0427 J0.0141
G1 X0.98
G2 X1.1038 Y0.632 I-0.0847 J-1.737
X1.1766 Y0.6165 I-0.0501 J-0.4151
G3 X1.2483 Y0.5966 I0.4048 J1.3162
X1.2693 Y0.6227 I0.0045 J0.0179
G1 X1.1373 Y0.8477
G3 X0.934 Y1.1451 I-3.2912 J-2.0315
X0.6976 Y1.4169 I-2.0638 J-1.5565
X0.6784 Y1.4024 I-0.0086 J-0.0086
G2 X0.7798 Y1.1466 I-0.9314 J-0.5171
X0.8234 Y0.8749 I-1.5101 J-0.3821
X0.8246 Y0.7823 I-0.788 J-0.056
G3 X0.821 Y0.6897 I5.4736 J-0.2541
X0.8561 Y0.6506 I0.0381 J-0.0011
X0.9789 Y0.6425 I0.3081 J3.7712
G2 X1.0173 Y0.6134 I-0.0021 J-0.0426
G3 X1.0549 Y0.5833 I0.0421 J0.0141
G2 X1.0696 Y0.5817 I-0.2431 J-2.3775
X1.3351 Y0.5085 I-0.0926 J-0.8531
X1.3502 Y0.5005 I-0.0643 J-0.14
G3 X1.3652 Y0.4922 I0.118 J0.1962
X1.3863 Y0.513 I0.007 J0.014
X0.9495 Y1.2101 I-3.4305 J-1.6644
X0.3538 Y1.7774 I-2.2837 J-1.8015
X-0.0484 Y1.998 I-1.1354 J-1.5932
X-0.4934 Y2.1089 I-0.617 J-1.5264
X-0.9485 Y2.0484 I-0.1021 J-0.9723
X-1.3294 Y1.7921 I0.3749 J-0.9685
X-1.5179 Y1.5129 I0.7611 J-0.7172
X-1.6232 Y1.1929 I1.3409 J-0.6185
G1 X-1.6675 Y0.9429
G3 X-1.6432 Y0.9348 I0.013 J-0.0014
G2 X-1.6119 Y0.9772 I0.2229 J-0.1316
X-1.5713 Y1.0109 I0.1389 J-0.1261
G3 X-1.5479 Y1.0534 I-0.0257 J0.0418
G2 X-1.5215 Y1.3793 I1.7419 J0.0225
X-1.2394 Y1.5447 I0.2115 J-0.0374
X-1.1427 Y1.466 I-0.06 J-0.1724
X-1.0984 Y1.3495 I-0.3056 J-0.1828
X-1.0591 Y1.0534 I-2.6557 J-0.5035
G3 X-0.9839 Y0.7643 I0.8422 J0.0648
X-0.8785 Y0.573 I1.3917 J0.6422
X-0.7412 Y0.4033 I0.8721 J0.5651
X-0.6763 Y0.3507 I0.2836 J0.2836
X-0.5991 Y0.3191 I0.1213 J0.1863
X-0.5629 Y0.3476 I0.006 J0.0296
G2 X-0.5532 Y0.4262 I0.461 J-0.0174
X-0.5192 Y0.4978 I0.1678 J-0.0357
X-0.4724 Y0.5431 I0.2006 J-0.1608
X-0.4154 Y0.5744 I0.1409 J-0.1887
G3 X-0.3411 Y0.6168 I-0.0993 J0.2604
G2 X-0.2405 Y0.659 I0.1251 J-0.1572
X-0.1317 Y0.6505 I0.0335 J-0.2727
X-0.0985 Y0.637 I-0.0445 J-0.1564
X-0.0673 Y0.6194 I-0.5745 J-1.0562
G3 X-0.0234 Y0.6345 I0.0154 J0.0265
G2 X-0.0074 Y0.6742 I5.406 J-2.1531
G3 X0.0068 Y0.7145 I-0.4095 J0.1666
X0.0069 Y0.7492 I-0.059 J0.0176
X-0.0032 Y0.7823 I-1.1723 J-0.3385
X-0.1339 Y1.087 I-1.6499 J-0.5276
X-0.3448 Y1.3428 I-0.7767 J-0.4255
G1 X-0.6652 Y1.5863
G2 X-0.7342 Y1.6651 I0.2433 J0.2825
X-0.7686 Y1.764 I0.1819 J0.1186
X-0.7198 Y1.9065 I0.1837 J0.0167
X-0.5874 Y1.9782 I0.1726 J-0.1607
X-0.4796 Y1.9699 I0.0376 J-0.2175
X-0.3791 Y1.9303 I-0.3314 J-0.9884
X-0.284 Y1.8837 I-0.7724 J-1.6964
X-0.1922 Y1.831 I-0.6643 J-1.2634
G3 X-0.1208 Y1.8274 I0.039 J0.0624
G2 X-0.0742 Y1.8475 I0.226 J-0.4601
X-0.0243 Y1.8569 I0.0521 J-0.1393
X0.1244 Y1.8249 I0.0049 J-0.3391
X0.2603 Y1.7568 I-1.2055 J-2.5754
X0.6151 Y1.4054 I-0.4129 J-0.7717
X0.7625 Y0.9282 I-1.0948 J-0.5993
X0.7676 Y0.7797 I-1.1675 J-0.1148
X0.7608 Y0.6313 I-4.4176 J0.1268
G3 X0.7946 Y0.5956 I0.0335 J-0.0021
G2 X1.0549 Y0.5833 I0.0171 J-2.3898
G1 X1.0568 Y0.5832 Z-0.0147
X1.0587 Y0.5834 Z-0.0144
X1.0604 Y0.5839 Z-0.0135
X1.062 Y0.5846 Z-0.0126
X1.0643 Y0.5861 Z-0.0098
X1.0656 Y0.5873 Z-0.0064
X1.066 Y0.5877 Z-0.0025
G0 Z0.1
X1.6086 Y-0.4125
Z0.0225
G1 X1.6083 Y-0.4119 Z0.0187 F12
X1.6076 Y-0.4104 Z0.0153
X1.6064 Y-0.408 Z0.0125
X1.6046 Y-0.4051 Z0.0107
X1.6025 Y-0.402 Z0.01
G3 X1.5062 Y-0.4714 Z0.0035 I-0.0482 J-0.0347
X1.6025 Y-0.402 Z-0.003 I0.0482 J0.0347
X1.5062 Y-0.4714 Z-0.0095 I-0.0482 J-0.0347
X1.6133 Y-0.4299 Z-0.015 I0.0482 J0.0347
G1 X1.6131 Y-0.4275 F20
G3 X1.5975 Y-0.4138 I-0.0154 J-0.0018
G1 X1.5951
X1.5916
G3 X1.5768 Y-0.4336 I0 J-0.0155
G2 X1.5906 Y-0.4834 I-1.6163 J-0.4751
X1.6024 Y-0.5337 I-0.9632 J-0.2513
G3 X1.6248 Y-0.5304 I0.0111 J0.0023
X1.6192 Y-0.4789 I-1.5887 J-0.1457
G2 X1.6133 Y-0.4299 I5.5541 J0.6919
G1 X1.613 Y-0.428 Z-0.0147
X1.6123 Y-0.4262 Z-0.0144
X1.6115 Y-0.4247 Z-0.0135
X1.6105 Y-0.4233 Z-0.0126
X1.6085 Y-0.4214 Z-0.0098
X1.607 Y-0.4204 Z-0.0064
X1.6064 Y-0.4201 Z-0.0025
G0 Z0.1
X0.8638 Y-1.7058
Z0.0225
G1 X0.8642 Y-1.7054 Z0.0187 F12
X0.8655 Y-1.7043 Z0.0153
X0.8674 Y-1.7025 Z0.0125
X0.8697 Y-1.7 Z0.0107
X0.8721 Y-1.6971 Z0.01
G3 X0.7782 Y-1.6244 Z0.0035 I-0.0469 J0.0364
X0.8721 Y-1.6971 Z-0.003 I0.0469 J-0.0364
X0.7782 Y-1.6244 Z-0.0095 I-0.0469 J0.0364
X0.8484 Y-1.7154 Z-0.015 I0.0469 J-0.0364
X0.9016 Y-1.6898 I-0.254 J0.5967 F20
X0.9789 Y-1.6428 I-0.3814 J0.714
X1.0486 Y-1.5849 I-0.2836 J0.4124
X1.0305 Y-1.5647 I-0.0096 J0.0096
G2 X0.6449 Y-1.723 I-0.4644 J0.5823
G3 X0.627 Y-1.7383 I0.0022 J-0.0207
G1 X0.6269 Y-1.7388
G3 X0.6487 Y-1.7649 I0.0201 J-0.0054
X0.8484 Y-1.7154 I-0.0543 J0.6463
G2 X0.9165 Y-1.728 I0.0245 J-0.0576
G3 X0.9852 Y-1.7359 I0.0395 J0.0408
X1.168 Y-1.5762 I-0.3555 J0.5912
X1.1599 Y-1.5292 I-0.0248 J0.0199
G2 X1.1268 Y-1.5074 I0.3688 J0.5965
X1.0957 Y-1.4826 I0.1856 J0.2654
X1.0848 Y-1.4722 I0.1618 J0.1797
G3 X1.0739 Y-1.4617 I-0.1727 J-0.1692
X1.0196 Y-1.4622 I-0.0269 J-0.0299
G2 X0.935 Y-1.5326 I-0.6876 J0.7398
X0.8404 Y-1.5888 I-0.3157 J0.4242
X0.7222 Y-1.6263 I-0.2108 J0.458
X0.5995 Y-1.6434 I-0.2456 J1.3137
G3 X0.5535 Y-1.6841 I0.0048 J-0.0517
G2 X0.5349 Y-1.7506 I-0.5804 J0.1266
X0.5071 Y-1.8139 I-0.3932 J0.1351
G3 X0.5277 Y-1.8494 I0.0211 J-0.0115
X0.8798 Y-1.7877 I0.0215 J0.912
X0.9852 Y-1.7359 I-0.25 J0.6429
G2 X1.0552 Y-1.7378 I0.0335 J-0.0558
G3 X1.1251 Y-1.7336 I0.0322 J0.0477
X1.1923 Y-1.6677 I-0.4888 J0.5649
X1.2455 Y-1.6052 I-1.1602 J1.0413
X1.2935 Y-1.5385 I-0.5803 J0.4681
X1.2793 Y-1.4961 I-0.0242 J0.0155
G2 X1.2342 Y-1.4786 I0.5914 J1.5884
X1.1912 Y-1.4563 I0.0967 J0.2388
X1.1246 Y-1.4017 I0.2061 J0.3194
X1.0699 Y-1.3352 I0.3766 J0.3657
G3 X1.027 Y-1.3334 I-0.0221 J-0.0153
G2 X0.9457 Y-1.4229 I-0.9386 J0.7715
X0.8479 Y-1.494 I-0.2763 J0.2775
X0.661 Y-1.5584 I-0.3196 J0.6241
X0.5894 Y-1.5646 I-0.0655 J0.3376
X0.5175 Y-1.5626 I0.0586 J3.3287
G3 X0.4822 Y-1.5959 I-0.0013 J-0.034
G2 X0.3604 Y-1.8743 I-0.3969 J0.0078
G3 X0.3699 Y-1.9089 I0.014 J-0.0147
X0.4426 Y-1.9205 I0.1236 J0.5411
X0.516 Y-1.9259 I0.1836 J1.9899
X0.8835 Y-1.8737 I0.0525 J0.9507
X1.1251 Y-1.7336 I-0.2471 J0.705
G2 X1.1916 Y-1.7235 I0.0413 J-0.0477
G3 X1.2573 Y-1.7087 I0.0227 J0.0522
X1.4125 Y-1.4777 I-0.8354 J0.7289
X1.3921 Y-1.4433 I-0.0213 J0.0107
G2 X1.2216 Y-1.3844 I0.0114 J0.3094
X1.1031 Y-1.2485 I0.2365 J0.3258
X1.0868 Y-1.2103 I0.2098 J0.1122
G3 X1.0731 Y-1.171 I-1.0514 J-0.3439
X1.0416 Y-1.1704 I-0.0158 J-0.0059
G2 X0.8478 Y-1.4083 I-0.4889 J0.2006
X0.5528 Y-1.4929 I-0.2784 J0.4137
X0.4866 Y-1.4848 I0.0124 J0.3753
G3 X0.4211 Y-1.4714 I-0.7389 J-3.4456
X0.3953 Y-1.4995 I-0.0043 J-0.022
G2 X0.3905 Y-1.6928 I-0.3141 J-0.0889
X0.2781 Y-1.8502 I-0.3157 J0.1066
X0.2243 Y-1.8809 I-0.1375 J0.1786
X0.1657 Y-1.9007 I-0.2068 J0.5166
G3 X0.165 Y-1.9293 I0.004 J-0.0144
X0.4952 Y-1.9963 I0.4524 J1.3822
X0.8314 Y-1.9735 I0.0934 J1.1087
X1.1777 Y-1.791 I-0.163 J0.729
X1.2573 Y-1.7087 I-0.7559 J0.8111
G2 X1.3108 Y-1.6938 I0.0381 J-0.0332
G3 X1.3636 Y-1.6767 I0.0145 J0.0453
G1 X1.3678 Y-1.6709
G3 X1.5234 Y-1.385 I-1.0313 J0.7467
X1.5005 Y-1.3622 I-0.0165 J0.0064
G2 X1.3287 Y-1.3668 I-0.0924 J0.2347
X1.188 Y-1.2683 I0.0944 J0.2845
X1.1099 Y-1.0938 I0.3051 J0.2412
X1.0786 Y-0.9053 I11.7206 J2.0421
X1.0601 Y-0.7817 I8.0596 J1.2712
G3 X1.0305 Y-0.6604 I-0.63 J-0.0895
X1.0075 Y-0.666 I-0.0112 J-0.0039
G2 X1.0315 Y-0.8931 I-2.9904 J-0.4318
X0.9974 Y-1.1189 I-0.5273 J-0.0358
X0.8334 Y-1.3318 I-0.44 J0.1695
X0.5825 Y-1.428 I-0.3068 J0.425
X0.4163 Y-1.4113 I-0.0434 J0.4044
X0.2621 Y-1.3471 I0.2872 J0.907
G3 X0.2468 Y-1.3671 I-0.0059 J-0.0113
G2 X0.3347 Y-1.5198 I-0.2899 J-0.2684
X0.3245 Y-1.6958 I-0.2425 J-0.0742
X0.1199 Y-1.8511 I-0.2415 J0.1058
X-0.1306 Y-1.7942 I-0.0506 J0.3575
X-0.2483 Y-1.7041 I0.6168 J0.9271
X-0.3579 Y-1.6044 I2.6973 J3.0743
G3 X-0.4025 Y-1.6095 I-0.0201 J-0.0213
G2 X-0.4112 Y-1.6221 I-0.2663 J0.1764
X-0.4208 Y-1.6341 I-0.1558 J0.1143
G3 X-0.4156 Y-1.6818 I0.0248 J-0.0214
X0.0013 Y-1.9281 I1.3446 J1.8002
X0.4672 Y-2.0603 I0.6736 J1.4862
X0.8182 Y-2.046 I0.1334 J1.0391
X1.1386 Y-1.9021 I-0.1726 J0.8129
X1.3636 Y-1.6767 I-0.6275 J0.8514
G2 X1.4112 Y-1.6592 I0.037 J-0.0272
G3 X1.4582 Y-1.64 I0.0101 J0.0424
X1.535 Y-1.493 I-0.8719 J0.5491
X1.6414 Y-1.1447 I-1.6109 J0.6829
X1.681 Y-0.7669 I-2.121 J0.4131
X1.6623 Y-0.3874 I-2.9014 J0.0474
X1.6242 Y-0.3576 I-0.0338 J-0.0039
G2 X1.5881 Y-0.3606 I-0.0506 J0.3908
X1.5521 Y-0.3568 I-0.0047 J0.1273
X1.5166 Y-0.3451 I0.0657 J0.2593
G3 X1.4952 Y-0.3666 I-0.0063 J-0.0151
G2 X1.5546 Y-0.5487 I-1.0369 J-0.439
X1.5874 Y-0.7375 I-1.595 J-0.3738
G1 X1.6325 Y-1.1097
G2 X1.5308 Y-1.2923 I-0.2184 J0.002
X1.3226 Y-1.3104 I-0.1216 J0.1923
X1.1988 Y-1.1829 I0.085 J0.2065
X1.1499 Y-1.0121 I0.9996 J0.3784
X1.1101 Y-0.7853 I5.1378 J1.0171
G3 X1.0447 Y-0.5645 I-0.8364 J-0.1277
X0.9954 Y-0.476 I-0.5512 J-0.2491
X0.9352 Y-0.3945 I-0.9458 J-0.6363
X0.9112 Y-0.4062 I-0.0106 J-0.0086
X0.925 Y-0.4637 I4.5976 J1.0713
G2 X0.9363 Y-0.5217 I-0.5857 J-0.1442
X0.9797 Y-0.8829 I-7.5893 J-1.0958
X0.8686 Y-1.2293 I-0.4581 J-0.0441
X0.7365 Y-1.3295 I-0.3069 J0.2673
X0.5768 Y-1.3746 I-0.2125 J0.4471
X0.4302 Y-1.3611 I-0.0397 J0.3697
X0.2927 Y-1.3085 I0.2874 J0.9573
X0.1155 Y-1.2002 I0.4042 J0.8607
X-0.046 Y-1.0696 I2.9235 J3.7832
G3 X-0.0661 Y-1.0857 I-0.0084 J-0.01
X0.047 Y-1.2412 I0.5861 J0.3075
X0.1856 Y-1.3743 I2.2379 J2.1896
G2 X0.2721 Y-1.4944 I-0.2366 J-0.2618
X0.2866 Y-1.6418 I-0.2185 J-0.0958
X0.1288 Y-1.7911 I-0.1892 J0.0418
X-0.086 Y-1.7582 I-0.0568 J0.3466
X-0.195 Y-1.6859 I0.2464 J0.4892
X-0.2924 Y-1.5985 I1.6811 J1.972
X-0.3407 Y-1.5496 I0.6854 J0.7263
X-0.3868 Y-1.4985 I2.0942 J1.9334
G3 X-0.4177 Y-1.5072 I-0.0134 J-0.0118
G2 X-0.5065 Y-1.6377 I-0.19 J0.0338
G3 X-0.509 Y-1.6783 I0.013 J-0.0212
G1 X-0.2094 Y-1.8802
G3 X0.1888 Y-2.0577 I0.9412 J1.5754
X0.6201 Y-2.1214 I0.421 J1.3591
X1.011 Y-2.0329 I-0.0068 J0.9374
X1.3358 Y-1.798 I-0.4544 J0.97
X1.4582 Y-1.64 I-0.7495 J0.7071
G2 X1.4958 Y-1.6229 I0.0319 J-0.0201
G3 X1.5329 Y-1.6046 I0.0055 J0.0356
X1.5845 Y-1.4975 I-1.0137 J0.5541
X1.71 Y-1.0261 I-1.6453 J0.6905
X1.7236 Y-0.5384 I-2.5451 J0.3148
X1.7154 Y-0.4235 I-15.6764 J-1.0593
X1.701 Y-0.3092 I-1.1468 J-0.0859
X1.6642 Y-0.2924 I-0.0242 J-0.0043
G2 X1.5808 Y-0.3146 I-0.0805 J0.1342
X1.5 Y-0.2842 I0.0025 J0.1291
X1.4165 Y-0.17 I0.1929 J0.2286
G3 X1.3474 Y-0.0465 I-0.5549 J-0.2295
X1.2873 Y0.028 I-0.7688 J-0.5587
X1.2118 Y0.087 I-0.2008 J-0.1794
X1.1297 Y0.1208 I-0.2222 J-0.4225
X1.0439 Y0.1435 I-0.336 J-1.0948
X1.0343 Y0.12 I-0.0028 J-0.0126
G2 X1.233 Y-0.0503 I-0.4511 J-0.7276
X1.3883 Y-0.2609 I-1.3539 J-1.1611
X1.4985 Y-0.5286 I-0.7179 J-0.4521
X1.5464 Y-0.814 I-2.6658 J-0.5939
G1 X1.5831 Y-1.1159
G2 X1.5606 Y-1.1925 I-0.1464 J0.0013
X1.504 Y-1.2487 I-0.1501 J0.0944
X1.3813 Y-1.2734 I-0.0945 J0.1522
X1.2733 Y-1.2101 I0.0272 J0.1702
X1.2218 Y-1.1094 I0.2267 J0.1792
X1.1976 Y-0.9989 I0.918 J0.2591
G3 X1.1591 Y-0.7602 I-33.0965 J-5.22
X1.0833 Y-0.5307 I-0.7715 J-0.1274
X0.9748 Y-0.3694 I-0.7314 J-0.3752
X0.8376 Y-0.2317 I-1.0202 J-0.8787
X0.8057 Y-0.2556 I-0.0134 J-0.0154
G2 X0.8443 Y-0.3429 I-3.5711 J-1.6305
X0.8724 Y-0.4342 I-0.416 J-0.1778
X0.9101 Y-0.6527 I-5.0823 J-0.9904
X0.9321 Y-0.8732 I-2.1724 J-0.3275
X0.8828 Y-1.1184 I-0.5109 J-0.0249
X0.7047 Y-1.294 I-0.3317 J0.1583
X0.5059 Y-1.3222 I-0.1464 J0.3181
X0.3137 Y-1.2638 I0.1047 J0.6905
X0.1365 Y-1.1577 I0.4385 J0.9336
X-0.0254 Y-1.0294 I1.9987 J2.6864
X-0.1053 Y-0.948 I0.3943 J0.4668
G1 X-0.1727 Y-0.865
G3 X-0.1974 Y-0.8763 I-0.0109 J-0.0088
X-0.1885 Y-0.9077 I0.1575 J0.0274
G2 X-0.1775 Y-0.9384 I-0.4901 J-0.1936
G3 X-0.1062 Y-1.111 I1.1511 J0.3743
X-0.0007 Y-1.2652 I0.6356 J0.322
X0.0846 Y-1.3491 I0.721 J0.6475
G2 X0.1724 Y-1.4305 I-1.2033 J-1.3846
X0.2405 Y-1.5816 I-0.1628 J-0.1644
X0.1619 Y-1.7276 I-0.158 J-0.0091
X0.0414 Y-1.7516 I-0.0956 J0.1649
X-0.0736 Y-1.7085 I0.0354 J0.2693
X-0.2528 Y-1.5749 I1.1578 J1.7405
X-0.4001 Y-1.4068 I0.4565 J0.5486
X-0.5328 Y-1.1456 I1.3432 J0.8466
X-0.6048 Y-0.8616 I1.0578 J0.4195
G3 X-0.6305 Y-0.8595 I-0.013 J-0.0016
X-0.6538 Y-1.0139 I0.5873 J-0.1675
X-0.6222 Y-1.1668 I0.3497 J-0.0075
G1 X-0.4832 Y-1.3871
G2 X-0.4634 Y-1.4907 I-0.188 J-0.0897
X-0.512 Y-1.5844 I-0.1318 J0.0089
X-0.5591 Y-1.6105 I-0.0966 J0.1191
X-0.6125 Y-1.6172 I-0.0432 J0.1266
G3 X-0.6239 Y-1.6444 I-0.0012 J-0.0154
X-0.3635 Y-1.8433 I1.7109 J1.9698
X-0.0787 Y-2.0055 I1.2702 J1.8992
X0.4114 Y-2.1592 I0.7827 J1.6373
X0.9236 Y-2.1204 I0.176 J1.0773
X1.3221 Y-1.8812 I-0.3172 J0.9797
X1.5329 Y-1.6046 I-0.8029 J0.8307
G1 X1.5337 Y-1.6028 Z-0.0147
X1.5341 Y-1.6009 Z-0.0144
X1.5343 Y-1.5992 Z-0.0135
X1.5342 Y-1.5974 Z-0.0126
X1.5335 Y-1.5948 Z-0.0098
X1.5328 Y-1.5931 Z-0.0064
X1.5325 Y-1.5926 Z-0.0025
G0 Z0.1
X-1.1787 Y-0.4929
Z0.0225
G1 X-1.1783 Y-0.4933 Z0.0187 F12
X-1.1771 Y-0.4945 Z0.0153
X-1.1752 Y-0.4963 Z0.0125
X-1.1726 Y-0.4985 Z0.0107
X-1.1696 Y-0.5007 Z0.01
G3 X-1.1016 Y-0.4034 Z0.0035 I0.034 J0.0487
X-1.1696 Y-0.5007 Z-0.003 I-0.034 J-0.0487
X-1.1016 Y-0.4034 Z-0.0095 I0.034 J0.0487
X-1.189 Y-0.478 Z-0.015 I-0.034 J-0.0487
G1 X-1.1876 Y-0.4809 F20
G3 X-1.1595 Y-0.4802 I0.0139 J0.0067
G1 X-1.1577 Y-0.476
G3 X-1.1642 Y-0.4566 I-0.0142 J0.006
G1 X-1.1698 Y-0.4534
G3 X-1.1913 Y-0.4733 I-0.0077 J-0.0133
G1 X-1.189 Y-0.478
G2 X-1.1972 Y-0.534 I-0.0454 J-0.022
G3 X-1.2058 Y-0.59 I0.0378 J-0.0345
G1 X-1.1822 Y-0.6411
G3 X-1.1485 Y-0.6379 I0.0161 J0.0092
G2 X-1.1173 Y-0.5538 I1.4662 J-0.4968
X-1.0829 Y-0.471 I4.8413 J-1.9596
G3 X-1.1013 Y-0.4158 I-0.0404 J0.0172
X-1.1882 Y-0.3677 I-1.1623 J-1.9988
G2 X-1.2729 Y-0.3158 I0.3482 J0.6628
X-1.2957 Y-0.2987 I0.2876 J0.4057
G3 X-1.3182 Y-0.2812 I-0.6687 J-0.8375
X-1.3407 Y-0.2986 I-0.0089 J-0.0118
G1 X-1.2058 Y-0.59
G2 X-1.2136 Y-0.6466 I-0.0479 J-0.0222
G3 X-1.2198 Y-0.7033 I0.0384 J-0.0329
X-1.1624 Y-0.8072 I3.5239 J1.8824
X-1.1307 Y-0.8025 I0.0149 J0.0086
G2 X-1.074 Y-0.6183 I1.4172 J-0.3358
X-0.9989 Y-0.4407 I2.5855 J-0.9883
G3 X-1.0167 Y-0.3885 I-0.0362 J0.0168
G2 X-1.2095 Y-0.2826 I2.1664 J4.1732
X-1.385 Y-0.1499 I0.4539 J0.7826
X-1.426 Y-0.1066 I0.4757 J0.4911
G3 X-1.4658 Y-0.0623 I-1.3269 J-1.1502
X-1.4889 Y-0.0759 I-0.0101 J-0.0093
X-1.2198 Y-0.7033 I3.7929 J1.255
G2 X-1.224 Y-0.7551 I-0.0424 J-0.0226
G3 X-1.2273 Y-0.807 I0.0371 J-0.0284
G1 X-1.122 Y-0.9876
G3 X-1.0941 Y-0.9797 I0.0127 J0.0084
G2 X-1.0353 Y-0.6854 I0.9073 J-0.0282
X-0.9145 Y-0.4106 I2.7621 J-1.0502
G3 X-0.931 Y-0.3614 I-0.0327 J0.0164
X-0.9807 Y-0.3383 I-0.5116 J-1.0338
G2 X-1.0295 Y-0.3135 I0.1915 J0.4381
X-1.2252 Y-0.1942 I2.7646 J4.7542
X-1.401 Y-0.0474 I0.4862 J0.7613
X-1.5147 Y0.0904 I1.1201 J1.0396
X-1.6076 Y0.2431 I0.854 J0.6241
G3 X-1.6303 Y0.2355 I-0.0108 J-0.0054
X-1.4998 Y-0.2365 I2.8192 J0.5256
X-1.2994 Y-0.6833 I3.4593 J1.2835
G1 X-1.2273 Y-0.807
G2 X-1.2304 Y-0.8595 I-0.0411 J-0.0239
G3 X-1.2328 Y-0.912 I0.0374 J-0.0281
X-1.0142 Y-1.2321 I3.3358 J2.0434
X-0.9931 Y-1.2203 I0.0097 J0.0074
G2 X-1.0377 Y-1.0602 I0.7222 J0.2872
X-1.0342 Y-0.894 I0.4449 J0.0738
X-0.9543 Y-0.6277 I1.5987 J-0.3345
X-0.8327 Y-0.3777 I1.7014 J-0.673
G3 X-0.8468 Y-0.3375 I-0.0241 J0.0141
G2 X-1.1795 Y-0.1622 I0.5656 J1.4767
X-1.4535 Y0.0954 I0.7127 J1.0325
X-1.5695 Y0.2826 I0.7827 J0.6148
X-1.6307 Y0.4942 I0.6153 J0.2927
X-1.6379 Y0.7416 I1.3613 J0.1632
X-1.6125 Y0.874 I0.5228 J-0.0316
X-1.5196 Y0.9715 I0.1492 J-0.0492
G3 X-1.4888 Y1.0193 I-0.0172 J0.0449
G2 X-1.4913 Y1.15 I1.616 J0.0965
X-1.4814 Y1.2803 I1.1861 J-0.0251
X-1.4602 Y1.389 I0.9018 J-0.1191
X-1.3958 Y1.479 I0.149 J-0.0385
X-1.1633 Y1.3757 I0.0831 J-0.1263
G1 X-1.1242 Y1.1227
G2 X-1.1031 Y0.9702 I-4.8151 J-0.7439
G3 X-1.0682 Y0.8201 I0.718 J0.0878
X-0.9668 Y0.6076 I1.0131 J0.3527
X-0.8294 Y0.4163 I1.4716 J0.9124
X-0.7495 Y0.3317 I0.6805 J0.5629
X-0.6477 Y0.2753 I0.1656 J0.1786
X-0.5893 Y0.2608 I0.3541 J1.3029
X-0.5305 Y0.2485 I0.4327 J1.9278
X-0.5015 Y0.2754 I0.0046 J0.024
G2 X-0.506 Y0.3561 I0.6348 J0.0756
X-0.4896 Y0.4353 I0.2074 J-0.0017
X-0.4491 Y0.4897 I0.1318 J-0.0557
X-0.3894 Y0.5221 I0.1114 J-0.1345
G3 X-0.3093 Y0.5677 I-0.0632 J0.2038
G2 X-0.1967 Y0.6028 I0.0942 J-0.104
X-0.085 Y0.5646 I-0.0394 J-0.2972
X-0.062 Y0.5479 I-0.0726 J-0.1245
G3 X-0.0405 Y0.5293 I0.9554 J1.0772
X0.0008 Y0.5387 I0.0171 J0.0201
X0.0244 Y0.6031 I-0.4897 J0.2161
G2 X0.048 Y0.6674 I0.4887 J-0.1427
G3 X0.0534 Y0.8002 I-0.1643 J0.0732
X0.0064 Y0.9245 I-2.69 J-0.9445
X-0.122 Y1.1755 I-1.4771 J-0.5973
X-0.3078 Y1.3875 I-0.7574 J-0.4764
G1 X-0.6274 Y1.6302
G2 X-0.6826 Y1.6916 I0.2125 J0.2467
X-0.7108 Y1.7693 I0.1335 J0.0924
X-0.6329 Y1.9005 I0.1296 J0.0118
X-0.4806 Y1.907 I0.0846 J-0.1953
X-0.3234 Y1.8401 I-0.3471 J-1.0334
X-0.1767 Y1.7527 I-0.7016 J-1.3448
G3 X-0.1217 Y1.757 I0.0248 J0.0367
G2 X-0.0202 Y1.7956 I0.098 J-0.1051
X0.0864 Y1.7747 I-0.0079 J-0.3228
X0.3558 Y1.6209 I-0.3522 J-0.9297
X0.5603 Y1.3877 I-0.5555 J-0.6934
X0.6998 Y0.989 I-0.8752 J-0.5298
X0.6959 Y0.5666 I-1.5262 J-0.1972
G3 X0.725 Y0.5351 I0.0272 J-0.004
G2 X1.0766 Y0.5224 I0.116 J-1.6534
X1.4086 Y0.4062 I-0.1296 J-0.9027
X1.4543 Y0.3722 I-0.1352 J-0.2303
G1 X1.4977 Y0.3323
G3 X1.5195 Y0.3474 I0.0092 J0.01
X1.227 Y0.9262 I-3.6576 J-1.4846
X0.8304 Y1.4393 I-2.5663 J-1.5737
X0.4528 Y1.7768 I-2.4183 J-2.3259
X0.0157 Y2.0327 I-1.2433 J-1.6227
X-0.3717 Y2.154 I-0.7866 J-1.8328
X-0.7778 Y2.1557 I-0.2072 J-1.0147
X-1.0455 Y2.0704 I0.2346 J-1.1996
X-1.2827 Y1.9196 I0.4059 J-0.9003
X-1.5004 Y1.6626 I0.6934 J-0.8082
X-1.6384 Y1.3554 I1.1851 J-0.7169
X-1.7304 Y0.7472 I1.9645 J-0.6083
X-1.6634 Y0.1357 I2.8194 J-0.0001
X-1.6094 Y-0.073 I3.0703 J0.682
X-1.3645 Y-0.6796 I3.2212 J0.9479
X-1.2328 Y-0.912 I3.4674 J1.8111
G2 X-1.2342 Y-0.9677 I-0.0438 J-0.0268
G3 X-1.2346 Y-1.0234 I0.0414 J-0.0282
G1 X-1.1717 Y-1.1188
X-1.1597 Y-1.1356
X-1.0365 Y-1.2982
X-1.0234 Y-1.3144
X-0.8926 Y-1.4648
X-0.8757 Y-1.4829
X-0.7387 Y-1.6199
X-0.7219 Y-1.6357
X-0.5857 Y-1.7539
X-0.5645 Y-1.7709
X-0.424 Y-1.8759
X-0.4073 Y-1.8872
X-0.2669 Y-1.9765
X-0.2503 Y-1.9858
X-0.1059 Y-2.0623
X0.0391 Y-2.1245
X0.0591 Y-2.1321
X0.193 Y-2.1759
X0.2153 Y-2.1819
X0.3462 Y-2.2118
X0.4461 Y-2.2248
X0.4808 Y-2.2292
X0.4991 Y-2.2308
X0.621 Y-2.2337
X0.6436 Y-2.2328
X0.7606 Y-2.223
X0.8137 Y-2.2127
X0.8818 Y-2.199
X0.8958 Y-2.1955
X1.0032 Y-2.1608
X1.0221 Y-2.153
X1.124 Y-2.1062
X1.2209 Y-2.0468
X1.2371 Y-2.0356
X1.3237 Y-1.9674
X1.34 Y-1.9521
X1.4174 Y-1.875
X1.4232 Y-1.8685
X1.496 Y-1.7777
X1.5092 Y-1.7593
X1.574 Y-1.6578
X1.5817 Y-1.6437
X1.6391 Y-1.5294
X1.6425 Y-1.5219
X1.6901 Y-1.3992
X1.6985 Y-1.374
X1.7361 Y-1.2426
X1.7416 Y-1.2173
X1.7674 Y-1.0851
X1.7701 Y-1.0687
X1.7874 Y-0.9105
X1.7889 Y-0.8895
X1.7939 Y-0.7312
X1.7936 Y-0.7013
X1.7863 Y-0.5341
X1.784 Y-0.5086
X1.7637 Y-0.3326
X1.7576 Y-0.2982
X1.7242 Y-0.1199
X1.6698 Y0.0908
X1.6006 Y0.2998
X1.5942 Y0.3166
X1.5153 Y0.511
X1.5102 Y0.5226
X1.4478 Y0.6513
X1.4044 Y0.739
X1.3343 Y0.8623
X1.2887 Y0.9412
X1.1717 Y1.1188
X1.1597 Y1.1356
X1.0336 Y1.3018
X1.0195 Y1.3189
X0.8926 Y1.4648
X0.8758 Y1.4829
X0.7387 Y1.6199
X0.7218 Y1.6357
X0.5857 Y1.7539
X0.5645 Y1.7709
X0.424 Y1.8759
X0.4073 Y1.8872
X0.2669 Y1.9765
X0.2503 Y1.9859
X0.1059 Y2.0623
X0.0405 Y2.0905
X-0.0391 Y2.1245
X-0.0591 Y2.1321
X-0.1929 Y2.1759
X-0.2196 Y2.1829
X-0.3485 Y2.2122
X-0.4808 Y2.2292
X-0.5012 Y2.2309
X-0.6232 Y2.2336
X-0.6436 Y2.2328
X-0.7606 Y2.223
X-0.7898 Y2.2174
X-0.8819 Y2.199
X-0.8959 Y2.1955
X-1.0032 Y2.1608
X-1.0221 Y2.1531
X-1.124 Y2.1062
X-1.2209 Y2.0468
X-1.2371 Y2.0356
X-1.3237 Y1.9674
X-1.34 Y1.9521
X-1.4174 Y1.875
X-1.4232 Y1.8685
X-1.496 Y1.7777
X-1.5092 Y1.7592
X-1.574 Y1.6578
X-1.5816 Y1.6437
X-1.6391 Y1.5294
X-1.6425 Y1.5219
X-1.6901 Y1.3992
X-1.6985 Y1.374
X-1.7361 Y1.2426
X-1.7416 Y1.2173
X-1.7674 Y1.0851
X-1.7701 Y1.0687
X-1.7874 Y0.9105
X-1.7889 Y0.8895
X-1.7939 Y0.7312
X-1.7936 Y0.7013
X-1.7903 Y0.6247
X-1.7863 Y0.5341
X-1.784 Y0.5086
X-1.7637 Y0.3326
X-1.7576 Y0.2982
X-1.7248 Y0.122
X-1.6698 Y-0.0908
X-1.6006 Y-0.2998
X-1.5942 Y-0.3166
X-1.5153 Y-0.5108
X-1.5077 Y-0.5276
X-1.4478 Y-0.6513
X-1.4044 Y-0.739
X-1.3343 Y-0.8623
X-1.2887 Y-0.9412
X-1.2346 Y-1.0234
X-1.2333 Y-1.0248 Z-0.0147
X-1.2317 Y-1.0258 Z-0.0144
X-1.23 Y-1.0262 Z-0.0135
X-1.2283 Y-1.0261 Z-0.0127
X-1.227 Y-1.0257 Z-0.0113
X-1.2258 Y-1.0251 Z-0.01
X-1.2245 Y-1.0239 Z-0.0082
X-1.2234 Y-1.0225 Z-0.0068
X-1.2221 Y-1.0209 Z-0.0058
X-1.2207 Y-1.0193 Z-0.0052
X-1.2192 Y-1.0175 Z-0.005
X-0.8868 Y-0.6133
X-0.8853 Y-0.6115 Z-0.0052
X-0.8839 Y-0.6098 Z-0.0059
X-0.8826 Y-0.6082 Z-0.0069
X-0.8814 Y-0.6068 Z-0.0083
X-0.8804 Y-0.6056 Z-0.01
X-0.8794 Y-0.6043 Z-0.0118
X-0.8781 Y-0.6028 Z-0.0132
X-0.8767 Y-0.6011 Z-0.0143
X-0.8752 Y-0.5992 Z-0.0149
X-0.8743 Y-0.5977 Z-0.015
X-0.8423 Y-0.5224
X-0.8419 Y-0.5214
X-0.8283 Y-0.4923
X-0.8279 Y-0.4914
X-0.8012 Y-0.4382
X-0.8003 Y-0.4365
X-0.7795 Y-0.401
X-0.7777 Y-0.3982
X-0.7549 Y-0.3672
X-0.7523 Y-0.3641
X-0.7256 Y-0.3361
X-0.7238 Y-0.3344
X-0.7219 Y-0.3328
X-0.6948 Y-0.3122
X-0.6922 Y-0.3105
X-0.6895 Y-0.309
X-0.6877 Y-0.3082
X-0.747 Y-0.3
X-0.7476
X-0.7829 Y-0.2945
X-0.7843 Y-0.2942
X-0.8081 Y-0.2894
X-0.8101 Y-0.289
X-0.8162 Y-0.2873
X-0.8192 Y-0.2863
X-0.8424 Y-0.2775
X-0.844 Y-0.2768
X-0.8637 Y-0.2679
X-0.8647 Y-0.2674
X-0.9158 Y-0.2421
X-0.9163 Y-0.2419
X-0.936 Y-0.2317
X-0.9368 Y-0.2312
X-0.9702 Y-0.2126
X-0.9707 Y-0.2123
X-1.1122 Y-0.13
X-1.1133 Y-0.1294
X-1.131 Y-0.1181
X-1.1322 Y-0.1172
X-1.1676 Y-0.0922
X-1.1684 Y-0.0916
X-1.2214 Y-0.0515
X-1.222 Y-0.051
X-1.2443 Y-0.0333
X-1.2448 Y-0.033
X-1.2579 Y-0.0222
X-1.2597 Y-0.0205
X-1.2951 Y0.0137
X-1.2959 Y0.0146
X-1.3136 Y0.0331
X-1.3139 Y0.0334
X-1.3537 Y0.0763
X-1.354 Y0.0767
X-1.3858 Y0.1122
X-1.3866 Y0.1131
X-1.4035 Y0.1337
X-1.404 Y0.1342
X-1.4297 Y0.1669
X-1.431 Y0.1687
X-1.4584 Y0.2094
X-1.4591 Y0.2104
X-1.4668 Y0.223
X-1.4673 Y0.2238
X-1.4949 Y0.2719
X-1.4958 Y0.2735
X-1.5072 Y0.2964
X-1.5078 Y0.2976
X-1.5236 Y0.3331
X-1.524 Y0.3343
X-1.5381 Y0.3697
X-1.5386 Y0.3711
X-1.5516 Y0.4088
X-1.5524 Y0.4117
X-1.5562 Y0.4272
X-1.5563 Y0.428
X-1.5601 Y0.4457
X-1.5603 Y0.4468
X-1.5634 Y0.4646
X-1.5636 Y0.4659
X-1.5683 Y0.5014
Y0.5017
X-1.5726 Y0.5372
X-1.5727 Y0.5381
X-1.5742 Y0.5558
X-1.5743 Y0.5566
X-1.5777 Y0.6098
Y0.6103
X-1.5786 Y0.6281
Y0.6293
X-1.5788 Y0.6648
Y0.6663
X-1.5773 Y0.7018
Y0.7024
X-1.5751 Y0.7378
X-1.575 Y0.7393
X-1.5697 Y0.7883
X-1.5692 Y0.7914
X-1.5607 Y0.8311
X-1.5595 Y0.8351
X-1.5486 Y0.8658
X-1.547 Y0.8695
X-1.5446 Y0.8743
X-1.5433 Y0.8765
X-1.5419 Y0.8786
X-1.5284 Y0.897
X-1.5268 Y0.8989
X-1.5251 Y0.9008
X-1.5207 Y0.9051
X-1.5185 Y0.907
X-1.5162 Y0.9087
X-1.5118 Y0.9117
X-1.5091 Y0.9133
X-1.5063 Y0.9146
X-1.4996 Y0.9174
X-1.4969 Y0.9184
X-1.4941 Y0.9191
X-1.4676 Y0.9246
X-1.4649 Y0.925
X-1.4621 Y0.9252
X-1.4555 Y0.9254
X-1.4522 Y0.9253
X-1.449 Y0.9249
X-1.4313 Y0.9217
X-1.4282 Y0.921
X-1.4252 Y0.9199
X-1.4217 Y0.9185
X-1.4228 Y0.9266
X-1.423 Y0.9276
X-1.4269 Y0.963
X-1.427 Y0.964
X-1.4299 Y0.9995
Y1.0001
X-1.432 Y1.0356
X-1.4321 Y1.037
X-1.4325 Y1.0725
Y1.0733
X-1.4323 Y1.091
Y1.0922
X-1.4296 Y1.1454
Y1.1462
X-1.4242 Y1.2171
Y1.2177
X-1.4191 Y1.2709
X-1.419 Y1.2721
X-1.412 Y1.3253
X-1.4116 Y1.3277
X-1.403 Y1.3676
X-1.4022 Y1.3706
X-1.4011 Y1.3735
X-1.3912 Y1.3963
X-1.39 Y1.3988
X-1.3886 Y1.4011
X-1.3854 Y1.4059
X-1.3835 Y1.4084
X-1.3814 Y1.4108
X-1.3767 Y1.4155
X-1.3743 Y1.4176
X-1.3718 Y1.4195
X-1.3612 Y1.4264
X-1.3587 Y1.4279
X-1.356 Y1.4292
X-1.3494 Y1.4319
X-1.3469 Y1.4329
X-1.3444 Y1.4335
X-1.3311 Y1.4366
X-1.3281 Y1.4371
X-1.325 Y1.4374
X-1.3184 Y1.4375
X-1.3157
X-1.3131 Y1.4372
X-1.291 Y1.434
X-1.288 Y1.4335
X-1.2852 Y1.4326
X-1.2791 Y1.4305
X-1.2763 Y1.4294
X-1.2737 Y1.428
X-1.2689 Y1.4252
X-1.2663 Y1.4236
X-1.2639 Y1.4217
X-1.259 Y1.4173
X-1.2568 Y1.4153
X-1.2549 Y1.413
X-1.2409 Y1.395
X-1.2394 Y1.3928
X-1.238 Y1.3904
X-1.2349 Y1.3846
X-1.2333 Y1.3811
X-1.2272 Y1.3652
X-1.2263 Y1.3626
X-1.222 Y1.3475
X-1.2216 Y1.346
X-1.2175 Y1.3283
X-1.2172 Y1.327
X-1.2105 Y1.2915
X-1.2103 Y1.2903
X-1.205 Y1.2548
X-1.2049 Y1.2542
X-1.1915 Y1.1481
X-1.1863 Y1.1131
X-1.1807 Y1.0779
X-1.1805 Y1.0769
X-1.1714 Y1.0062
X-1.1639 Y0.9538
X-1.1576 Y0.9193
X-1.1467 Y0.8672
X-1.1371 Y0.8302
X-1.1276 Y0.7994
X-1.1007 Y0.73
X-1.0937 Y0.7136
X-1.0766 Y0.6793
X-1.0489 Y0.6267
X-1.0301 Y0.5927
X-0.9951 Y0.5405
X-0.9949 Y0.5401
X-0.9605 Y0.4872
X-0.9371 Y0.4524
X-0.9247 Y0.4352
X-0.912 Y0.4182
X-0.8779 Y0.3762
X-0.8546 Y0.3486
X-0.8268 Y0.3177
X-0.7861 Y0.281
X-0.7597 Y0.2602
X-0.7391 Y0.2462
X-0.7018 Y0.2278
X-0.6805 Y0.2208
X-0.6638 Y0.216
X-0.6297 Y0.2073
X-0.5898 Y0.1993
X-0.5616 Y0.1954
X-0.5607 Y0.1952
X-0.543 Y0.1922
X-0.5423 Y0.1921
X-0.5253 Y0.1888
X-0.4912 Y0.1838
X-0.4567 Y0.18
X-0.44 Y0.1786
X-0.3983 Y0.1763
X-0.408 Y0.1897
X-0.4093 Y0.1917
X-0.4104 Y0.1937
X-0.4301 Y0.2317
X-0.4314 Y0.2347
X-0.4325 Y0.2378
X-0.4434 Y0.2777
X-0.4441 Y0.2806
X-0.4444 Y0.2836
X-0.4477 Y0.328
X-0.4478 Y0.3315
X-0.4467 Y0.3603
X-0.4465 Y0.3625
X-0.4462 Y0.3648
X-0.4421 Y0.3869
X-0.4413 Y0.3902
X-0.4402 Y0.3934
X-0.4327 Y0.4112
X-0.4312 Y0.4142
X-0.4287 Y0.4187
X-0.4274 Y0.4209
X-0.4258 Y0.423
X-0.4135 Y0.4384
X-0.4119 Y0.4403
X-0.4101 Y0.442
X-0.4057 Y0.446
X-0.403 Y0.4482
X-0.387 Y0.4598
X-0.3847 Y0.4613
X-0.3821 Y0.4627
X-0.3765 Y0.4654
X-0.3737 Y0.4665
X-0.3709 Y0.4674
X-0.3652 Y0.4689
X-0.3624 Y0.4695
X-0.3594 Y0.4698
X-0.3535 Y0.4702
X-0.3508
X-0.3482 Y0.4701
X-0.3285 Y0.468
X-0.3254 Y0.4675
X-0.3224 Y0.4667
X-0.3167 Y0.465
X-0.3141 Y0.464
X-0.3116 Y0.4628
X-0.3072 Y0.4605
X-0.3071 Y0.4617
X-0.3065 Y0.4683
X-0.306 Y0.4716
X-0.3052 Y0.4749
X-0.3032 Y0.4813
X-0.3019 Y0.4846
X-0.3003 Y0.4877
X-0.2922 Y0.5015
X-0.2906 Y0.504
X-0.2876 Y0.5081
X-0.2858 Y0.5104
X-0.2838 Y0.5125
X-0.2711 Y0.5245
X-0.2692 Y0.5262
X-0.267 Y0.5278
X-0.2617 Y0.5314
X-0.2591 Y0.533
X-0.2563 Y0.5343
X-0.2509 Y0.5365
X-0.2484 Y0.5374
X-0.2459 Y0.5381
X-0.2281 Y0.5422
X-0.2256 Y0.5427
X-0.223 Y0.543
X-0.2186 Y0.5432
X-0.2162 Y0.5433
X-0.2137 Y0.5432
X-0.1739 Y0.5394
X-0.1711 Y0.539
X-0.1683 Y0.5384
X-0.164 Y0.5372
X-0.1609 Y0.5361
X-0.1408 Y0.528
X-0.1388 Y0.5271
X-0.1368 Y0.526
X-0.1149 Y0.5133
X-0.1123 Y0.5115
X-0.0877 Y0.4936
X-0.0858 Y0.4921
X-0.0702 Y0.4788
X-0.0672 Y0.4758
X-0.0474 Y0.4538
X-0.0468 Y0.453
X-0.0332 Y0.4368
X-0.032 Y0.4353
X-0.0235 Y0.4237
X-0.0213 Y0.4204
X-0.008 Y0.3965
X-0.0074 Y0.3953
X-0.0056 Y0.3916
X-0.0037 Y0.3952
X0.0071 Y0.4176
X0.0126 Y0.4297
X0.013 Y0.4306
X0.0214 Y0.4477
X0.0243 Y0.4541
X0.0301 Y0.4685
X0.0317 Y0.4717
X0.0429 Y0.4922
X0.047 Y0.5008
X0.0544 Y0.5175
X0.0755 Y0.5702
X0.0967 Y0.6234
X0.0969 Y0.6239
X0.1043 Y0.6416
X0.1046 Y0.6423
X0.1126 Y0.6604
X0.1206 Y0.6806
X0.1265 Y0.7092
X0.1285 Y0.7384
X0.1264 Y0.7644
X0.1224 Y0.7816
X0.1179 Y0.7983
X0.1117 Y0.8191
X0.1074 Y0.8319
X0.0745 Y0.9201
X0.0742 Y0.9208
X0.0648 Y0.9481
X0.0376 Y1.0065
X0.0374 Y1.0068
X0.0136 Y1.0594
X0.0051 Y1.0763
X-0.0315 Y1.146
X-0.097 Y1.2512
X-0.1198 Y1.2857
X-0.1304 Y1.3004
X-0.1644 Y1.3379
X-0.1988 Y1.3738
X-0.2156 Y1.3893
X-0.2676 Y1.4359
X-0.3195 Y1.4759
X-0.4076 Y1.5418
X-0.4843 Y1.5973
X-0.4851 Y1.598
X-0.5537 Y1.6512
X-0.5543 Y1.6517
X-0.5857 Y1.6773
X-0.5863 Y1.6779
X-0.604 Y1.6931
X-0.6052 Y1.6942
X-0.6229 Y1.711
X-0.6254 Y1.7138
X-0.6295 Y1.7187
X-0.6313 Y1.7212
X-0.6328 Y1.7237
X-0.6409 Y1.7386
X-0.6422 Y1.7413
X-0.6432 Y1.7441
X-0.6453 Y1.7508
X-0.6461 Y1.754
X-0.6465 Y1.7573
X-0.6482 Y1.775
X-0.6483 Y1.7784
X-0.648 Y1.7819
X-0.6472 Y1.7885
X-0.6467 Y1.7913
X-0.6459 Y1.794
X-0.6409 Y1.8095
X-0.6398 Y1.8125
X-0.6384 Y1.8153
X-0.6358 Y1.8201
X-0.6342 Y1.8225
X-0.6324 Y1.8249
X-0.6284 Y1.8297
X-0.6261 Y1.8321
X-0.6163 Y1.8415
X-0.6139 Y1.8436
X-0.6113 Y1.8454
X-0.6066 Y1.8484
X-0.6039 Y1.8499
X-0.6011 Y1.8512
X-0.5948 Y1.8536
X-0.5919 Y1.8545
X-0.5889 Y1.8552
X-0.5668 Y1.859
X-0.5643 Y1.8594
X-0.5618 Y1.8595
X-0.5552 Y1.8596
X-0.5522 Y1.8594
X-0.5491 Y1.859
X-0.5248 Y1.8545
X-0.5215 Y1.8537
X-0.5015 Y1.8476
X-0.5006 Y1.8473
X-0.4852 Y1.8422
X-0.4838 Y1.8417
X-0.4308 Y1.8209
X-0.4292 Y1.8203
X-0.3692 Y1.793
X-0.3684 Y1.7926
X-0.2958 Y1.7571
X-0.295 Y1.7567
X-0.2861 Y1.7521
X-0.2851 Y1.7515
X-0.2623 Y1.7384
X-0.2613 Y1.7378
X-0.2134 Y1.7079
X-0.2124 Y1.7073
X-0.1517 Y1.6663
X-0.151 Y1.6658
X-0.1234 Y1.6461
X-0.1223 Y1.6453
X-0.1168 Y1.641
X-0.1166 Y1.6434
X-0.1163 Y1.6457
X-0.1128 Y1.6657
X-0.1122 Y1.6687
X-0.1112 Y1.6716
X-0.1086 Y1.6782
X-0.1072 Y1.6815
X-0.1053 Y1.6846
X-0.0966 Y1.6974
X-0.0961 Y1.6981
X-0.0899 Y1.7067
X-0.0884 Y1.7086
X-0.0868 Y1.7104
X-0.0833 Y1.7139
X-0.0812 Y1.7158
X-0.079 Y1.7175
X-0.0741 Y1.721
X-0.0717 Y1.7225
X-0.0693 Y1.7238
X-0.0486 Y1.7335
X-0.0456 Y1.7347
X-0.0425 Y1.7356
X-0.0359 Y1.7372
X-0.0325 Y1.7377
X-0.0292 Y1.738
X-0.0226 Y1.7381
X-0.0183 Y1.7378
X0.0038 Y1.7351
X0.0062 Y1.7347
X0.0086 Y1.7342
X0.0263 Y1.7291
X0.0272 Y1.7288
X0.0449 Y1.7232
X0.0464 Y1.7226
X0.0641 Y1.7159
X0.0648 Y1.7157
X0.0825 Y1.7085
X0.0838 Y1.7079
X0.1545 Y1.6754
X0.1552 Y1.6751
X0.1729 Y1.6664
X0.1739 Y1.6659
X0.2033 Y1.6502
X0.2038 Y1.6499
X0.2356 Y1.6322
X0.2378 Y1.6309
X0.3004 Y1.5888
X0.3015 Y1.588
X0.3192 Y1.575
X0.3201 Y1.5743
X0.34 Y1.5585
X0.3411 Y1.5576
X0.3615 Y1.5398
X0.3619 Y1.5395
X0.3779 Y1.5251
X0.3798 Y1.5232
X0.3995 Y1.5021
X0.4004 Y1.5011
X0.4307 Y1.4656
X0.4315 Y1.4647
X0.4595 Y1.4292
X0.4604 Y1.428
X0.473 Y1.4102
X0.4743 Y1.4083
X0.5065 Y1.3551
X0.5069 Y1.3544
X0.5272 Y1.319
X0.5281 Y1.3173
X0.5456 Y1.2818
X0.5461 Y1.2808
X0.57 Y1.2275
X0.5703 Y1.2269
X0.5777 Y1.2092
X0.5785 Y1.2072
X0.5846 Y1.1895
X0.5849 Y1.1885
X0.6013 Y1.1353
X0.6014 Y1.1347
X0.6137 Y1.0919
X0.614 Y1.0905
X0.6249 Y1.0446
X0.6251 Y1.0434
X0.6286 Y1.0257
X0.6288 Y1.0246
X0.6344 Y0.9891
X0.6346 Y0.9882
X0.6368 Y0.9704
X0.6369 Y0.9696
X0.6421 Y0.9163
X0.6422 Y0.9155
X0.646 Y0.8623
Y0.8615
X0.6477 Y0.826
Y0.8256
X0.6494 Y0.7724
Y0.7716
X0.6497 Y0.7362
Y0.735
X0.6481 Y0.6818
Y0.6808
X0.6447 Y0.6276
Y0.6265
X0.6412 Y0.5911
X0.641 Y0.5895
X0.6384 Y0.5718
X0.6379 Y0.5694
X0.6298 Y0.5339
X0.6289 Y0.5305
X0.6149 Y0.4909
X0.6138 Y0.4882
X0.5943 Y0.4457
X0.5935 Y0.444
X0.5912 Y0.4397
X0.6106 Y0.4504
X0.6129 Y0.4516
X0.6153 Y0.4525
X0.6582 Y0.4675
X0.6622 Y0.4686
X0.6834 Y0.473
X0.6855 Y0.4733
X0.7032 Y0.4757
X0.7052 Y0.4759
X0.7583 Y0.4797
X0.7602
X0.8133 Y0.4801
X0.815
X0.8327 Y0.4792
X0.8337
X0.8865 Y0.4749
X0.9393 Y0.4715
X0.94
X0.9931 Y0.4668
X0.9941 Y0.4667
X1.0825 Y0.456
X1.0841 Y0.4558
X1.1018 Y0.4527
X1.1028 Y0.4525
X1.1382 Y0.4452
X1.1386 Y0.4451
X1.174 Y0.4372
X1.1748 Y0.437
X1.2278 Y0.4238
X1.2288 Y0.4235
X1.2465 Y0.4185
X1.248 Y0.418
X1.2635 Y0.4127
X1.2665 Y0.4116
X1.2864 Y0.4024
X1.2874 Y0.4019
X1.3227 Y0.3841
X1.3237 Y0.3836
X1.3591 Y0.3641
X1.3599 Y0.3637
X1.3776 Y0.3533
X1.3791 Y0.3524
X1.4032 Y0.3364
X1.4046 Y0.3354
X1.4158 Y0.327
X1.4166 Y0.3263
X1.4343 Y0.3122
X1.436 Y0.3108
X1.4713 Y0.2782
X1.4717 Y0.2779
X1.4894 Y0.261
X1.4916 Y0.2587
X1.5093 Y0.2381
X1.5104 Y0.2367
X1.5344 Y0.2051
X1.5352 Y0.2041
X1.5723 Y0.1509
X1.5729 Y0.15
X1.5844 Y0.1322
X1.5847 Y0.1317
X1.6182 Y0.0774
X1.6191 Y0.0759
X1.6281 Y0.0593
X1.6288 Y0.0581
X1.6375 Y0.0404
X1.6381 Y0.0389
X1.6457 Y0.0212
X1.6462 Y0.02
X1.6598 Y-0.0154
X1.6601 Y-0.0163
X1.6663 Y-0.0341
X1.6667 Y-0.0353
X1.6746 Y-0.0617
X1.675 Y-0.0631
X1.6817 Y-0.0899
X1.6822 Y-0.092
X1.685 Y-0.1075
X1.6854 Y-0.1103
X1.6855 Y-0.1132
X1.6854 Y-0.1332
X1.6852 Y-0.136
X1.6835 Y-0.1537
X1.6832 Y-0.156
X1.6794 Y-0.1782
X1.6786 Y-0.1818
X1.6738 Y-0.1977
X1.6727 Y-0.201
X1.6712 Y-0.2041
X1.6675 Y-0.2106
X1.6663 Y-0.2126
X1.6606 Y-0.2212
X1.6592 Y-0.2231
X1.6577 Y-0.225
X1.6539 Y-0.2291
X1.6521 Y-0.231
X1.6501 Y-0.2327
X1.6463 Y-0.2357
X1.6431 Y-0.2379
X1.632 Y-0.2445
X1.6295 Y-0.2458
X1.6269 Y-0.247
X1.6203 Y-0.2494
X1.6168 Y-0.2505
X1.6133 Y-0.2512
X1.5989 Y-0.253
X1.5949 Y-0.2533
X1.589
X1.5848 Y-0.253
X1.5821 Y-0.2526
X1.5787 Y-0.252
X1.5619 Y-0.2477
X1.559 Y-0.2468
X1.5562 Y-0.2457
X1.5518 Y-0.2436
X1.5495 Y-0.2424
X1.5473 Y-0.241
X1.5429 Y-0.238
X1.5405 Y-0.2362
X1.5265 Y-0.2243
X1.5239 Y-0.2218
X1.5216 Y-0.2192
X1.5136 Y-0.2085
X1.5132 Y-0.2079
X1.5107 Y-0.2044
X1.5096 Y-0.2029
X1.4985 Y-0.1851
X1.4974 Y-0.1833
X1.4405 Y-0.0775
X1.4096 Y-0.0258
X1.3983 Y-0.0095
X1.3854 Y0.0074
X1.3552 Y0.0455
X1.3289 Y0.0768
X1.3137 Y0.0932
X1.3107 Y0.096
X1.2903 Y0.112
X1.2717 Y0.1245
X1.2573 Y0.1334
X1.2411 Y0.1427
X1.2156 Y0.1549
X1.1927 Y0.163
X1.1759 Y0.1683
X1.1237 Y0.1832
X1.0715 Y0.1964
X1.0547 Y0.2002
X1.0382 Y0.2034
X1.0218 Y0.2057
X0.9872 Y0.2096
X0.9346 Y0.2146
X0.8822 Y0.2186
X0.8401 Y0.2208
X0.8028 Y0.2187
X0.7728 Y0.211
X0.747 Y0.1972
X0.7215 Y0.1758
X0.6958 Y0.1459
X0.6464 Y0.087
X0.6966 Y0.1055
X0.6989 Y0.1063
X0.7498 Y0.1206
X0.7528 Y0.1213
X0.7925 Y0.1283
X0.7939 Y0.1285
X0.8095 Y0.1305
X0.8105 Y0.1306
X0.8392 Y0.1335
X0.8423 Y0.1336
X0.8455 Y0.1334
X0.8521 Y0.1327
X0.855 Y0.1323
X0.8578 Y0.1316
X0.8932 Y0.121
X0.8941 Y0.1208
X0.9339 Y0.1075
X0.9369 Y0.1064
X0.9719 Y0.0905
X0.9754 Y0.0886
X1.0068 Y0.0692
X1.0086 Y0.068
X1.0308 Y0.0519
X1.0317 Y0.0513
X1.0546 Y0.0336
X1.0564 Y0.032
X1.076 Y0.0143
X1.0768 Y0.0136
X1.1135 Y-0.0219
X1.1139 Y-0.0223
X1.1491 Y-0.0578
X1.1501 Y-0.0588
X1.1727 Y-0.0838
X1.1729 Y-0.084
X1.2294 Y-0.1477
X1.23 Y-0.1484
X1.2449 Y-0.1661
X1.2456 Y-0.167
X1.2626 Y-0.1888
X1.2632 Y-0.1896
X1.2861 Y-0.221
X1.2868 Y-0.222
X1.3347 Y-0.2937
X1.3353 Y-0.2947
X1.3567 Y-0.3294
X1.3574 Y-0.3307
X1.3714 Y-0.3561
X1.3721 Y-0.3575
X1.3944 Y-0.403
X1.3951 Y-0.4046
X1.4082 Y-0.4354
X1.409 Y-0.4375
X1.4166 Y-0.4598
X1.4168 Y-0.4603
X1.4226 Y-0.478
X1.423 Y-0.4797
X1.4419 Y-0.5506
X1.4423 Y-0.5523
X1.4533 Y-0.6055
Y-0.6058
X1.4603 Y-0.6413
X1.4606 Y-0.6425
X1.4687 Y-0.6957
X1.4688 Y-0.6964
X1.4758 Y-0.7496
X1.4759 Y-0.7502
X1.4839 Y-0.8211
X1.5018 Y-0.9805
X1.5086 Y-1.0329
X1.5199 Y-1.1034
X1.5202 Y-1.106
X1.5203 Y-1.1087
X1.5202 Y-1.1153
X1.52 Y-1.1186
X1.5194 Y-1.122
X1.5179 Y-1.1286
X1.5171 Y-1.1314
X1.5161 Y-1.1341
X1.5142 Y-1.1386
X1.5131 Y-1.1409
X1.5047 Y-1.1564
X1.5033 Y-1.1588
X1.5017 Y-1.1611
X1.4834 Y-1.184
X1.4818 Y-1.186
X1.48 Y-1.1877
X1.4754 Y-1.1919
X1.4732 Y-1.1937
X1.4709 Y-1.1953
X1.4467 Y-1.2103
X1.4439 Y-1.2118
X1.441 Y-1.2131
X1.4343 Y-1.2155
X1.431 Y-1.2165
X1.4277 Y-1.2171
X1.421 Y-1.218
X1.4185 Y-1.2182
X1.4161
X1.4006 Y-1.2178
X1.3976 Y-1.2175
X1.3947 Y-1.217
X1.3882 Y-1.2155
X1.3856 Y-1.2149
X1.3832 Y-1.214
X1.3653 Y-1.2066
X1.3627 Y-1.2054
X1.3603 Y-1.204
X1.3558 Y-1.2011
X1.3538 Y-1.1997
X1.3519 Y-1.1981
X1.3262 Y-1.175
X1.3243 Y-1.1731
X1.3226 Y-1.1711
X1.3181 Y-1.1654
X1.3164 Y-1.1631
X1.315 Y-1.1607
X1.3044 Y-1.1408
X1.3035 Y-1.1391
X1.2954 Y-1.1213
X1.2945 Y-1.1192
X1.2783 Y-1.0752
X1.2772 Y-1.0717
X1.2708 Y-1.0447
X1.2705 Y-1.0435
X1.26 Y-0.9903
X1.2597 Y-0.9891
X1.2424 Y-0.8794
Y-0.8791
X1.2298 Y-0.7942
X1.2237 Y-0.7594
X1.2204 Y-0.7427
X1.2032 Y-0.673
X1.1984 Y-0.6563
X1.1906 Y-0.632
X1.1733 Y-0.5827
X1.1543 Y-0.5352
X1.147 Y-0.5183
X1.1393 Y-0.502
X1.1303 Y-0.4857
X1.0985 Y-0.434
X1.0539 Y-0.3711
X1.007 Y-0.3132
X0.9585 Y-0.2617
X0.9205 Y-0.2273
X0.8725 Y-0.1857
X0.8686 Y-0.1826
X0.8608 Y-0.1779
X0.8522 Y-0.1733
X0.8359 Y-0.1653
X0.8211 Y-0.159
X0.8209
X0.8189
X0.8086 Y-0.1609
X0.7803 Y-0.1716
X0.7692 Y-0.1778
X0.741 Y-0.1945
X0.7402 Y-0.1949
X0.7228 Y-0.2045
X0.7147 Y-0.2093
X0.7159 Y-0.2111
X0.7166 Y-0.2121
X0.7342 Y-0.2418
X0.7348 Y-0.2427
X0.7442 Y-0.2598
X0.7452 Y-0.2619
X0.776 Y-0.3293
X0.7772 Y-0.3324
X0.7962 Y-0.3891
X0.7966 Y-0.3903
X0.8017 Y-0.408
X0.8022 Y-0.4097
X0.8104 Y-0.4451
X0.8107 Y-0.4462
X0.8176 Y-0.4817
X0.8177 Y-0.4826
X0.8267 Y-0.5369
Y-0.5375
X0.8522 Y-0.7138
X0.8523 Y-0.7145
X0.8587 Y-0.7677
X0.8588 Y-0.7681
X0.8663 Y-0.8391
X0.8664 Y-0.8399
X0.8692 Y-0.8754
X0.8693 Y-0.8763
X0.8701 Y-0.894
X0.8702 Y-0.8959
X0.8697 Y-0.9469
X0.8695 Y-0.9493
X0.8692 Y-0.9517
X0.8609 Y-1.0011
X0.8599 Y-1.0053
X0.8433 Y-1.0576
X0.8427 Y-1.0593
X0.8331 Y-1.0841
X0.8317 Y-1.0872
X0.8226 Y-1.1049
X0.8204 Y-1.1086
X0.8079 Y-1.1263
X0.8065 Y-1.1282
X0.7846 Y-1.1549
X0.784 Y-1.1556
X0.7663 Y-1.1759
X0.764 Y-1.1782
X0.7418 Y-1.1989
X0.7399 Y-1.2005
X0.738 Y-1.2019
X0.7116 Y-1.2197
X0.7084 Y-1.2216
X0.6796 Y-1.2363
X0.6759 Y-1.2379
X0.6428 Y-1.2498
X0.6389 Y-1.251
X0.6036 Y-1.2587
X0.6002 Y-1.2593
X0.5648 Y-1.2631
X0.5605 Y-1.2632
X0.5295 Y-1.2622
X0.527 Y-1.262
X0.5246 Y-1.2616
X0.4458 Y-1.2463
X0.4419 Y-1.2453
X0.3747 Y-1.2228
X0.3714 Y-1.2214
X0.3404 Y-1.2069
X0.3392 Y-1.2063
X0.3067 Y-1.1893
X0.306 Y-1.1889
X0.2855 Y-1.1775
X0.2842 Y-1.1768
X0.2665 Y-1.1658
X0.2655 Y-1.1652
X0.167 Y-1.0988
X0.1661 Y-1.0982
X0.1054 Y-1.0543
X0.1046 Y-1.0536
X0.0692 Y-1.0261
X0.0688 Y-1.0258
X0.0474 Y-1.0086
X0.0469 Y-1.0081
X0.0152 Y-0.9813
X0.0145 Y-0.9807
X-0.0032 Y-0.9648
X-0.0036 Y-0.9644
X-0.034 Y-0.9362
X-0.0352 Y-0.9351
X-0.0728 Y-0.8964
X-0.0746 Y-0.8943
X-0.1304 Y-0.8257
X-0.131 Y-0.8249
X-0.1438 Y-0.8081
X-0.1447 Y-0.8067
X-0.1568 Y-0.789
X-0.1573 Y-0.7881
X-0.1856 Y-0.7434
X-0.1858 Y-0.7431
X-0.1899 Y-0.7363
X-0.2127 Y-0.7508
X-0.2293 Y-0.7623
X-0.2505 Y-0.7782
X-0.2646 Y-0.794
X-0.2667 Y-0.7977
X-0.2644 Y-0.8274
X-0.2534 Y-0.8902
X-0.2449 Y-0.9224
X-0.2343 Y-0.9568
X-0.2225 Y-0.9913
X-0.2009 Y-1.0473
X-0.1809 Y-1.0956
X-0.173 Y-1.1121
X-0.1549 Y-1.1467
X-0.1149 Y-1.2181
X-0.0849 Y-1.2625
X-0.0475 Y-1.3072
X-0.0208 Y-1.3349
X0.0042 Y-1.3604
X0.0321 Y-1.3869
X0.1103 Y-1.4576
X0.1114 Y-1.4586
X0.1281 Y-1.4752
X0.1296 Y-1.4768
X0.1311 Y-1.4786
X0.1549 Y-1.5102
X0.1562 Y-1.5121
X0.1574 Y-1.5141
X0.1689 Y-1.5353
X0.1701 Y-1.5377
X0.171 Y-1.5401
X0.1776 Y-1.5593
X0.1785 Y-1.5622
X0.179 Y-1.5651
X0.1803 Y-1.574
X0.1804 Y-1.5754
X0.1815 Y-1.5865
X0.1816 Y-1.5893
X0.1815 Y-1.5921
X0.1809 Y-1.5987
X0.1803 Y-1.6028
X0.177 Y-1.6176
X0.1762 Y-1.6205
X0.1751 Y-1.6233
X0.1726 Y-1.6292
X0.1715 Y-1.6315
X0.1702 Y-1.6336
X0.1622 Y-1.6461
X0.1607 Y-1.6482
X0.159 Y-1.6502
X0.1547 Y-1.655
X0.1527 Y-1.6569
X0.1506 Y-1.6587
X0.138 Y-1.6684
X0.1346 Y-1.6707
X0.1304 Y-1.6731
X0.1283 Y-1.6742
X0.1262 Y-1.6752
X0.1088 Y-1.6821
X0.106 Y-1.683
X0.1031 Y-1.6837
X0.081 Y-1.6879
X0.0766 Y-1.6884
X0.0722 Y-1.6886
X0.0693
X0.0428 Y-1.6874
X0.0396 Y-1.6871
X0.0364 Y-1.6864
X0.0276 Y-1.6842
X0.0262 Y-1.6838
X0.0019 Y-1.6764
X-0.0006 Y-1.6755
X-0.003 Y-1.6744
X-0.0355 Y-1.658
X-0.0388 Y-1.6561
X-0.0766 Y-1.6309
X-0.0784 Y-1.6296
X-0.1472 Y-1.5764
X-0.1484 Y-1.5755
X-0.2149 Y-1.5186
X-0.216 Y-1.5176
X-0.269 Y-1.4675
X-0.27 Y-1.4666
X-0.2876 Y-1.4485
X-0.2884 Y-1.4477
X-0.3061 Y-1.4283
X-0.3069 Y-1.4273
X-0.3196 Y-1.4122
X-0.3213 Y-1.41
X-0.3461 Y-1.3746
X-0.3469 Y-1.3733
X-0.3692 Y-1.3378
X-0.3698 Y-1.3369
X-0.3905 Y-1.3014
X-0.3912 Y-1.3001
X-0.4096 Y-1.2647
X-0.4102 Y-1.2636
X-0.4436 Y-1.1926
X-0.4438 Y-1.1922
X-0.4599 Y-1.1567
X-0.4602 Y-1.156
X-0.4709 Y-1.1307
X-0.4714 Y-1.1296
X-0.4953 Y-1.0662
X-0.4955 Y-1.0657
X-0.5082 Y-1.0302
X-0.5084 Y-1.0295
X-0.5143 Y-1.0118
X-0.5146 Y-1.0108
X-0.5198 Y-0.9931
X-0.5201 Y-0.992
X-0.5337 Y-0.9388
X-0.5339 Y-0.9376
X-0.5378 Y-0.9199
X-0.538 Y-0.9188
X-0.5436 Y-0.8874
X-0.5439 Y-0.8856
X-0.5486 Y-0.8461
X-0.5488 Y-0.8445
X-0.5512 Y-0.809
X-0.5513 Y-0.8064
X-0.5507 Y-0.7732
X-0.5505 Y-0.7698
X-0.5502 Y-0.7676
X-0.5497 Y-0.7643
X-0.5388 Y-0.7178
X-0.5381 Y-0.7154
X-0.5373 Y-0.713
X-0.5173 Y-0.6643
X-0.5154 Y-0.6604
X-0.4896 Y-0.6161
X-0.4882 Y-0.6138
X-0.4866 Y-0.6117
X-0.4565 Y-0.5757
X-0.4549 Y-0.5739
X-0.4532 Y-0.5723
X-0.4275 Y-0.5495
X-0.4269 Y-0.5489
X-0.4143 Y-0.5384
X-0.4717 Y-0.5488
X-0.5062 Y-0.5556
X-0.5222 Y-0.5594
X-0.5317 Y-0.5624
X-0.5458 Y-0.5699
X-0.5673 Y-0.5849
X-0.5845 Y-0.6027
X-0.6036 Y-0.6314
X-0.618 Y-0.6607
X-0.6256 Y-0.6773
X-0.646 Y-0.7294
X-0.6658 Y-0.7822
X-0.6782 Y-0.8165
X-0.6929 Y-0.8681
X-0.7058 Y-0.9206
X-0.7098 Y-0.9377
X-0.7169 Y-0.9718
X-0.7206 Y-0.9999
X-0.721 Y-1.0198
X-0.7208 Y-1.0362
X-0.7188 Y-1.0662
X-0.7125 Y-1.0942
X-0.6949 Y-1.1518
X-0.689 Y-1.1684
X-0.6795 Y-1.193
X-0.6666 Y-1.2174
X-0.6452 Y-1.2544
X-0.6254 Y-1.2867
X-0.6026 Y-1.3216
X-0.5668 Y-1.3745
X-0.5425 Y-1.4099
X-0.5411 Y-1.4119
X-0.54 Y-1.4141
X-0.5294 Y-1.4363
X-0.5279 Y-1.4402
X-0.5257 Y-1.4469
X-0.5249 Y-1.4499
X-0.5244 Y-1.4529
X-0.5222 Y-1.4729
X-0.522 Y-1.4759
X-0.5221 Y-1.479
X-0.5227 Y-1.4857
X-0.5232 Y-1.489
X-0.524 Y-1.4924
X-0.5261 Y-1.499
X-0.5275 Y-1.5027
X-0.5339 Y-1.5167
X-0.5352 Y-1.5192
X-0.5367 Y-1.5216
X-0.5403 Y-1.5267
X-0.5421 Y-1.5291
X-0.5442 Y-1.5312
X-0.5484 Y-1.5353
X-0.5504 Y-1.5371
X-0.5592 Y-1.5442
X-0.5613 Y-1.5458
X-0.5635 Y-1.5472
X-0.5682 Y-1.5498
X-0.5709 Y-1.5512
X-0.5736 Y-1.5522
X-0.5891 Y-1.5575
X-0.5922 Y-1.5583
X-0.5954 Y-1.5589
X-0.602 Y-1.5596
X-0.6051 Y-1.5599
X-0.6082 Y-1.5598
X-0.637 Y-1.5574
X-0.6399 Y-1.5571
X-0.6428 Y-1.5564
X-0.6494 Y-1.5546
X-0.652 Y-1.5537
X-0.6546 Y-1.5526
X-0.6752 Y-1.5427
X-0.6782 Y-1.5411
X-0.7063 Y-1.5236
X-0.7078 Y-1.5225
X-0.7307 Y-1.5063
X-0.7315 Y-1.5056
X-0.744 Y-1.4961
X-0.7449 Y-1.4955
X-0.764 Y-1.4798
X-0.7669 Y-1.4771
X-0.8008 Y-1.4413
X-0.803 Y-1.4387
X-0.8241 Y-1.4111
X-0.8245 Y-1.4105
X-0.8388 Y-1.3909
X-0.8398 Y-1.3894
X-0.8614 Y-1.3558
X-0.862 Y-1.3548
X-0.8758 Y-1.3316
X-0.8762 Y-1.3308
X-0.8939 Y-1.299
X-0.8944 Y-1.2981
X-0.9025 Y-1.2823
X-0.9029 Y-1.2815
X-0.9199 Y-1.246
X-0.9203 Y-1.245
X-0.9306 Y-1.2215
X-0.931 Y-1.2206
X-0.9487 Y-1.1761
X-0.9494 Y-1.1739
X-0.9657 Y-1.1222
X-0.9665 Y-1.1192
X-0.9767 Y-1.0704
X-0.9772 Y-1.0667
X-0.9813 Y-1.0179
X-0.9814 Y-1.0144
X-0.9805 Y-0.9833
Y-0.9823
X-0.9782 Y-0.9468
X-0.9781 Y-0.9453
X-0.9761 Y-0.9276
X-0.9759 Y-0.9258
X-0.9729 Y-0.9081
X-0.9727 Y-0.9069
X-0.9615 Y-0.8537
X-0.9613 Y-0.8529
X-0.9529 Y-0.8174
X-0.9527 Y-0.8164
X-0.9479 Y-0.7987
X-0.9473 Y-0.7969
X-0.9173 Y-0.7082
X-0.9172 Y-0.708
X-0.9048 Y-0.6725
X-0.9044 Y-0.6713
X-0.8905 Y-0.6359
X-0.8902 Y-0.6351
X-0.8743 Y-0.5977
G3 X-0.8987 Y-0.5234 Z-0.0177 I-0.0546 J0.0232 F12
G1 X-1.1053 Y-0.401 Z-0.0252
G3 X-1.189 Y-0.478 Z-0.03 I-0.0303 J-0.0511
G1 X-1.1876 Y-0.4809 F20
G3 X-1.1595 Y-0.4802 I0.0139 J0.0067
G1 X-1.1577 Y-0.476
G3 X-1.1642 Y-0.4566 I-0.0142 J0.006
G1 X-1.1698 Y-0.4534
G3 X-1.1913 Y-0.4733 I-0.0077 J-0.0133
G1 X-1.189 Y-0.478
G2 X-1.1972 Y-0.534 I-0.0454 J-0.022
G3 X-1.2058 Y-0.59 I0.0378 J-0.0345
G1 X-1.1822 Y-0.6411
G3 X-1.1485 Y-0.6379 I0.0161 J0.0092
G2 X-1.1173 Y-0.5538 I1.4662 J-0.4968
X-1.0829 Y-0.471 I4.8413 J-1.9596
G3 X-1.1013 Y-0.4158 I-0.0404 J0.0172
X-1.1882 Y-0.3677 I-1.1623 J-1.9988
G2 X-1.2729 Y-0.3158 I0.3482 J0.6628
X-1.2957 Y-0.2987 I0.2876 J0.4057
G3 X-1.3182 Y-0.2812 I-0.6687 J-0.8375
X-1.3407 Y-0.2986 I-0.0089 J-0.0118
G1 X-1.2058 Y-0.59
G2 X-1.2136 Y-0.6466 I-0.0479 J-0.0222
G3 X-1.2198 Y-0.7033 I0.0384 J-0.0329
X-1.1624 Y-0.8072 I3.5239 J1.8824
X-1.1307 Y-0.8025 I0.0149 J0.0086
G2 X-1.074 Y-0.6183 I1.4172 J-0.3358
X-0.9989 Y-0.4407 I2.5855 J-0.9883
G3 X-1.0167 Y-0.3885 I-0.0362 J0.0168
G2 X-1.2095 Y-0.2826 I2.1664 J4.1732
X-1.385 Y-0.1499 I0.4539 J0.7826
X-1.426 Y-0.1066 I0.4757 J0.4911
G3 X-1.4658 Y-0.0623 I-1.3269 J-1.1502
X-1.4889 Y-0.0759 I-0.0101 J-0.0093
X-1.2198 Y-0.7033 I3.7929 J1.255
G2 X-1.224 Y-0.7551 I-0.0424 J-0.0226
G3 X-1.2273 Y-0.807 I0.0371 J-0.0284
G1 X-1.122 Y-0.9876
G3 X-1.0941 Y-0.9797 I0.0127 J0.0084
G2 X-1.0353 Y-0.6854 I0.9073 J-0.0282
X-0.9145 Y-0.4106 I2.7621 J-1.0502
G3 X-0.931 Y-0.3614 I-0.0327 J0.0164
X-0.9807 Y-0.3383 I-0.5116 J-1.0338
G2 X-1.0295 Y-0.3135 I0.1915 J0.4381
X-1.2252 Y-0.1942 I2.7646 J4.7542
X-1.401 Y-0.0474 I0.4862 J0.7613
X-1.5147 Y0.0904 I1.1201 J1.0396
X-1.6076 Y0.2431 I0.854 J0.6241
G3 X-1.6303 Y0.2355 I-0.0108 J-0.0054
X-1.4998 Y-0.2365 I2.8192 J0.5256
X-1.2994 Y-0.6833 I3.4593 J1.2835
G1 X-1.2273 Y-0.807
X-1.2262 Y-0.8086 Z-0.0297
X-1.2249 Y-0.81 Z-0.0294
X-1.2235 Y-0.8111 Z-0.0285
X-1.222 Y-0.812 Z-0.0276
X-1.2194 Y-0.8129 Z-0.0248
X-1.2177 Y-0.8132 Z-0.0214
X-1.217 Z-0.0175
G0 Z0.1
X-0.5717 Y0.9718
Z0.0075
G1 X-0.5714 Y0.9723 Z0.0037 F12
X-0.5703 Y0.9736 Z0.0003
X-0.5686 Y0.9757 Z-0.0025
X-0.5667 Y0.9784 Z-0.0043
X-0.5647 Y0.9816 Z-0.005
G3 X-0.6673 Y1.0413 Z-0.0115 I-0.0513 J0.0299
X-0.5647 Y0.9816 Z-0.018 I0.0513 J-0.0299
X-0.6673 Y1.0413 Z-0.0245 I-0.0513 J0.0299
X-0.5857 Y0.9604 Z-0.03 I0.0513 J-0.0299
G1 X-0.5821 Y0.9627 F20
G3 X-0.5804 Y0.9951 I-0.0122 J0.0169
G1 X-0.5991 Y1.0119
G3 X-0.6252 Y0.9969 I-0.0106 J-0.0118
X-0.622 Y0.9832 I0.2903 J0.0604
X-0.6176 Y0.9697 I0.1164 J0.0301
X-0.5899 Y0.9582 I0.0194 J0.0075
G1 X-0.5859 Y0.9603
X-0.5857 Y0.9604
G2 X-0.53 Y0.9485 I0.0215 J-0.0362
G3 X-0.4749 Y0.9633 I0.0248 J0.0176
X-0.4801 Y0.9853 I-0.0352 J0.0033
X-0.5204 Y1.0333 I-0.1897 J-0.1182
X-0.5678 Y1.0743 I-1.0681 J-1.1882
X-0.63 Y1.1252 I-3.6992 J-4.455
X-0.6939 Y1.1741 I-0.9713 J-1.2033
X-0.7217 Y1.157 I-0.0104 J-0.0143
G2 X-0.708 Y1.0544 I-1.9294 J-0.31
G3 X-0.6853 Y0.9534 I0.4509 J0.0481
G1 X-0.6735 Y0.9194
G3 X-0.6582 Y0.8842 I0.2426 J0.0844
X-0.609 Y0.8695 I0.0318 J0.0167
X-0.5545 Y0.9002 I-1.683 J3.0461
G1 X-0.4924 Y0.936
G3 X-0.4749 Y0.9633 I-0.0176 J0.0306
G2 X-0.4575 Y1.0181 I0.136 J-0.0129
G3 X-0.4639 Y1.0753 I-0.0424 J0.0242
X-0.5624 Y1.1643 I-0.5166 J-0.473
G2 X-0.7899 Y1.3371 I8.488 J11.4085
G3 X-0.8176 Y1.3209 I-0.0106 J-0.0137
X-0.7708 Y1.018 I22.7286 J3.3578
X-0.7387 Y0.8928 I0.7203 J0.1177
X-0.6808 Y0.7773 I0.4866 J0.1717
X-0.6308 Y0.7684 I0.0293 J0.0197
G2 X-0.5823 Y0.8004 I0.3874 J-0.5338
X-0.5307 Y0.8268 I0.2235 J-0.3731
G3 X-0.4996 Y0.8445 I-0.0631 J0.1467
G2 X-0.3888 Y0.9044 I0.2771 J-0.3798
G3 X-0.3719 Y0.9491 I-0.0113 J0.0298
G1 X-0.3723 Y0.9498
X-0.3727 Y0.9505
G3 X-0.4639 Y1.0753 I-0.6077 J-0.3482
G2 X-0.4753 Y1.1352 I0.0428 J0.0392
G3 X-0.4915 Y1.194 I-0.0482 J0.0184
X-0.5178 Y1.2145 I-0.9306 J-1.1712
X-0.7092 Y1.3519 I-2.6882 J-3.5431
G2 X-0.8831 Y1.5106 I0.4615 J0.6802
X-0.9514 Y1.6396 I0.2837 J0.2328
X-0.9709 Y1.7841 I0.4609 J0.136
G3 X-1.0024 Y1.8021 I-0.0207 J0.0004
X-1.0494 Y1.771 I0.4103 J-0.6695
X-1.0944 Y1.7372 I0.718 J-1.0025
X-1.0924 Y1.6955 I0.0159 J-0.0201
G2 X-0.8933 Y1.3778 I-0.2403 J-0.3719
G3 X-0.8401 Y1.0067 I9.5076 J1.1737
X-0.7835 Y0.8284 I0.6373 J0.1041
X-0.6915 Y0.6655 I1.3743 J0.6684
X-0.6469 Y0.6614 I0.0239 J0.0155
G2 X-0.5018 Y0.7628 I0.3152 J-0.2967
G3 X-0.4592 Y0.7871 I-0.0836 J0.1961
G2 X-0.419 Y0.8146 I0.4334 J-0.5899
X-0.3758 Y0.8371 I0.1513 J-0.2375
X-0.3325 Y0.8505 I0.0916 J-0.2205
X-0.2881 Y0.8593 I0.6905 J-3.3391
G3 X-0.2678 Y0.8986 I-0.0053 J0.0276
X-0.3173 Y0.9882 I-0.5895 J-0.2671
G2 X-0.3732 Y1.0741 I6.329 J4.1811
G3 X-0.4393 Y1.1507 I-0.3012 J-0.1932
X-0.4915 Y1.194 I-0.9827 J-1.1279
G2 X-0.5133 Y1.2596 I0.0393 J0.0495
G3 X-0.5357 Y1.325 I-0.0602 J0.0159
G1 X-0.7499 Y1.4879
G2 X-0.8495 Y1.6057 I0.3207 J0.3723
X-0.8977 Y1.7523 I0.2934 J0.1776
X-0.8906 Y1.8372 I0.2454 J0.0223
X-0.8616 Y1.9174 I0.4552 J-0.1196
G3 X-0.8832 Y1.9418 I-0.0161 J0.0075
X-1.0732 Y1.8466 I0.2174 J-0.671
X-1.2358 Y1.7097 I0.7325 J-1.0354
X-1.2252 Y1.6706 I0.0165 J-0.0165
G2 X-1.0643 Y1.5713 I-0.0822 J-0.3134
X-0.9776 Y1.4033 I-0.2916 J-0.2568
G1 X-0.9165 Y0.9942
G3 X-0.8543 Y0.8007 I0.6751 J0.1103
X-0.7529 Y0.6245 I1.4705 J0.7291
G1 X-0.7196 Y0.5743
G3 X-0.6861 Y0.5293 I0.4069 J0.269
X-0.6457 Y0.5332 I0.0188 J0.0158
G2 X-0.5717 Y0.6271 I0.3255 J-0.1807
X-0.4712 Y0.6917 I0.2386 J-0.2604
G3 X-0.4137 Y0.7245 I-0.1112 J0.2618
G2 X-0.2339 Y0.79 I0.2013 J-0.2734
X-0.2035 Y0.789 I0.0102 J-0.1644
G3 X-0.1732 Y0.7858 I0.1255 J1.0155
X-0.149 Y0.8174 I0.0022 J0.0234
X-0.1949 Y0.9214 I-0.9065 J-0.3378
X-0.2492 Y1.0213 I-2.1983 J-1.1285
X-0.3286 Y1.1401 I-0.9016 J-0.5166
X-0.4278 Y1.2429 I-0.5152 J-0.3981
G1 X-0.5357 Y1.325
G2 X-0.5564 Y1.3849 I0.0346 J0.0455
G3 X-0.5772 Y1.4449 I-0.0553 J0.0144
G1 X-0.704 Y1.5413
G2 X-0.787 Y1.6379 I0.278 J0.3228
X-0.8277 Y1.7587 I0.2324 J0.1456
X-0.7669 Y1.9426 I0.2422 J0.022
X-0.5976 Y2.0367 I0.2195 J-0.1959
X-0.4721 Y2.0288 I0.0463 J-0.2675
X-0.3545 Y1.9843 I-0.2797 J-0.917
X-0.1708 Y1.8876 I-0.7496 J-1.6464
G3 X-0.1362 Y1.8857 I0.0191 J0.0314
G2 X-0.1066 Y1.8986 I0.2475 J-0.5296
X-0.0759 Y1.9083 I0.0791 J-0.1968
X-0.0644 Y1.9103 I0.0224 J-0.0958
G3 X-0.0528 Y1.9116 I-0.2232 J1.9973
X-0.049 Y1.9384 I-0.0016 J0.0139
X-0.294 Y2.0189 I-0.5915 J-1.3861
X-0.5499 Y2.0517 I-0.2835 J-1.2001
X-0.8985 Y2.0018 I-0.0241 J-1.0745
X-1.2062 Y1.8305 I0.2661 J-0.8401
X-1.3007 Y1.7392 I0.7234 J-0.8431
X-1.3808 Y1.6351 I0.5543 J-0.5096
X-1.3629 Y1.6087 I0.0146 J-0.0093
G2 X-1.0424 Y1.3754 I0.051 J-0.2668
G3 X-0.986 Y0.9829 I10.1718 J1.2603
X-0.8958 Y0.7202 I0.8161 J0.1333
X-0.7401 Y0.4902 I1.2739 J0.695
X-0.7011 Y0.4442 I2.0529 J1.6982
X-0.6575 Y0.4025 I0.2416 J0.2092
X-0.6142 Y0.4188 I0.0167 J0.0212
G2 X-0.5541 Y0.546 I0.2703 J-0.05
X-0.4402 Y0.6285 I0.2229 J-0.1879
G3 X-0.375 Y0.6656 I-0.1042 J0.2585
G2 X-0.2422 Y0.7184 I0.16 J-0.2091
X-0.1005 Y0.7004 I0.0324 J-0.3113
G3 X-0.0521 Y0.7207 I0.0134 J0.0359
X-0.0502 Y0.7434 I-0.0318 J0.0142
X-0.0564 Y0.7653 I-0.3594 J-0.091
X-0.1816 Y1.0545 I-1.5216 J-0.4866
X-0.3828 Y1.2971 I-0.7475 J-0.4153
G1 X-0.5772 Y1.4449
X-0.5788 Y1.4459 Z-0.0297
X-0.5806 Y1.4466 Z-0.0294
X-0.5823 Y1.447 Z-0.0285
X-0.584 Y1.4472 Z-0.0276
X-0.5867 Y1.447 Z-0.0248
X-0.5885 Y1.4466 Z-0.0214
X-0.589 Y1.4464 Z-0.0175
G0 Z0.1
X0.9509 Y0.7832
Z0.0075
G1 X0.9511 Y0.7827 Z0.0037 F12
X0.9517 Y0.7811 Z0.0003
X0.9527 Y0.7786 Z-0.0025
X0.9542 Y0.7756 Z-0.0043
X0.956 Y0.7723 Z-0.005
G3 X1.0578 Y0.8335 Z-0.0115 I0.0509 J0.0306
X0.956 Y0.7723 Z-0.018 I-0.0509 J-0.0306
X1.0578 Y0.8335 Z-0.0245 I0.0509 J0.0306
X0.9475 Y0.801 Z-0.03 I-0.0509 J-0.0306
G1 X0.9477 Y0.7955 F20
G3 X0.9732 Y0.7686 I0.0279 J0.0009
G1 X1.0086 Y0.7655
G3 X1.0267 Y0.7957 I0.0017 J0.0195
G1 X0.9717 Y0.8791
G3 X0.9448 Y0.8703 I-0.0122 J-0.0081
G2 X0.9475 Y0.801 I-5.1604 J-0.2359
X0.9147 Y0.7622 I-0.0379 J-0.0012
G3 X0.9057 Y0.7122 I0.0035 J-0.0265
X0.9223 Y0.7075 I0.0192 J0.0361
G2 X1.026 Y0.6995 I-0.2312 J-3.6656
X1.1291 Y0.6859 I-0.1197 J-1.3081
G3 X1.1489 Y0.7141 I0.0032 J0.0188
G1 X0.8736 Y1.1248
G3 X0.8495 Y1.1134 I-0.0109 J-0.0082
G2 X0.8766 Y0.9443 I-1.1469 J-0.271
X0.8846 Y0.7732 I-2.1408 J-0.1858
X0.8843 Y0.7606 I-0.2021 J-0.0014
G3 X0.884 Y0.748 I0.2018 J-0.0112
X0.9057 Y0.7122 I0.0409 J0.0003
G2 X0.9384 Y0.6733 I-0.0321 J-0.0603
G3 X0.9789 Y0.6425 I0.0427 J0.0141
G1 X0.98
G2 X1.1038 Y0.632 I-0.0847 J-1.737
X1.1766 Y0.6165 I-0.0501 J-0.4151
G3 X1.2483 Y0.5966 I0.4048 J1.3162
X1.2693 Y0.6227 I0.0045 J0.0179
G1 X1.1373 Y0.8477
G3 X0.934 Y1.1451 I-3.2912 J-2.0315
X0.6976 Y1.4169 I-2.0638 J-1.5565
X0.6784 Y1.4024 I-0.0086 J-0.0086
G2 X0.7798 Y1.1466 I-0.9314 J-0.5171
X0.8234 Y0.8749 I-1.5101 J-0.3821
X0.8246 Y0.7823 I-0.788 J-0.056
G3 X0.821 Y0.6897 I5.4736 J-0.2541
X0.8561 Y0.6506 I0.0381 J-0.0011
X0.9789 Y0.6425 I0.3081 J3.7712
G2 X1.0173 Y0.6134 I-0.0021 J-0.0426
G3 X1.0549 Y0.5833 I0.0421 J0.0141
G2 X1.0696 Y0.5817 I-0.2431 J-2.3775
X1.3351 Y0.5085 I-0.0926 J-0.8531
X1.3502 Y0.5005 I-0.0643 J-0.14
G3 X1.3652 Y0.4922 I0.118 J0.1962
X1.3863 Y0.513 I0.007 J0.014
X0.9495 Y1.2101 I-3.4305 J-1.6644
X0.3538 Y1.7774 I-2.2837 J-1.8015
X-0.0484 Y1.998 I-1.1354 J-1.5932
X-0.4934 Y2.1089 I-0.617 J-1.5264
X-0.9485 Y2.0484 I-0.1021 J-0.9723
X-1.3294 Y1.7921 I0.3749 J-0.9685
X-1.5179 Y1.5129 I0.7611 J-0.7172
X-1.6232 Y1.1929 I1.3409 J-0.6185
G1 X-1.6675 Y0.9429
G3 X-1.6432 Y0.9348 I0.013 J-0.0014
G2 X-1.6119 Y0.9772 I0.2229 J-0.1316
X-1.5713 Y1.0109 I0.1389 J-0.1261
G3 X-1.5479 Y1.0534 I-0.0257 J0.0418
G2 X-1.5215 Y1.3793 I1.7419 J0.0225
X-1.2394 Y1.5447 I0.2115 J-0.0374
X-1.1427 Y1.466 I-0.06 J-0.1724
X-1.0984 Y1.3495 I-0.3056 J-0.1828
X-1.0591 Y1.0534 I-2.6557 J-0.5035
G3 X-0.9839 Y0.7643 I0.8422 J0.0648
X-0.8785 Y0.573 I1.3917 J0.6422
X-0.7412 Y0.4033 I0.8721 J0.5651
X-0.6763 Y0.3507 I0.2836 J0.2836
X-0.5991 Y0.3191 I0.1213 J0.1863
X-0.5629 Y0.3476 I0.006 J0.0296
G2 X-0.5532 Y0.4262 I0.461 J-0.0174
X-0.5192 Y0.4978 I0.1678 J-0.0357
X-0.4724 Y0.5431 I0.2006 J-0.1608
X-0.4154 Y0.5744 I0.1409 J-0.1887
G3 X-0.3411 Y0.6168 I-0.0993 J0.2604
G2 X-0.2405 Y0.659 I0.1251 J-0.1572
X-0.1317 Y0.6505 I0.0335 J-0.2727
X-0.0985 Y0.637 I-0.0445 J-0.1564
X-0.0673 Y0.6194 I-0.5745 J-1.0562
G3 X-0.0234 Y0.6345 I0.0154 J0.0265
G2 X-0.0074 Y0.6742 I5.406 J-2.1531
G3 X0.0068 Y0.7145 I-0.4095 J0.1666
X0.0069 Y0.7492 I-0.059 J0.0176
X-0.0032 Y0.7823 I-1.1723 J-0.3385
X-0.1339 Y1.087 I-1.6499 J-0.5276
X-0.3448 Y1.3428 I-0.7767 J-0.4255
G1 X-0.6652 Y1.5863
G2 X-0.7342 Y1.6651 I0.2433 J0.2825
X-0.7686 Y1.764 I0.1819 J0.1186
X-0.7198 Y1.9065 I0.1837 J0.0167
X-0.5874 Y1.9782 I0.1726 J-0.1607
X-0.4796 Y1.9699 I0.0376 J-0.2175
X-0.3791 Y1.9303 I-0.3314 J-0.9884
X-0.284 Y1.8837 I-0.7724 J-1.6964
X-0.1922 Y1.831 I-0.6643 J-1.2634
G3 X-0.1208 Y1.8274 I0.039 J0.0624
G2 X-0.0742 Y1.8475 I0.226 J-0.4601
X-0.0243 Y1.8569 I0.0521 J-0.1393
X0.1244 Y1.8249 I0.0049 J-0.3391
X0.2603 Y1.7568 I-1.2055 J-2.5754
X0.6151 Y1.4054 I-0.4129 J-0.7717
X0.7625 Y0.9282 I-1.0948 J-0.5993
X0.7676 Y0.7797 I-1.1675 J-0.1148
X0.7608 Y0.6313 I-4.4176 J0.1268
G3 X0.7946 Y0.5956 I0.0335 J-0.0021
G2 X1.0549 Y0.5833 I0.0171 J-2.3898
X1.0955 Y0.5488 I-0.0048 J-0.0467
G3 X1.1342 Y0.5122 I0.0492 J0.0132
G2 X1.4086 Y0.4062 I-0.1872 J-0.8926
X1.4543 Y0.3722 I-0.1352 J-0.2303
G1 X1.4977 Y0.3323
G3 X1.5195 Y0.3474 I0.0092 J0.01
X1.227 Y0.9262 I-3.6576 J-1.4846
X0.8304 Y1.4393 I-2.5663 J-1.5737
X0.4528 Y1.7768 I-2.4183 J-2.3259
X0.0157 Y2.0327 I-1.2433 J-1.6227
X-0.3717 Y2.154 I-0.7866 J-1.8328
X-0.7778 Y2.1557 I-0.2072 J-1.0147
X-1.0455 Y2.0704 I0.2346 J-1.1996
X-1.2827 Y1.9196 I0.4059 J-0.9003
X-1.5004 Y1.6626 I0.6934 J-0.8082
X-1.6384 Y1.3554 I1.1851 J-0.7169
X-1.7304 Y0.7472 I1.9645 J-0.6083
X-1.6634 Y0.1357 I2.8194 J-0.0001
X-1.6094 Y-0.073 I3.0703 J0.682
X-1.3645 Y-0.6796 I3.2212 J0.9479
X-1.0142 Y-1.2321 I3.4674 J1.8111
X-0.9931 Y-1.2203 I0.0097 J0.0074
G2 X-1.0377 Y-1.0602 I0.7222 J0.2872
X-1.0342 Y-0.894 I0.4449 J0.0738
X-0.9543 Y-0.6277 I1.5987 J-0.3345
X-0.8327 Y-0.3777 I1.7014 J-0.673
G3 X-0.8468 Y-0.3375 I-0.0241 J0.0141
G2 X-1.1795 Y-0.1622 I0.5656 J1.4767
X-1.4535 Y0.0954 I0.7127 J1.0325
X-1.5695 Y0.2826 I0.7827 J0.6148
X-1.6307 Y0.4942 I0.6153 J0.2927
X-1.6379 Y0.7416 I1.3613 J0.1632
X-1.6125 Y0.874 I0.5228 J-0.0316
X-1.5196 Y0.9715 I0.1492 J-0.0492
G3 X-1.4888 Y1.0193 I-0.0172 J0.0449
G2 X-1.4913 Y1.15 I1.616 J0.0965
X-1.4814 Y1.2803 I1.1861 J-0.0251
X-1.4602 Y1.389 I0.9018 J-0.1191
X-1.3958 Y1.479 I0.149 J-0.0385
X-1.1633 Y1.3757 I0.0831 J-0.1263
G1 X-1.1242 Y1.1227
G2 X-1.1031 Y0.9702 I-4.8151 J-0.7439
G3 X-1.0682 Y0.8201 I0.718 J0.0878
X-0.9668 Y0.6076 I1.0131 J0.3527
X-0.8294 Y0.4163 I1.4716 J0.9124
X-0.7495 Y0.3317 I0.6805 J0.5629
X-0.6477 Y0.2753 I0.1656 J0.1786
X-0.5893 Y0.2608 I0.3541 J1.3029
X-0.5305 Y0.2485 I0.4327 J1.9278
X-0.5015 Y0.2754 I0.0046 J0.024
G2 X-0.506 Y0.3561 I0.6348 J0.0756
X-0.4896 Y0.4353 I0.2074 J-0.0017
X-0.4491 Y0.4897 I0.1318 J-0.0557
X-0.3894 Y0.5221 I0.1114 J-0.1345
G3 X-0.3093 Y0.5677 I-0.0632 J0.2038
G2 X-0.1967 Y0.6028 I0.0942 J-0.104
X-0.085 Y0.5646 I-0.0394 J-0.2972
X-0.062 Y0.5479 I-0.0726 J-0.1245
G3 X-0.0405 Y0.5293 I0.9554 J1.0772
X0.0008 Y0.5387 I0.0171 J0.0201
X0.0244 Y0.6031 I-0.4897 J0.2161
G2 X0.048 Y0.6674 I0.4887 J-0.1427
G3 X0.0534 Y0.8002 I-0.1643 J0.0732
X0.0064 Y0.9245 I-2.69 J-0.9445
X-0.122 Y1.1755 I-1.4771 J-0.5973
X-0.3078 Y1.3875 I-0.7574 J-0.4764
G1 X-0.6274 Y1.6302
G2 X-0.6826 Y1.6916 I0.2125 J0.2467
X-0.7108 Y1.7693 I0.1335 J0.0924
X-0.6329 Y1.9005 I0.1296 J0.0118
X-0.4806 Y1.907 I0.0846 J-0.1953
X-0.3234 Y1.8401 I-0.3471 J-1.0334
X-0.1767 Y1.7527 I-0.7016 J-1.3448
G3 X-0.1217 Y1.757 I0.0248 J0.0367
G2 X-0.0202 Y1.7956 I0.098 J-0.1051
X0.0864 Y1.7747 I-0.0079 J-0.3228
X0.3558 Y1.6209 I-0.3522 J-0.9297
X0.5603 Y1.3877 I-0.5555 J-0.6934
X0.6998 Y0.989 I-0.8752 J-0.5298
X0.6959 Y0.5666 I-1.5262 J-0.1972
G3 X0.725 Y0.5351 I0.0272 J-0.004
G2 X1.0766 Y0.5224 I0.116 J-1.6534
X1.1342 Y0.5122 I-0.1296 J-0.9027
G1 X1.1361 Y0.5119 Z-0.0297
X1.138 Y0.512 Z-0.0294
X1.1397 Y0.5123 Z-0.0285
X1.1414 Y0.5128 Z-0.0276
X1.1438 Y0.5141 Z-0.0248
X1.1452 Y0.5152 Z-0.0214
X1.1456 Y0.5157 Z-0.0175
G0 Z0.1
X1.6086 Y-0.4125
Z0.0075
G1 X1.6083 Y-0.4119 Z0.0037 F12
X1.6076 Y-0.4104 Z0.0003
X1.6064 Y-0.408 Z-0.0025
X1.6046 Y-0.4051 Z-0.0043
X1.6025 Y-0.402 Z-0.005
G3 X1.5062 Y-0.4714 Z-0.0115 I-0.0482 J-0.0347
X1.6025 Y-0.402 Z-0.018 I0.0482 J0.0347
X1.5062 Y-0.4714 Z-0.0245 I-0.0482 J-0.0347
X1.6133 Y-0.4299 Z-0.03 I0.0482 J0.0347
G1 X1.6131 Y-0.4275 F20
G3 X1.5975 Y-0.4138 I-0.0154 J-0.0018
G1 X1.5951
X1.5916
G3 X1.5768 Y-0.4336 I0 J-0.0155
G2 X1.5906 Y-0.4834 I-1.6163 J-0.4751
X1.6024 Y-0.5337 I-0.9632 J-0.2513
G3 X1.6248 Y-0.5304 I0.0111 J0.0023
X1.6192 Y-0.4789 I-1.5887 J-0.1457
G2 X1.6133 Y-0.4299 I5.5541 J0.6919
G1 X1.613 Y-0.428 Z-0.0297
X1.6123 Y-0.4262 Z-0.0294
X1.6115 Y-0.4247 Z-0.0285
X1.6105 Y-0.4233 Z-0.0276
X1.6085 Y-0.4214 Z-0.0248
X1.607 Y-0.4204 Z-0.0214
X1.6064 Y-0.4201 Z-0.0175
G0 Z0.1
X0.8638 Y-1.7058
Z0.0075
G1 X0.8642 Y-1.7054 Z0.0037 F12
X0.8655 Y-1.7043 Z0.0003
X0.8674 Y-1.7025 Z-0.0025
X0.8697 Y-1.7 Z-0.0043
X0.8721 Y-1.6971 Z-0.005
G3 X0.7782 Y-1.6244 Z-0.0115 I-0.0469 J0.0364
X0.8721 Y-1.6971 Z-0.018 I0.0469 J-0.0364
X0.7782 Y-1.6244 Z-0.0245 I-0.0469 J0.0364
X0.8484 Y-1.7154 Z-0.03 I0.0469 J-0.0364
X0.9016 Y-1.6898 I-0.254 J0.5967 F20
X0.9789 Y-1.6428 I-0.3814 J0.714
X1.0486 Y-1.5849 I-0.2836 J0.4124
X1.0305 Y-1.5647 I-0.0096 J0.0096
G2 X0.6449 Y-1.723 I-0.4644 J0.5823
G3 X0.627 Y-1.7383 I0.0022 J-0.0207
G1 X0.6269 Y-1.7388
G3 X0.6487 Y-1.7649 I0.0201 J-0.0054
X0.8484 Y-1.7154 I-0.0543 J0.6463
G2 X0.9165 Y-1.728 I0.0245 J-0.0576
G3 X0.9852 Y-1.7359 I0.0395 J0.0408
X1.168 Y-1.5762 I-0.3555 J0.5912
X1.1599 Y-1.5292 I-0.0248 J0.0199
G2 X1.1268 Y-1.5074 I0.3688 J0.5965
X1.0957 Y-1.4826 I0.1856 J0.2654
X1.0848 Y-1.4722 I0.1618 J0.1797
G3 X1.0739 Y-1.4617 I-0.1727 J-0.1692
X1.0196 Y-1.4622 I-0.0269 J-0.0299
G2 X0.935 Y-1.5326 I-0.6876 J0.7398
X0.8404 Y-1.5888 I-0.3157 J0.4242
X0.7222 Y-1.6263 I-0.2108 J0.458
X0.5995 Y-1.6434 I-0.2456 J1.3137
G3 X0.5535 Y-1.6841 I0.0048 J-0.0517
G2 X0.5349 Y-1.7506 I-0.5804 J0.1266
X0.5071 Y-1.8139 I-0.3932 J0.1351
G3 X0.5277 Y-1.8494 I0.0211 J-0.0115
X0.8798 Y-1.7877 I0.0215 J0.912
X0.9852 Y-1.7359 I-0.25 J0.6429
G2 X1.0552 Y-1.7378 I0.0335 J-0.0558
G3 X1.1251 Y-1.7336 I0.0322 J0.0477
X1.1923 Y-1.6677 I-0.4888 J0.5649
X1.2455 Y-1.6052 I-1.1602 J1.0413
X1.2935 Y-1.5385 I-0.5803 J0.4681
X1.2793 Y-1.4961 I-0.0242 J0.0155
G2 X1.2342 Y-1.4786 I0.5914 J1.5884
X1.1912 Y-1.4563 I0.0967 J0.2388
X1.1246 Y-1.4017 I0.2061 J0.3194
X1.0699 Y-1.3352 I0.3766 J0.3657
G3 X1.027 Y-1.3334 I-0.0221 J-0.0153
G2 X0.9457 Y-1.4229 I-0.9386 J0.7715
X0.8479 Y-1.494 I-0.2763 J0.2775
X0.661 Y-1.5584 I-0.3196 J0.6241
X0.5894 Y-1.5646 I-0.0655 J0.3376
X0.5175 Y-1.5626 I0.0586 J3.3287
G3 X0.4822 Y-1.5959 I-0.0013 J-0.034
G2 X0.3604 Y-1.8743 I-0.3969 J0.0078
G3 X0.3699 Y-1.9089 I0.014 J-0.0147
X0.4426 Y-1.9205 I0.1236 J0.5411
X0.516 Y-1.9259 I0.1836 J1.9899
X0.8835 Y-1.8737 I0.0525 J0.9507
X1.1251 Y-1.7336 I-0.2471 J0.705
G2 X1.1916 Y-1.7235 I0.0413 J-0.0477
G3 X1.2573 Y-1.7087 I0.0227 J0.0522
X1.4125 Y-1.4777 I-0.8354 J0.7289
X1.3921 Y-1.4433 I-0.0213 J0.0107
G2 X1.2216 Y-1.3844 I0.0114 J0.3094
X1.1031 Y-1.2485 I0.2365 J0.3258
X1.0868 Y-1.2103 I0.2098 J0.1122
G3 X1.0731 Y-1.171 I-1.0514 J-0.3439
X1.0416 Y-1.1704 I-0.0158 J-0.0059
G2 X0.8478 Y-1.4083 I-0.4889 J0.2006
X0.5528 Y-1.4929 I-0.2784 J0.4137
X0.4866 Y-1.4848 I0.0124 J0.3753
G3 X0.4211 Y-1.4714 I-0.7389 J-3.4456
X0.3953 Y-1.4995 I-0.0043 J-0.022
G2 X0.3905 Y-1.6928 I-0.3141 J-0.0889
X0.2781 Y-1.8502 I-0.3157 J0.1066
X0.2243 Y-1.8809 I-0.1375 J0.1786
X0.1657 Y-1.9007 I-0.2068 J0.5166
G3 X0.165 Y-1.9293 I0.004 J-0.0144
X0.4952 Y-1.9963 I0.4524 J1.3822
X0.8314 Y-1.9735 I0.0934 J1.1087
X1.1777 Y-1.791 I-0.163 J0.729
X1.2573 Y-1.7087 I-0.7559 J0.8111
G2 X1.3108 Y-1.6938 I0.0381 J-0.0332
G3 X1.3636 Y-1.6767 I0.0145 J0.0453
G1 X1.3678 Y-1.6709
G3 X1.5234 Y-1.385 I-1.0313 J0.7467
X1.5005 Y-1.3622 I-0.0165 J0.0064
G2 X1.3287 Y-1.3668 I-0.0924 J0.2347
X1.188 Y-1.2683 I0.0944 J0.2845
X1.1099 Y-1.0938 I0.3051 J0.2412
X1.0786 Y-0.9053 I11.7206 J2.0421
X1.0601 Y-0.7817 I8.0596 J1.2712
G3 X1.0305 Y-0.6604 I-0.63 J-0.0895
X1.0075 Y-0.666 I-0.0112 J-0.0039
G2 X1.0315 Y-0.8931 I-2.9904 J-0.4318
X0.9974 Y-1.1189 I-0.5273 J-0.0358
X0.8334 Y-1.3318 I-0.44 J0.1695
X0.5825 Y-1.428 I-0.3068 J0.425
X0.4163 Y-1.4113 I-0.0434 J0.4044
X0.2621 Y-1.3471 I0.2872 J0.907
G3 X0.2468 Y-1.3671 I-0.0059 J-0.0113
G2 X0.3347 Y-1.5198 I-0.2899 J-0.2684
X0.3245 Y-1.6958 I-0.2425 J-0.0742
X0.1199 Y-1.8511 I-0.2415 J0.1058
X-0.1306 Y-1.7942 I-0.0506 J0.3575
X-0.2483 Y-1.7041 I0.6168 J0.9271
X-0.3579 Y-1.6044 I2.6973 J3.0743
G3 X-0.4025 Y-1.6095 I-0.0201 J-0.0213
G2 X-0.4112 Y-1.6221 I-0.2663 J0.1764
X-0.4208 Y-1.6341 I-0.1558 J0.1143
G3 X-0.4156 Y-1.6818 I0.0248 J-0.0214
X0.0013 Y-1.9281 I1.3446 J1.8002
X0.4672 Y-2.0603 I0.6736 J1.4862
X0.8182 Y-2.046 I0.1334 J1.0391
X1.1386 Y-1.9021 I-0.1726 J0.8129
X1.3636 Y-1.6767 I-0.6275 J0.8514
G2 X1.4112 Y-1.6592 I0.037 J-0.0272
G3 X1.4582 Y-1.64 I0.0101 J0.0424
X1.535 Y-1.493 I-0.8719 J0.5491
X1.6414 Y-1.1447 I-1.6109 J0.6829
X1.681 Y-0.7669 I-2.121 J0.4131
X1.6623 Y-0.3874 I-2.9014 J0.0474
X1.6242 Y-0.3576 I-0.0338 J-0.0039
G2 X1.5881 Y-0.3606 I-0.0506 J0.3908
X1.5521 Y-0.3568 I-0.0047 J0.1273
X1.5166 Y-0.3451 I0.0657 J0.2593
G3 X1.4952 Y-0.3666 I-0.0063 J-0.0151
G2 X1.5546 Y-0.5487 I-1.0369 J-0.439
X1.5874 Y-0.7375 I-1.595 J-0.3738
G1 X1.6325 Y-1.1097
G2 X1.5308 Y-1.2923 I-0.2184 J0.002
X1.3226 Y-1.3104 I-0.1216 J0.1923
X1.1988 Y-1.1829 I0.085 J0.2065
X1.1499 Y-1.0121 I0.9996 J0.3784
X1.1101 Y-0.7853 I5.1378 J1.0171
G3 X1.0447 Y-0.5645 I-0.8364 J-0.1277
X0.9954 Y-0.476 I-0.5512 J-0.2491
X0.9352 Y-0.3945 I-0.9458 J-0.6363
X0.9112 Y-0.4062 I-0.0106 J-0.0086
X0.925 Y-0.4637 I4.5976 J1.0713
G2 X0.9363 Y-0.5217 I-0.5857 J-0.1442
X0.9797 Y-0.8829 I-7.5893 J-1.0958
X0.8686 Y-1.2293 I-0.4581 J-0.0441
X0.7365 Y-1.3295 I-0.3069 J0.2673
X0.5768 Y-1.3746 I-0.2125 J0.4471
X0.4302 Y-1.3611 I-0.0397 J0.3697
X0.2927 Y-1.3085 I0.2874 J0.9573
X0.1155 Y-1.2002 I0.4042 J0.8607
X-0.046 Y-1.0696 I2.9235 J3.7832
G3 X-0.0661 Y-1.0857 I-0.0084 J-0.01
X0.047 Y-1.2412 I0.5861 J0.3075
X0.1856 Y-1.3743 I2.2379 J2.1896
G2 X0.2721 Y-1.4944 I-0.2366 J-0.2618
X0.2866 Y-1.6418 I-0.2185 J-0.0958
X0.1288 Y-1.7911 I-0.1892 J0.0418
X-0.086 Y-1.7582 I-0.0568 J0.3466
X-0.195 Y-1.6859 I0.2464 J0.4892
X-0.2924 Y-1.5985 I1.6811 J1.972
X-0.3407 Y-1.5496 I0.6854 J0.7263
X-0.3868 Y-1.4985 I2.0942 J1.9334
G3 X-0.4177 Y-1.5072 I-0.0134 J-0.0118
G2 X-0.5065 Y-1.6377 I-0.19 J0.0338
G3 X-0.509 Y-1.6783 I0.013 J-0.0212
G1 X-0.2094 Y-1.8802
G3 X0.1888 Y-2.0577 I0.9412 J1.5754
X0.6201 Y-2.1214 I0.421 J1.3591
X1.011 Y-2.0329 I-0.0068 J0.9374
X1.3358 Y-1.798 I-0.4544 J0.97
X1.4582 Y-1.64 I-0.7495 J0.7071
G2 X1.4958 Y-1.6229 I0.0319 J-0.0201
G3 X1.5329 Y-1.6046 I0.0055 J0.0356
X1.5845 Y-1.4975 I-1.0137 J0.5541
X1.71 Y-1.0261 I-1.6453 J0.6905
X1.7236 Y-0.5384 I-2.5451 J0.3148
X1.7154 Y-0.4235 I-15.6764 J-1.0593
X1.701 Y-0.3092 I-1.1468 J-0.0859
X1.6642 Y-0.2924 I-0.0242 J-0.0043
G2 X1.5808 Y-0.3146 I-0.0805 J0.1342
X1.5 Y-0.2842 I0.0025 J0.1291
X1.4165 Y-0.17 I0.1929 J0.2286
G3 X1.3474 Y-0.0465 I-0.5549 J-0.2295
X1.2873 Y0.028 I-0.7688 J-0.5587
X1.2118 Y0.087 I-0.2008 J-0.1794
X1.1297 Y0.1208 I-0.2222 J-0.4225
X1.0439 Y0.1435 I-0.336 J-1.0948
X1.0343 Y0.12 I-0.0028 J-0.0126
G2 X1.233 Y-0.0503 I-0.4511 J-0.7276
X1.3883 Y-0.2609 I-1.3539 J-1.1611
X1.4985 Y-0.5286 I-0.7179 J-0.4521
X1.5464 Y-0.814 I-2.6658 J-0.5939
G1 X1.5831 Y-1.1159
G2 X1.5606 Y-1.1925 I-0.1464 J0.0013
X1.504 Y-1.2487 I-0.1501 J0.0944
X1.3813 Y-1.2734 I-0.0945 J0.1522
X1.2733 Y-1.2101 I0.0272 J0.1702
X1.2218 Y-1.1094 I0.2267 J0.1792
X1.1976 Y-0.9989 I0.918 J0.2591
G3 X1.1591 Y-0.7602 I-33.0965 J-5.22
X1.0833 Y-0.5307 I-0.7715 J-0.1274
X0.9748 Y-0.3694 I-0.7314 J-0.3752
X0.8376 Y-0.2317 I-1.0202 J-0.8787
X0.8057 Y-0.2556 I-0.0134 J-0.0154
G2 X0.8443 Y-0.3429 I-3.5711 J-1.6305
X0.8724 Y-0.4342 I-0.416 J-0.1778
X0.9101 Y-0.6527 I-5.0823 J-0.9904
X0.9321 Y-0.8732 I-2.1724 J-0.3275
X0.8828 Y-1.1184 I-0.5109 J-0.0249
X0.7047 Y-1.294 I-0.3317 J0.1583
X0.5059 Y-1.3222 I-0.1464 J0.3181
X0.3137 Y-1.2638 I0.1047 J0.6905
X0.1365 Y-1.1577 I0.4385 J0.9336
X-0.0254 Y-1.0294 I1.9987 J2.6864
X-0.1053 Y-0.948 I0.3943 J0.4668
G1 X-0.1727 Y-0.865
G3 X-0.1974 Y-0.8763 I-0.0109 J-0.0088
X-0.1885 Y-0.9077 I0.1575 J0.0274
G2 X-0.1775 Y-0.9384 I-0.4901 J-0.1936
G3 X-0.1062 Y-1.111 I1.1511 J0.3743
X-0.0007 Y-1.2652 I0.6356 J0.322
X0.0846 Y-1.3491 I0.721 J0.6475
G2 X0.1724 Y-1.4305 I-1.2033 J-1.3846
X0.2405 Y-1.5816 I-0.1628 J-0.1644
X0.1619 Y-1.7276 I-0.158 J-0.0091
X0.0414 Y-1.7516 I-0.0956 J0.1649
X-0.0736 Y-1.7085 I0.0354 J0.2693
X-0.2528 Y-1.5749 I1.1578 J1.7405
X-0.4001 Y-1.4068 I0.4565 J0.5486
X-0.5328 Y-1.1456 I1.3432 J0.8466
X-0.6048 Y-0.8616 I1.0578 J0.4195
G3 X-0.6305 Y-0.8595 I-0.013 J-0.0016
X-0.6538 Y-1.0139 I0.5873 J-0.1675
X-0.6222 Y-1.1668 I0.3497 J-0.0075
G1 X-0.4832 Y-1.3871
G2 X-0.4634 Y-1.4907 I-0.188 J-0.0897
X-0.512 Y-1.5844 I-0.1318 J0.0089
X-0.5591 Y-1.6105 I-0.0966 J0.1191
X-0.6125 Y-1.6172 I-0.0432 J0.1266
G3 X-0.6239 Y-1.6444 I-0.0012 J-0.0154
X-0.3635 Y-1.8433 I1.7109 J1.9698
X-0.0787 Y-2.0055 I1.2702 J1.8992
X0.4114 Y-2.1592 I0.7827 J1.6373
X0.9236 Y-2.1204 I0.176 J1.0773
X1.3221 Y-1.8812 I-0.3172 J0.9797
X1.5329 Y-1.6046 I-0.8029 J0.8307
G2 X1.5806 Y-1.5787 I0.0439 J-0.024
G3 X1.6277 Y-1.552 I0.0036 J0.0486
G1 X1.6391 Y-1.5294
X1.6425 Y-1.5219
X1.6901 Y-1.3992
X1.6985 Y-1.374
X1.7361 Y-1.2426
X1.7416 Y-1.2173
X1.7674 Y-1.0851
X1.7701 Y-1.0687
X1.7874 Y-0.9105
X1.7889 Y-0.8895
X1.7939 Y-0.7312
X1.7936 Y-0.7013
X1.7863 Y-0.5341
X1.784 Y-0.5086
X1.7637 Y-0.3326
X1.7576 Y-0.2982
X1.7242 Y-0.1199
X1.6698 Y0.0908
X1.6006 Y0.2998
X1.5942 Y0.3166
X1.5153 Y0.511
X1.5102 Y0.5226
X1.4478 Y0.6513
X1.4044 Y0.739
X1.3343 Y0.8623
X1.2887 Y0.9412
X1.1717 Y1.1188
X1.1597 Y1.1356
X1.0336 Y1.3018
X1.0195 Y1.3189
X0.8926 Y1.4648
X0.8758 Y1.4829
X0.7387 Y1.6199
X0.7218 Y1.6357
X0.5857 Y1.7539
X0.5645 Y1.7709
X0.424 Y1.8759
X0.4073 Y1.8872
X0.2669 Y1.9765
X0.2503 Y1.9859
X0.1059 Y2.0623
X0.0405 Y2.0905
X-0.0391 Y2.1245
X-0.0591 Y2.1321
X-0.1929 Y2.1759
X-0.2196 Y2.1829
X-0.3485 Y2.2122
X-0.4808 Y2.2292
X-0.5012 Y2.2309
X-0.6232 Y2.2336
X-0.6436 Y2.2328
X-0.7606 Y2.223
X-0.7898 Y2.2174
X-0.8819 Y2.199
X-0.8959 Y2.1955
X-1.0032 Y2.1608
X-1.0221 Y2.1531
X-1.124 Y2.1062
X-1.2209 Y2.0468
X-1.2371 Y2.0356
X-1.3237 Y1.9674
X-1.34 Y1.9521
X-1.4174 Y1.875
X-1.4232 Y1.8685
X-1.496 Y1.7777
X-1.5092 Y1.7592
X-1.574 Y1.6578
X-1.5816 Y1.6437
X-1.6391 Y1.5294
X-1.6425 Y1.5219
X-1.6901 Y1.3992
X-1.6985 Y1.374
X-1.7361 Y1.2426
X-1.7416 Y1.2173
X-1.7674 Y1.0851
X-1.7701 Y1.0687
X-1.7874 Y0.9105
X-1.7889 Y0.8895
X-1.7939 Y0.7312
X-1.7936 Y0.7013
X-1.7903 Y0.6247
X-1.7863 Y0.5341
X-1.784 Y0.5086
X-1.7637 Y0.3326
X-1.7576 Y0.2982
X-1.7248 Y0.122
X-1.6698 Y-0.0908
X-1.6006 Y-0.2998
X-1.5942 Y-0.3166
X-1.5153 Y-0.5108
X-1.5077 Y-0.5276
X-1.4478 Y-0.6513
X-1.4044 Y-0.739
X-1.3343 Y-0.8623
X-1.2887 Y-0.9412
X-1.1717 Y-1.1188
X-1.1597 Y-1.1356
X-1.0365 Y-1.2982
X-1.0234 Y-1.3144
X-0.8926 Y-1.4648
X-0.8757 Y-1.4829
X-0.7387 Y-1.6199
X-0.7219 Y-1.6357
X-0.5857 Y-1.7539
X-0.5645 Y-1.7709
X-0.424 Y-1.8759
X-0.4073 Y-1.8872
X-0.2669 Y-1.9765
X-0.2503 Y-1.9858
X-0.1059 Y-2.0623
X0.0391 Y-2.1245
X0.0591 Y-2.1321
X0.193 Y-2.1759
X0.2153 Y-2.1819
X0.3462 Y-2.2118
X0.4461 Y-2.2248
X0.4808 Y-2.2292
X0.4991 Y-2.2308
X0.621 Y-2.2337
X0.6436 Y-2.2328
X0.7606 Y-2.223
X0.8137 Y-2.2127
X0.8818 Y-2.199
X0.8958 Y-2.1955
X1.0032 Y-2.1608
X1.0221 Y-2.153
X1.124 Y-2.1062
X1.2209 Y-2.0468
X1.2371 Y-2.0356
X1.3237 Y-1.9674
X1.34 Y-1.9521
X1.4174 Y-1.875
X1.4232 Y-1.8685
X1.496 Y-1.7777
X1.5092 Y-1.7593
X1.574 Y-1.6578
X1.5817 Y-1.6437
X1.6277 Y-1.552
X1.6285 Y-1.5502 Z-0.0297
X1.6289 Y-1.5483 Z-0.0294
X1.6291 Y-1.5466 Z-0.0285
X1.629 Y-1.5448 Z-0.0276
X1.6283 Y-1.5422 Z-0.0248
X1.6276 Y-1.5405 Z-0.0214
X1.6273 Y-1.54 Z-0.0175
G0 Z0.1
X1.5226 Y-1.3248
Z0.0394
G1 Z-0.0175 F20
X1.5224 Y-1.3245 Z-0.0203
X1.522 Y-1.3237 Z-0.0229
X1.5212 Y-1.3224 Z-0.0253
X1.5203 Y-1.3206 Z-0.0273
X1.5191 Y-1.3186 Z-0.0288
X1.5179 Y-1.3163 Z-0.0297
X1.5165 Y-1.3138 Z-0.03
X1.4624 Y-1.2159
G3 X1.4454 Y-1.2111 I-0.0109 J-0.0061
G1 X1.4432 Y-1.2122
X1.441 Y-1.2131
X1.4343 Y-1.2155
X1.431 Y-1.2165
X1.4277 Y-1.2171
X1.421 Y-1.218
X1.4185 Y-1.2182
X1.4161
X1.4006 Y-1.2178
X1.3976 Y-1.2175
X1.3947 Y-1.217
X1.3882 Y-1.2155
X1.3856 Y-1.2149
X1.3832 Y-1.214
X1.3653 Y-1.2066
X1.3627 Y-1.2054
X1.3603 Y-1.204
X1.3558 Y-1.2011
X1.3538 Y-1.1997
X1.3519 Y-1.1981
X1.3262 Y-1.175
X1.3243 Y-1.1731
X1.3226 Y-1.1711
X1.3181 Y-1.1654
X1.3164 Y-1.1631
X1.315 Y-1.1607
X1.3044 Y-1.1408
X1.3035 Y-1.1391
X1.2954 Y-1.1213
X1.2945 Y-1.1192
X1.2783 Y-1.0752
X1.2772 Y-1.0717
X1.2708 Y-1.0447
X1.2705 Y-1.0435
X1.26 Y-0.9903
X1.2597 Y-0.9891
X1.2424 Y-0.8794
Y-0.8791
X1.2298 Y-0.7942
X1.2237 Y-0.7594
X1.2204 Y-0.7427
X1.2032 Y-0.673
X1.1984 Y-0.6563
X1.1906 Y-0.632
X1.1733 Y-0.5827
X1.1543 Y-0.5352
X1.147 Y-0.5183
X1.1393 Y-0.502
X1.1303 Y-0.4857
X1.0985 Y-0.434
X1.0539 Y-0.3711
X1.007 Y-0.3132
X0.9585 Y-0.2617
X0.9205 Y-0.2273
X0.8725 Y-0.1857
X0.8686 Y-0.1826
X0.8608 Y-0.1779
X0.8522 Y-0.1733
X0.8359 Y-0.1653
X0.8211 Y-0.159
X0.8209
X0.8189
X0.8086 Y-0.1609
X0.7803 Y-0.1716
X0.7692 Y-0.1778
X0.741 Y-0.1945
X0.7402 Y-0.1949
X0.7228 Y-0.2045
X0.7147 Y-0.2093
X0.7159 Y-0.2111
X0.7166 Y-0.2121
X0.7342 Y-0.2418
X0.7348 Y-0.2427
X0.7442 Y-0.2598
X0.7452 Y-0.2619
X0.776 Y-0.3293
X0.7772 Y-0.3324
X0.7962 Y-0.3891
X0.7966 Y-0.3903
X0.8017 Y-0.408
X0.8022 Y-0.4097
X0.8104 Y-0.4451
X0.8107 Y-0.4462
X0.8176 Y-0.4817
X0.8177 Y-0.4826
X0.8267 Y-0.5369
Y-0.5375
X0.8522 Y-0.7138
X0.8523 Y-0.7145
X0.8587 Y-0.7677
X0.8588 Y-0.7681
X0.8663 Y-0.8391
X0.8664 Y-0.8399
X0.8692 Y-0.8754
X0.8693 Y-0.8763
X0.8701 Y-0.894
X0.8702 Y-0.8959
X0.8697 Y-0.9469
X0.8695 Y-0.9493
X0.8692 Y-0.9517
X0.8609 Y-1.0011
X0.8599 Y-1.0053
X0.8433 Y-1.0576
X0.8427 Y-1.0593
X0.8331 Y-1.0841
X0.8317 Y-1.0872
X0.8226 Y-1.1049
X0.8204 Y-1.1086
X0.8079 Y-1.1263
X0.8065 Y-1.1282
X0.7846 Y-1.1549
X0.784 Y-1.1556
X0.7663 Y-1.1759
X0.764 Y-1.1782
X0.7418 Y-1.1989
X0.7399 Y-1.2005
X0.738 Y-1.2019
X0.7116 Y-1.2197
X0.7084 Y-1.2216
X0.6796 Y-1.2363
X0.6759 Y-1.2379
X0.6428 Y-1.2498
X0.6389 Y-1.251
X0.6036 Y-1.2587
X0.6002 Y-1.2593
X0.5648 Y-1.2631
X0.5605 Y-1.2632
X0.5295 Y-1.2622
X0.527 Y-1.262
X0.5246 Y-1.2616
X0.4458 Y-1.2463
X0.4419 Y-1.2453
X0.3747 Y-1.2228
X0.3714 Y-1.2214
X0.3404 Y-1.2069
X0.3392 Y-1.2063
X0.3067 Y-1.1893
X0.306 Y-1.1889
X0.2855 Y-1.1775
X0.2842 Y-1.1768
X0.2665 Y-1.1658
X0.2655 Y-1.1652
X0.167 Y-1.0988
X0.1661 Y-1.0982
X0.1054 Y-1.0543
X0.1046 Y-1.0536
X0.0692 Y-1.0261
X0.0688 Y-1.0258
X0.0474 Y-1.0086
X0.0469 Y-1.0081
X0.0152 Y-0.9813
X0.0145 Y-0.9807
X-0.0032 Y-0.9648
X-0.0036 Y-0.9644
X-0.034 Y-0.9362
X-0.0352 Y-0.9351
X-0.0728 Y-0.8964
X-0.0746 Y-0.8943
X-0.1304 Y-0.8257
X-0.131 Y-0.8249
X-0.1438 Y-0.8081
X-0.1447 Y-0.8067
X-0.1568 Y-0.789
X-0.1573 Y-0.7881
X-0.1856 Y-0.7434
X-0.1858 Y-0.7431
X-0.1899 Y-0.7363
X-0.2127 Y-0.7508
X-0.2293 Y-0.7623
X-0.2505 Y-0.7782
X-0.2646 Y-0.794
X-0.2667 Y-0.7977
X-0.2644 Y-0.8274
X-0.2534 Y-0.8902
X-0.2449 Y-0.9224
X-0.2343 Y-0.9568
X-0.2225 Y-0.9913
X-0.2009 Y-1.0473
X-0.1809 Y-1.0956
X-0.173 Y-1.1121
X-0.1549 Y-1.1467
X-0.1149 Y-1.2181
X-0.0849 Y-1.2625
X-0.0475 Y-1.3072
X-0.0208 Y-1.3349
X0.0042 Y-1.3604
X0.0321 Y-1.3869
X0.1103 Y-1.4576
X0.1114 Y-1.4586
X0.1281 Y-1.4752
X0.1296 Y-1.4768
X0.1311 Y-1.4786
X0.1549 Y-1.5102
X0.1562 Y-1.5121
X0.1574 Y-1.5141
X0.1689 Y-1.5353
X0.1701 Y-1.5377
X0.171 Y-1.5401
X0.1776 Y-1.5593
X0.1785 Y-1.5622
X0.179 Y-1.5651
X0.1803 Y-1.574
X0.1804 Y-1.5754
X0.1815 Y-1.5865
X0.1816 Y-1.5893
X0.1815 Y-1.5921
X0.1809 Y-1.5987
X0.1803 Y-1.6028
X0.177 Y-1.6176
X0.1762 Y-1.6205
X0.1751 Y-1.6233
X0.1726 Y-1.6292
X0.1715 Y-1.6315
X0.1702 Y-1.6336
X0.1622 Y-1.6461
X0.1607 Y-1.6482
X0.159 Y-1.6502
X0.1547 Y-1.655
X0.1527 Y-1.6569
X0.1506 Y-1.6587
X0.138 Y-1.6684
X0.1346 Y-1.6707
X0.1304 Y-1.6731
X0.1283 Y-1.6742
X0.1262 Y-1.6752
X0.1088 Y-1.6821
X0.106 Y-1.683
X0.1031 Y-1.6837
X0.081 Y-1.6879
X0.0766 Y-1.6884
X0.0722 Y-1.6886
X0.0693
X0.0428 Y-1.6874
X0.0396 Y-1.6871
X0.0364 Y-1.6864
X0.0276 Y-1.6842
X0.0262 Y-1.6838
X0.0019 Y-1.6764
X-0.0006 Y-1.6755
X-0.003 Y-1.6744
X-0.0355 Y-1.658
X-0.0388 Y-1.6561
X-0.0766 Y-1.6309
X-0.0784 Y-1.6296
X-0.1472 Y-1.5764
X-0.1484 Y-1.5755
X-0.2149 Y-1.5186
X-0.216 Y-1.5176
X-0.269 Y-1.4675
X-0.27 Y-1.4666
X-0.2876 Y-1.4485
X-0.2884 Y-1.4477
X-0.3061 Y-1.4283
X-0.3069 Y-1.4273
X-0.3196 Y-1.4122
X-0.3213 Y-1.41
X-0.3461 Y-1.3746
X-0.3469 Y-1.3733
X-0.3692 Y-1.3378
X-0.3698 Y-1.3369
X-0.3905 Y-1.3014
X-0.3912 Y-1.3001
X-0.4096 Y-1.2647
X-0.4102 Y-1.2636
X-0.4436 Y-1.1926
X-0.4438 Y-1.1922
X-0.4599 Y-1.1567
X-0.4602 Y-1.156
X-0.4709 Y-1.1307
X-0.4714 Y-1.1296
X-0.4953 Y-1.0662
X-0.4955 Y-1.0657
X-0.5082 Y-1.0302
X-0.5084 Y-1.0295
X-0.5143 Y-1.0118
X-0.5146 Y-1.0108
X-0.5198 Y-0.9931
X-0.5201 Y-0.992
X-0.5337 Y-0.9388
X-0.5339 Y-0.9376
X-0.5378 Y-0.9199
X-0.538 Y-0.9188
X-0.5436 Y-0.8874
X-0.5439 Y-0.8856
X-0.5486 Y-0.8461
X-0.5488 Y-0.8445
X-0.5512 Y-0.809
X-0.5513 Y-0.8064
X-0.5507 Y-0.7732
X-0.5505 Y-0.7698
X-0.5502 Y-0.7676
X-0.5497 Y-0.7643
X-0.5388 Y-0.7178
X-0.5381 Y-0.7154
X-0.5373 Y-0.713
X-0.5173 Y-0.6643
X-0.5154 Y-0.6604
X-0.4896 Y-0.6161
X-0.4882 Y-0.6138
X-0.4866 Y-0.6117
X-0.4565 Y-0.5757
X-0.4549 Y-0.5739
X-0.4532 Y-0.5723
X-0.4275 Y-0.5495
X-0.4269 Y-0.5489
X-0.4143 Y-0.5384
X-0.4717 Y-0.5488
X-0.5062 Y-0.5556
X-0.5222 Y-0.5594
X-0.5317 Y-0.5624
X-0.5458 Y-0.5699
X-0.5673 Y-0.5849
X-0.5845 Y-0.6027
X-0.6036 Y-0.6314
X-0.618 Y-0.6607
X-0.6256 Y-0.6773
X-0.646 Y-0.7294
X-0.6658 Y-0.7822
X-0.6782 Y-0.8165
X-0.6929 Y-0.8681
X-0.7058 Y-0.9206
X-0.7098 Y-0.9377
X-0.7169 Y-0.9718
X-0.7206 Y-0.9999
X-0.721 Y-1.0198
X-0.7208 Y-1.0362
X-0.7188 Y-1.0662
X-0.7125 Y-1.0942
X-0.6949 Y-1.1518
X-0.689 Y-1.1684
X-0.6795 Y-1.193
X-0.6666 Y-1.2174
X-0.6452 Y-1.2544
X-0.6254 Y-1.2867
X-0.6026 Y-1.3216
X-0.5668 Y-1.3745
X-0.5425 Y-1.4099
X-0.5411 Y-1.4119
X-0.54 Y-1.4141
X-0.5294 Y-1.4363
X-0.5279 Y-1.4402
X-0.5257 Y-1.4469
X-0.5249 Y-1.4499
X-0.5244 Y-1.4529
X-0.5222 Y-1.4729
X-0.522 Y-1.4759
X-0.5221 Y-1.479
X-0.5227 Y-1.4857
X-0.5232 Y-1.489
X-0.524 Y-1.4924
X-0.5261 Y-1.499
X-0.5275 Y-1.5027
X-0.5339 Y-1.5167
X-0.5352 Y-1.5192
X-0.5367 Y-1.5216
X-0.5403 Y-1.5267
X-0.5421 Y-1.5291
X-0.5442 Y-1.5312
X-0.5484 Y-1.5353
X-0.5504 Y-1.5371
X-0.5592 Y-1.5442
X-0.5613 Y-1.5458
X-0.5635 Y-1.5472
X-0.5682 Y-1.5498
X-0.5709 Y-1.5512
X-0.5736 Y-1.5522
X-0.5891 Y-1.5575
X-0.5922 Y-1.5583
X-0.5954 Y-1.5589
X-0.602 Y-1.5596
X-0.6051 Y-1.5599
X-0.6082 Y-1.5598
X-0.637 Y-1.5574
X-0.6399 Y-1.5571
X-0.6428 Y-1.5564
X-0.6494 Y-1.5546
X-0.652 Y-1.5537
X-0.6546 Y-1.5526
X-0.6752 Y-1.5427
X-0.6782 Y-1.5411
X-0.7063 Y-1.5236
X-0.7078 Y-1.5225
X-0.7307 Y-1.5063
X-0.7315 Y-1.5056
X-0.744 Y-1.4961
X-0.7449 Y-1.4955
X-0.764 Y-1.4798
X-0.7669 Y-1.4771
X-0.8008 Y-1.4413
X-0.803 Y-1.4387
X-0.8241 Y-1.4111
X-0.8245 Y-1.4105
X-0.8388 Y-1.3909
X-0.8398 Y-1.3894
X-0.8614 Y-1.3558
X-0.862 Y-1.3548
X-0.8758 Y-1.3316
X-0.8762 Y-1.3308
X-0.8939 Y-1.299
X-0.8944 Y-1.2981
X-0.9025 Y-1.2823
X-0.9029 Y-1.2815
X-0.9199 Y-1.246
X-0.9203 Y-1.245
X-0.9306 Y-1.2215
X-0.931 Y-1.2206
X-0.9487 Y-1.1761
X-0.9494 Y-1.1739
X-0.9657 Y-1.1222
X-0.9665 Y-1.1192
X-0.9767 Y-1.0704
X-0.9772 Y-1.0667
X-0.9813 Y-1.0179
X-0.9814 Y-1.0144
X-0.9805 Y-0.9833
Y-0.9823
X-0.9782 Y-0.9468
X-0.9781 Y-0.9453
X-0.9761 Y-0.9276
X-0.9759 Y-0.9258
X-0.9729 Y-0.9081
X-0.9727 Y-0.9069
X-0.9615 Y-0.8537
X-0.9613 Y-0.8529
X-0.9529 Y-0.8174
X-0.9527 Y-0.8164
X-0.9479 Y-0.7987
X-0.9473 Y-0.7969
X-0.9173 Y-0.7082
X-0.9172 Y-0.708
X-0.9048 Y-0.6725
X-0.9044 Y-0.6713
X-0.8905 Y-0.6359
X-0.8902 Y-0.6351
X-0.8423 Y-0.5224
X-0.8419 Y-0.5214
X-0.8283 Y-0.4923
X-0.8279 Y-0.4914
X-0.8012 Y-0.4382
X-0.8003 Y-0.4365
X-0.7795 Y-0.401
X-0.7777 Y-0.3982
X-0.7549 Y-0.3672
X-0.7523 Y-0.3641
X-0.7256 Y-0.3361
X-0.7238 Y-0.3344
X-0.7219 Y-0.3328
X-0.6948 Y-0.3122
X-0.6922 Y-0.3105
X-0.6895 Y-0.309
X-0.6877 Y-0.3082
X-0.747 Y-0.3
X-0.7476
X-0.7829 Y-0.2945
X-0.7843 Y-0.2942
X-0.8081 Y-0.2894
X-0.8101 Y-0.289
X-0.8162 Y-0.2873
X-0.8192 Y-0.2863
X-0.8424 Y-0.2775
X-0.844 Y-0.2768
X-0.8637 Y-0.2679
X-0.8647 Y-0.2674
X-0.9158 Y-0.2421
X-0.9163 Y-0.2419
X-0.936 Y-0.2317
X-0.9368 Y-0.2312
X-0.9702 Y-0.2126
X-0.9707 Y-0.2123
X-1.1122 Y-0.13
X-1.1133 Y-0.1294
X-1.131 Y-0.1181
X-1.1322 Y-0.1172
X-1.1676 Y-0.0922
X-1.1684 Y-0.0916
X-1.2214 Y-0.0515
X-1.222 Y-0.051
X-1.2443 Y-0.0333
X-1.2448 Y-0.033
X-1.2579 Y-0.0222
X-1.2597 Y-0.0205
X-1.2951 Y0.0137
X-1.2959 Y0.0146
X-1.3136 Y0.0331
X-1.3139 Y0.0334
X-1.3537 Y0.0763
X-1.354 Y0.0767
X-1.3858 Y0.1122
X-1.3866 Y0.1131
X-1.4035 Y0.1337
X-1.404 Y0.1342
X-1.4297 Y0.1669
X-1.431 Y0.1687
X-1.4584 Y0.2094
X-1.4591 Y0.2104
X-1.4668 Y0.223
X-1.4673 Y0.2238
X-1.4949 Y0.2719
X-1.4958 Y0.2735
X-1.5072 Y0.2964
X-1.5078 Y0.2976
X-1.5236 Y0.3331
X-1.524 Y0.3343
X-1.5381 Y0.3697
X-1.5386 Y0.3711
X-1.5516 Y0.4088
X-1.5524 Y0.4117
X-1.5562 Y0.4272
X-1.5563 Y0.428
X-1.5601 Y0.4457
X-1.5603 Y0.4468
X-1.5634 Y0.4646
X-1.5636 Y0.4659
X-1.5683 Y0.5014
Y0.5017
X-1.5726 Y0.5372
X-1.5727 Y0.5381
X-1.5742 Y0.5558
X-1.5743 Y0.5566
X-1.5777 Y0.6098
Y0.6103
X-1.5786 Y0.6281
Y0.6293
X-1.5788 Y0.6648
Y0.6663
X-1.5773 Y0.7018
Y0.7024
X-1.5751 Y0.7378
X-1.575 Y0.7393
X-1.5697 Y0.7883
X-1.5692 Y0.7914
X-1.5607 Y0.8311
X-1.5595 Y0.8351
X-1.5486 Y0.8658
X-1.547 Y0.8695
X-1.5446 Y0.8743
X-1.5433 Y0.8765
X-1.5419 Y0.8786
X-1.5284 Y0.897
X-1.5268 Y0.8989
X-1.5251 Y0.9008
X-1.5207 Y0.9051
X-1.5185 Y0.907
X-1.5162 Y0.9087
X-1.5118 Y0.9117
X-1.5091 Y0.9133
X-1.5063 Y0.9146
X-1.4996 Y0.9174
X-1.4969 Y0.9184
X-1.4941 Y0.9191
X-1.4676 Y0.9246
X-1.4649 Y0.925
X-1.4621 Y0.9252
X-1.4555 Y0.9254
X-1.4522 Y0.9253
X-1.449 Y0.9249
X-1.4313 Y0.9217
X-1.4282 Y0.921
X-1.4252 Y0.9199
X-1.4217 Y0.9185
X-1.4228 Y0.9266
X-1.423 Y0.9276
X-1.4269 Y0.963
X-1.427 Y0.964
X-1.4299 Y0.9995
Y1.0001
X-1.432 Y1.0356
X-1.4321 Y1.037
X-1.4325 Y1.0725
Y1.0733
X-1.4323 Y1.091
Y1.0922
X-1.4296 Y1.1454
Y1.1462
X-1.4242 Y1.2171
Y1.2177
X-1.4191 Y1.2709
X-1.419 Y1.2721
X-1.412 Y1.3253
X-1.4116 Y1.3277
X-1.403 Y1.3676
X-1.4022 Y1.3706
X-1.4011 Y1.3735
X-1.3912 Y1.3963
X-1.39 Y1.3988
X-1.3886 Y1.4011
X-1.3854 Y1.4059
X-1.3835 Y1.4084
X-1.3814 Y1.4108
X-1.3767 Y1.4155
X-1.3743 Y1.4176
X-1.3718 Y1.4195
X-1.3612 Y1.4264
X-1.3587 Y1.4279
X-1.356 Y1.4292
X-1.3494 Y1.4319
X-1.3469 Y1.4329
X-1.3444 Y1.4335
X-1.3311 Y1.4366
X-1.3281 Y1.4371
X-1.325 Y1.4374
X-1.3184 Y1.4375
X-1.3157
X-1.3131 Y1.4372
X-1.291 Y1.434
X-1.288 Y1.4335
X-1.2852 Y1.4326
X-1.2791 Y1.4305
X-1.2763 Y1.4294
X-1.2737 Y1.428
X-1.2689 Y1.4252
X-1.2663 Y1.4236
X-1.2639 Y1.4217
X-1.259 Y1.4173
X-1.2568 Y1.4153
X-1.2549 Y1.413
X-1.2409 Y1.395
X-1.2394 Y1.3928
X-1.238 Y1.3904
X-1.2349 Y1.3846
X-1.2333 Y1.3811
X-1.2272 Y1.3652
X-1.2263 Y1.3626
X-1.222 Y1.3475
X-1.2216 Y1.346
X-1.2175 Y1.3283
X-1.2172 Y1.327
X-1.2105 Y1.2915
X-1.2103 Y1.2903
X-1.205 Y1.2548
X-1.2049 Y1.2542
X-1.1915 Y1.1481
X-1.1863 Y1.1131
X-1.1807 Y1.0779
X-1.1805 Y1.0769
X-1.1714 Y1.0062
X-1.1639 Y0.9538
X-1.1576 Y0.9193
X-1.1467 Y0.8672
X-1.1371 Y0.8302
X-1.1276 Y0.7994
X-1.1007 Y0.73
X-1.0937 Y0.7136
X-1.0766 Y0.6793
X-1.0489 Y0.6267
X-1.0301 Y0.5927
X-0.9951 Y0.5405
X-0.9949 Y0.5401
X-0.9605 Y0.4872
X-0.9371 Y0.4524
X-0.9247 Y0.4352
X-0.912 Y0.4182
X-0.8779 Y0.3762
X-0.8546 Y0.3486
X-0.8268 Y0.3177
X-0.7861 Y0.281
X-0.7597 Y0.2602
X-0.7391 Y0.2462
X-0.7018 Y0.2278
X-0.6805 Y0.2208
X-0.6638 Y0.216
X-0.6297 Y0.2073
X-0.5898 Y0.1993
X-0.5616 Y0.1954
X-0.5607 Y0.1952
X-0.543 Y0.1922
X-0.5423 Y0.1921
X-0.5253 Y0.1888
X-0.4912 Y0.1838
X-0.4567 Y0.18
X-0.44 Y0.1786
X-0.3983 Y0.1763
X-0.408 Y0.1897
X-0.4093 Y0.1917
X-0.4104 Y0.1937
X-0.4301 Y0.2317
X-0.4314 Y0.2347
X-0.4325 Y0.2378
X-0.4434 Y0.2777
X-0.4441 Y0.2806
X-0.4444 Y0.2836
X-0.4477 Y0.328
X-0.4478 Y0.3315
X-0.4467 Y0.3603
X-0.4465 Y0.3625
X-0.4462 Y0.3648
X-0.4421 Y0.3869
X-0.4413 Y0.3902
X-0.4402 Y0.3934
X-0.4327 Y0.4112
X-0.4312 Y0.4142
X-0.4287 Y0.4187
X-0.4274 Y0.4209
X-0.4258 Y0.423
X-0.4135 Y0.4384
X-0.4119 Y0.4403
X-0.4101 Y0.442
X-0.4057 Y0.446
X-0.403 Y0.4482
X-0.387 Y0.4598
X-0.3847 Y0.4613
X-0.3821 Y0.4627
X-0.3765 Y0.4654
X-0.3737 Y0.4665
X-0.3709 Y0.4674
X-0.3652 Y0.4689
X-0.3624 Y0.4695
X-0.3594 Y0.4698
X-0.3535 Y0.4702
X-0.3508
X-0.3482 Y0.4701
X-0.3285 Y0.468
X-0.3254 Y0.4675
X-0.3224 Y0.4667
X-0.3167 Y0.465
X-0.3141 Y0.464
X-0.3116 Y0.4628
X-0.3072 Y0.4605
X-0.3071 Y0.4617
X-0.3065 Y0.4683
X-0.306 Y0.4716
X-0.3052 Y0.4749
X-0.3032 Y0.4813
X-0.3019 Y0.4846
X-0.3003 Y0.4877
X-0.2922 Y0.5015
X-0.2906 Y0.504
X-0.2876 Y0.5081
X-0.2858 Y0.5104
X-0.2838 Y0.5125
X-0.2711 Y0.5245
X-0.2692 Y0.5262
X-0.267 Y0.5278
X-0.2617 Y0.5314
X-0.2591 Y0.533
X-0.2563 Y0.5343
X-0.2509 Y0.5365
X-0.2484 Y0.5374
X-0.2459 Y0.5381
X-0.2281 Y0.5422
X-0.2256 Y0.5427
X-0.223 Y0.543
X-0.2186 Y0.5432
X-0.2162 Y0.5433
X-0.2137 Y0.5432
X-0.1739 Y0.5394
X-0.1711 Y0.539
X-0.1683 Y0.5384
X-0.164 Y0.5372
X-0.1609 Y0.5361
X-0.1408 Y0.528
X-0.1388 Y0.5271
X-0.1368 Y0.526
X-0.1149 Y0.5133
X-0.1123 Y0.5115
X-0.0877 Y0.4936
X-0.0858 Y0.4921
X-0.0702 Y0.4788
X-0.0672 Y0.4758
X-0.0474 Y0.4538
X-0.0468 Y0.453
X-0.0332 Y0.4368
X-0.032 Y0.4353
X-0.0235 Y0.4237
X-0.0213 Y0.4204
X-0.008 Y0.3965
X-0.0074 Y0.3953
X-0.0056 Y0.3916
X-0.0037 Y0.3952
X0.0071 Y0.4176
X0.0126 Y0.4297
X0.013 Y0.4306
X0.0214 Y0.4477
X0.0243 Y0.4541
X0.0301 Y0.4685
X0.0317 Y0.4717
X0.0429 Y0.4922
X0.047 Y0.5008
X0.0544 Y0.5175
X0.0755 Y0.5702
X0.0967 Y0.6234
X0.0969 Y0.6239
X0.1043 Y0.6416
X0.1046 Y0.6423
X0.1126 Y0.6604
X0.1206 Y0.6806
X0.1265 Y0.7092
X0.1285 Y0.7384
X0.1264 Y0.7644
X0.1224 Y0.7816
X0.1179 Y0.7983
X0.1117 Y0.8191
X0.1074 Y0.8319
X0.0745 Y0.9201
X0.0742 Y0.9208
X0.0648 Y0.9481
X0.0376 Y1.0065
X0.0374 Y1.0068
X0.0136 Y1.0594
X0.0051 Y1.0763
X-0.0315 Y1.146
X-0.097 Y1.2512
X-0.1198 Y1.2857
X-0.1304 Y1.3004
X-0.1644 Y1.3379
X-0.1988 Y1.3738
X-0.2156 Y1.3893
X-0.2676 Y1.4359
X-0.3195 Y1.4759
X-0.4076 Y1.5418
X-0.4843 Y1.5973
X-0.4851 Y1.598
X-0.5537 Y1.6512
X-0.5543 Y1.6517
X-0.5857 Y1.6773
X-0.5863 Y1.6779
X-0.604 Y1.6931
X-0.6052 Y1.6942
X-0.6229 Y1.711
X-0.6254 Y1.7138
X-0.6295 Y1.7187
X-0.6313 Y1.7212
X-0.6328 Y1.7237
X-0.6409 Y1.7386
X-0.6422 Y1.7413
X-0.6432 Y1.7441
X-0.6453 Y1.7508
X-0.6461 Y1.754
X-0.6465 Y1.7573
X-0.6482 Y1.775
X-0.6483 Y1.7784
X-0.648 Y1.7819
X-0.6472 Y1.7885
X-0.6467 Y1.7913
X-0.6459 Y1.794
X-0.6409 Y1.8095
X-0.6398 Y1.8125
X-0.6384 Y1.8153
X-0.6358 Y1.8201
X-0.6342 Y1.8225
X-0.6324 Y1.8249
X-0.6284 Y1.8297
X-0.6261 Y1.8321
X-0.6163 Y1.8415
X-0.6139 Y1.8436
X-0.6113 Y1.8454
X-0.6066 Y1.8484
X-0.6039 Y1.8499
X-0.6011 Y1.8512
X-0.5948 Y1.8536
X-0.5919 Y1.8545
X-0.5889 Y1.8552
X-0.5668 Y1.859
X-0.5643 Y1.8594
X-0.5618 Y1.8595
X-0.5552 Y1.8596
X-0.5522 Y1.8594
X-0.5491 Y1.859
X-0.5248 Y1.8545
X-0.5215 Y1.8537
X-0.5015 Y1.8476
X-0.5006 Y1.8473
X-0.4852 Y1.8422
X-0.4838 Y1.8417
X-0.4308 Y1.8209
X-0.4292 Y1.8203
X-0.3692 Y1.793
X-0.3684 Y1.7926
X-0.2958 Y1.7571
X-0.295 Y1.7567
X-0.2861 Y1.7521
X-0.2851 Y1.7515
X-0.2623 Y1.7384
X-0.2613 Y1.7378
X-0.2134 Y1.7079
X-0.2124 Y1.7073
X-0.1517 Y1.6663
X-0.151 Y1.6658
X-0.1234 Y1.6461
X-0.1223 Y1.6453
X-0.1168 Y1.641
X-0.1166 Y1.6434
X-0.1163 Y1.6457
X-0.1128 Y1.6657
X-0.1122 Y1.6687
X-0.1112 Y1.6716
X-0.1086 Y1.6782
X-0.1072 Y1.6815
X-0.1053 Y1.6846
X-0.0966 Y1.6974
X-0.0961 Y1.6981
X-0.0899 Y1.7067
X-0.0884 Y1.7086
X-0.0868 Y1.7104
X-0.0833 Y1.7139
X-0.0812 Y1.7158
X-0.079 Y1.7175
X-0.0741 Y1.721
X-0.0717 Y1.7225
X-0.0693 Y1.7238
X-0.0486 Y1.7335
X-0.0456 Y1.7347
X-0.0425 Y1.7356
X-0.0359 Y1.7372
X-0.0325 Y1.7377
X-0.0292 Y1.738
