(1002)
(T5  D=0.0625 CR=0 - ZMIN=-0.08 - flat end mill)
G90 G94
G17
G20
G28 G91 Z0
G90

(Pocket1 2)
T5
S1000 M3
G54
G0 X-0.0261 Y0.4728
Z0.3
Z-0.0106
G1 Y0.4725 Z-0.012 F20
Y0.4719 Z-0.0132
Y0.471 Z-0.0142
Y0.4697 Z-0.0148
Y0.4684 Z-0.015
X-0.027 Y0.3662
X-0.0269 Y0.3648
X-0.0264 Y0.3634
X-0.0168 Y0.3442
X-0.0132 Y0.3387
X-0.0119 Y0.3378
X-0.0011 Y0.3346
X0.005 Y0.345
X0.0147 Y0.3628
X0.0148 Y0.3636
X0.0146 Y0.3643
X0.014 Y0.3648
X0.0077 Y0.3671
X-0.028 Y0.392
X-0.0364 Y0.396
X-0.0374 Y0.3962
X-0.0383 Y0.3959
X-0.0391 Y0.3952
X-0.0394 Y0.3942
X-0.0393 Y0.3932
X-0.0386 Y0.3914 Z-0.0153
X-0.0379 Y0.3898 Z-0.0162
X-0.0374 Y0.3885 Z-0.0176
X-0.0371 Y0.3877 Z-0.0193
X-0.0369 Y0.3874 Z-0.0212
Z-0.0238
X-0.0368 Y0.3871 Z-0.0257
X-0.0365 Y0.3863 Z-0.0274
X-0.036 Y0.385 Z-0.0288
X-0.0353 Y0.3834 Z-0.0297
X-0.0346 Y0.3816 Z-0.03
G3 X-0.0264 Y0.3634 I0.2364 J0.0955
G1 X-0.0168 Y0.3442
X-0.0132 Y0.3387
X-0.0119 Y0.3378
X-0.0011 Y0.3346
X0.005 Y0.345
X0.0147 Y0.3628
X0.0148 Y0.3636
X0.0146 Y0.3643
X0.014 Y0.3648
X0.0077 Y0.3671
X-0.028 Y0.392
X-0.0364 Y0.396
X-0.0374 Y0.3962
X-0.0383 Y0.3959
X-0.0391 Y0.3952
X-0.0394 Y0.3942
X-0.0393 Y0.3932
X-0.0386 Y0.3914 Z-0.0303
X-0.0379 Y0.3898 Z-0.0312
X-0.0374 Y0.3885 Z-0.0326
X-0.0371 Y0.3877 Z-0.0343
X-0.0369 Y0.3874 Z-0.0363
Z-0.0388
X-0.0368 Y0.3871 Z-0.0407
X-0.0365 Y0.3863 Z-0.0424
X-0.036 Y0.385 Z-0.0438
X-0.0353 Y0.3834 Z-0.0447
X-0.0346 Y0.3816 Z-0.045
G3 X-0.0264 Y0.3634 I0.2364 J0.0955
G1 X-0.0168 Y0.3442
X-0.0132 Y0.3387
X-0.0119 Y0.3378
X-0.0011 Y0.3346
X0.005 Y0.345
X0.0147 Y0.3628
X0.0151 Y0.3643
X0.015 Y0.3657
X0.0144 Y0.3671
X0.0133 Y0.3681
X-0.0334 Y0.3981
X-0.0347 Y0.3986
X-0.0362 Y0.3987
X-0.0375 Y0.3982
X-0.0386 Y0.3973
X-0.0393 Y0.396
X-0.0396 Y0.3946
X-0.0393 Y0.3932
X-0.0386 Y0.3914 Z-0.0453
X-0.0379 Y0.3898 Z-0.0462
X-0.0374 Y0.3885 Z-0.0476
X-0.0371 Y0.3877 Z-0.0493
X-0.0369 Y0.3874 Z-0.0512
Z-0.0537
X-0.0368 Y0.3871 Z-0.0557
X-0.0365 Y0.3863 Z-0.0574
X-0.036 Y0.385 Z-0.0588
X-0.0353 Y0.3834 Z-0.0597
X-0.0346 Y0.3816 Z-0.06
G3 X-0.0264 Y0.3634 I0.2364 J0.0955
G1 X-0.0168 Y0.3442
X-0.0132 Y0.3387
X-0.0119 Y0.3378
X-0.0011 Y0.3346
X0.005 Y0.345
X0.0147 Y0.3628
X0.0148 Y0.3636
X0.0146 Y0.3643
X0.014 Y0.3648
X0.0077 Y0.3672
X-0.0282 Y0.3924
X-0.0365 Y0.3964
X-0.0375 Y0.3966
X-0.0385 Y0.3964
X-0.0393 Y0.3957
X-0.0396 Y0.3947
X-0.0395 Y0.3937
X-0.0388 Y0.3919 Z-0.0603
X-0.0381 Y0.3903 Z-0.0612
X-0.0376 Y0.389 Z-0.0626
X-0.0373 Y0.3882 Z-0.0643
X-0.0371 Y0.3879 Z-0.0662
Z-0.0688
X-0.037 Y0.3876 Z-0.0707
X-0.0367 Y0.3868 Z-0.0724
X-0.0362 Y0.3855 Z-0.0738
X-0.0355 Y0.3839 Z-0.0747
X-0.0348 Y0.3821 Z-0.075
G3 X-0.0264 Y0.3634 I0.2422 J0.0978
G1 X-0.0168 Y0.3442
X-0.0132 Y0.3387
X-0.0119 Y0.3378
X-0.0011 Y0.3346
X0.005 Y0.345
X0.0147 Y0.3628
G3 X0.0093 Y0.3721 I-0.0055 J0.003 F12
G1 X0.0083 Z-0.0752
X0.0075 Z-0.0757
X0.007 Z-0.0765
X0.0068 Z-0.0775
X0.0066 Z-0.0785
X0.006 Z-0.0793
X0.0052 Z-0.0798
X0.0043 Z-0.08
X-0.0207 Y0.3724
G3 X-0.0264 Y0.3634 I-0.0001 J-0.0062
G1 X-0.0168 Y0.3442 F20
X-0.0132 Y0.3387
X-0.0119 Y0.3378
X-0.0011 Y0.3346
X0.005 Y0.345
X0.0147 Y0.3628
X0.0151 Y0.3637
X0.0452 Y0.4492
X0.0458 Y0.451 Z-0.0797
X0.0464 Y0.4527 Z-0.0788
X0.0468 Y0.454 Z-0.0774
X0.0471 Y0.4548 Z-0.0757
X0.0472 Y0.4551 Z-0.0738
G0 Z0.1
X-0.379 Y0.4948
Z-0.0094
G1 X-0.3788 Y0.4946 Z-0.0111 F20
X-0.3782 Y0.494 Z-0.0127
X-0.3773 Y0.4931 Z-0.0139
X-0.3763 Y0.492 Z-0.0147
X-0.375 Y0.4908 Z-0.015
X-0.3127 Y0.4264
X-0.312 Y0.4258
X-0.3073 Y0.4222
X-0.3059 Y0.4211
X-0.3047 Y0.4197
X-0.2904 Y0.4024
X-0.2888 Y0.4002
X-0.2633 Y0.3553
X-0.2631 Y0.3549
X-0.2567 Y0.3429
X-0.2345 Y0.306
X-0.2342 Y0.3054
X-0.2338 Y0.3047
X-0.2231 Y0.3112
X-0.2225 Y0.3116
X-0.2051 Y0.3213
X-0.2483 Y0.3888
X-0.2487 Y0.3896
X-0.2627 Y0.4144
X-0.2631 Y0.4151
X-0.2693 Y0.4275
X-0.27 Y0.4293
X-0.2733 Y0.4386
X-0.2738 Y0.4403
X-0.2741 Y0.442
X-0.2746 Y0.4461
X-0.275 Y0.4475
X-0.2759 Y0.4486
X-0.2772 Y0.4494
X-0.2786 Y0.4496
X-0.3279 Y0.4484
X-0.3292 Y0.4482
X-0.3304 Y0.4475
X-0.3313 Y0.4464
X-0.3318 Y0.4451
Y0.4438
X-0.3313 Y0.4425
X-0.3305 Y0.4414
X-0.329 Y0.4401 Z-0.0153
X-0.3277 Y0.439 Z-0.0162
X-0.3267 Y0.4381 Z-0.0176
X-0.326 Y0.4375 Z-0.0193
X-0.3258 Y0.4373 Z-0.0212
Z-0.0238
X-0.3255 Y0.4371 Z-0.0257
X-0.3249 Y0.4365 Z-0.0274
X-0.3238 Y0.4356 Z-0.0288
X-0.3225 Y0.4344 Z-0.0297
X-0.3211 Y0.4332 Z-0.03
G3 X-0.312 Y0.4258 I0.0988 J0.1119
G1 X-0.3073 Y0.4222
X-0.3059 Y0.4211
X-0.3047 Y0.4197
X-0.2904 Y0.4024
X-0.2888 Y0.4002
X-0.2633 Y0.3553
X-0.2631 Y0.3549
X-0.2567 Y0.3429
X-0.2345 Y0.306
X-0.2342 Y0.3054
X-0.2338 Y0.3047
X-0.2231 Y0.3112
X-0.2225 Y0.3116
X-0.2051 Y0.3213
X-0.2483 Y0.3888
X-0.2487 Y0.3896
X-0.2627 Y0.4144
X-0.2631 Y0.4151
X-0.2693 Y0.4275
X-0.27 Y0.4293
X-0.2733 Y0.4386
X-0.2738 Y0.4403
X-0.2741 Y0.442
X-0.2746 Y0.4461
X-0.275 Y0.4475
X-0.2759 Y0.4486
X-0.2772 Y0.4494
X-0.2786 Y0.4496
X-0.3279 Y0.4484
X-0.3292 Y0.4482
X-0.3304 Y0.4475
X-0.3313 Y0.4464
X-0.3318 Y0.4451
Y0.4438
X-0.3313 Y0.4425
X-0.3305 Y0.4414
X-0.329 Y0.4401 Z-0.0303
X-0.3277 Y0.439 Z-0.0312
X-0.3267 Y0.4381 Z-0.0326
X-0.326 Y0.4375 Z-0.0343
X-0.3258 Y0.4373 Z-0.0363
Z-0.0388
X-0.3255 Y0.4371 Z-0.0407
X-0.3249 Y0.4365 Z-0.0424
X-0.3238 Y0.4356 Z-0.0438
X-0.3225 Y0.4344 Z-0.0447
X-0.3211 Y0.4332 Z-0.045
G3 X-0.312 Y0.4258 I0.0988 J0.1119
G1 X-0.3073 Y0.4222
X-0.3059 Y0.4211
X-0.3047 Y0.4197
X-0.2904 Y0.4024
X-0.2888 Y0.4002
X-0.2633 Y0.3553
X-0.2631 Y0.3549
X-0.2567 Y0.3429
X-0.2345 Y0.306
X-0.2342 Y0.3054
X-0.2338 Y0.3047
X-0.2231 Y0.3112
X-0.2225 Y0.3116
X-0.2051 Y0.3213
X-0.2483 Y0.3888
X-0.2487 Y0.3896
X-0.2627 Y0.4144
X-0.2631 Y0.4151
X-0.2693 Y0.4275
X-0.27 Y0.4293
X-0.2733 Y0.4386
X-0.2738 Y0.4403
X-0.2741 Y0.442
X-0.2746 Y0.4461
X-0.275 Y0.4475
X-0.2759 Y0.4486
X-0.2772 Y0.4494
X-0.2786 Y0.4496
X-0.3279 Y0.4484
X-0.3292 Y0.4482
X-0.3304 Y0.4475
X-0.3313 Y0.4464
X-0.3318 Y0.4451
Y0.4438
X-0.3313 Y0.4425
X-0.3305 Y0.4414
X-0.329 Y0.4401 Z-0.0453
X-0.3277 Y0.439 Z-0.0462
X-0.3267 Y0.4381 Z-0.0476
X-0.326 Y0.4375 Z-0.0493
X-0.3258 Y0.4373 Z-0.0512
Z-0.0537
X-0.3255 Y0.4371 Z-0.0557
X-0.3249 Y0.4365 Z-0.0574
X-0.3238 Y0.4356 Z-0.0588
X-0.3225 Y0.4344 Z-0.0597
X-0.3211 Y0.4332 Z-0.06
G3 X-0.312 Y0.4258 I0.0988 J0.1119
G1 X-0.3073 Y0.4222
X-0.3059 Y0.4211
X-0.3047 Y0.4197
X-0.2904 Y0.4024
X-0.2888 Y0.4002
X-0.2633 Y0.3553
X-0.2631 Y0.3549
X-0.2567 Y0.3429
X-0.2345 Y0.306
X-0.2342 Y0.3054
X-0.2338 Y0.3047
X-0.2231 Y0.3112
X-0.2225 Y0.3116
X-0.2051 Y0.3213
X-0.2483 Y0.3888
X-0.2487 Y0.3896
X-0.2627 Y0.4144
X-0.2631 Y0.4151
X-0.2693 Y0.4275
X-0.27 Y0.4293
X-0.2733 Y0.4386
X-0.2738 Y0.4403
X-0.2741 Y0.442
X-0.2746 Y0.4461
X-0.275 Y0.4475
X-0.2759 Y0.4486
X-0.2772 Y0.4494
X-0.2786 Y0.4496
X-0.3279 Y0.4484
X-0.3292 Y0.4482
X-0.3304 Y0.4475
X-0.3313 Y0.4464
X-0.3318 Y0.4451
Y0.4438
X-0.3313 Y0.4425
X-0.3305 Y0.4414
X-0.329 Y0.4401 Z-0.0603
X-0.3277 Y0.439 Z-0.0612
X-0.3267 Y0.4381 Z-0.0626
X-0.326 Y0.4375 Z-0.0643
X-0.3258 Y0.4373 Z-0.0662
Z-0.0688
X-0.3255 Y0.4371 Z-0.0707
X-0.3249 Y0.4365 Z-0.0724
X-0.3238 Y0.4356 Z-0.0738
X-0.3225 Y0.4344 Z-0.0747
X-0.3211 Y0.4332 Z-0.075
G3 X-0.312 Y0.4258 I0.0988 J0.1119
G1 X-0.3073 Y0.4222
X-0.3059 Y0.4211
X-0.3047 Y0.4197
X-0.2904 Y0.4024
X-0.2888 Y0.4002
X-0.2633 Y0.3553
X-0.2631 Y0.3549
X-0.2567 Y0.3429
X-0.2345 Y0.306
X-0.2342 Y0.3054
X-0.2338 Y0.3047
X-0.2231 Y0.3112
X-0.2225 Y0.3116
X-0.2051 Y0.3213
X-0.2483 Y0.3888
X-0.2487 Y0.3896
X-0.2627 Y0.4144
X-0.2631 Y0.4151
X-0.2693 Y0.4275
X-0.27 Y0.4293
X-0.2733 Y0.4386
X-0.2738 Y0.4403
X-0.2741 Y0.442
X-0.2746 Y0.4461
G3 X-0.2837 Y0.4509 I-0.0062 J-0.0007 F12
G1 X-0.2845 Y0.4504 Z-0.0752
X-0.2853 Y0.4501 Z-0.0757
X-0.2857 Y0.4498 Z-0.0765
X-0.2859 Y0.4497 Z-0.0775
X-0.2861 Y0.4496 Z-0.0785
X-0.2866 Y0.4494 Z-0.0793
X-0.2873 Y0.449 Z-0.0798
X-0.2881 Y0.4485 Z-0.08
X-0.3112 Y0.4363
G3 X-0.312 Y0.4258 I0.0029 J-0.0055
G1 X-0.3073 Y0.4222 F20
X-0.3059 Y0.4211
X-0.3047 Y0.4197
X-0.2904 Y0.4024
X-0.2888 Y0.4002
X-0.2633 Y0.3553
X-0.2631 Y0.3549
X-0.2567 Y0.3429
X-0.2345 Y0.306
X-0.2342 Y0.3054
X-0.2338 Y0.3047
X-0.2231 Y0.3112
X-0.2225 Y0.3116
X-0.2051 Y0.3213
X-0.2483 Y0.3888
X-0.2487 Y0.3896
X-0.2627 Y0.4144
X-0.2631 Y0.4151
X-0.2693 Y0.4275
X-0.27 Y0.4293
X-0.2733 Y0.4386
X-0.2738 Y0.4403
X-0.2741 Y0.442
X-0.2746 Y0.4461
X-0.2747 Y0.4471
X-0.2992 Y0.5343
X-0.2997 Y0.5362 Z-0.0797
X-0.3002 Y0.5378 Z-0.0788
X-0.3006 Y0.5392 Z-0.0774
X-0.3008 Y0.54 Z-0.0757
X-0.3009 Y0.5403 Z-0.0738
G0 Z0.1
X-0.4663 Y0.2101
Z-0.0113
G1 X-0.4661 Y0.2099 Z-0.0127 F20
X-0.4654 Y0.2094 Z-0.0139
X-0.4645 Y0.2086 Z-0.0147
X-0.4634 Y0.2077 Z-0.015
X-0.3865 Y0.1457
X-0.3848 Y0.1447
X-0.3829 Y0.1443
X-0.3658 Y0.1434
X-0.3433 Y0.1428
X-0.3412 Y0.1515
X-0.3421 Y0.153
X-0.3635 Y0.1817
X-0.3646 Y0.1827
X-0.366 Y0.1832
X-0.3675
X-0.3688 Y0.1827
X-0.4134 Y0.1547
X-0.4145 Y0.1538
X-0.4151 Y0.1526
X-0.4153 Y0.1512
X-0.415 Y0.1498
X-0.4143 Y0.1487
X-0.4132 Y0.1478
X-0.4118 Y0.1474
X-0.4099 Y0.1471 Z-0.0153
X-0.4082 Y0.1469 Z-0.0162
X-0.4068 Y0.1467 Z-0.0176
X-0.4059 Y0.1466 Z-0.0193
X-0.4056 Z-0.0212
Z-0.0238
X-0.4053 Y0.1465 Z-0.0257
X-0.4044 Y0.1464 Z-0.0274
X-0.4031 Y0.1463 Z-0.0288
X-0.4013 Y0.146 Z-0.0297
X-0.3994 Y0.1458 Z-0.03
G3 X-0.3829 Y0.1443 I0.0273 J0.2097
G1 X-0.3658 Y0.1434
X-0.3433 Y0.1428
X-0.3412 Y0.1515
X-0.3421 Y0.153
X-0.3635 Y0.1817
X-0.3646 Y0.1827
X-0.366 Y0.1832
X-0.3675
X-0.3688 Y0.1827
X-0.4134 Y0.1547
X-0.4145 Y0.1538
X-0.4151 Y0.1526
X-0.4153 Y0.1512
X-0.415 Y0.1498
X-0.4143 Y0.1487
X-0.4132 Y0.1478
X-0.4118 Y0.1474
X-0.4099 Y0.1471 Z-0.0303
X-0.4082 Y0.1469 Z-0.0312
X-0.4068 Y0.1467 Z-0.0326
X-0.4059 Y0.1466 Z-0.0343
X-0.4056 Z-0.0363
Z-0.0388
X-0.4053 Y0.1465 Z-0.0407
X-0.4044 Y0.1464 Z-0.0424
X-0.4031 Y0.1463 Z-0.0438
X-0.4013 Y0.146 Z-0.0447
X-0.3994 Y0.1458 Z-0.045
G3 X-0.3829 Y0.1443 I0.0273 J0.2097
G1 X-0.3658 Y0.1434
X-0.3433 Y0.1428
X-0.3412 Y0.1515
X-0.3421 Y0.153
X-0.3635 Y0.1817
X-0.3641 Y0.1822
X-0.3649
X-0.3656 Y0.1819
X-0.3705 Y0.1771
X-0.4058 Y0.1565
X-0.4128 Y0.151
X-0.4134 Y0.1503
X-0.4136 Y0.1493
X-0.4133 Y0.1484
X-0.4127 Y0.1477
X-0.4118 Y0.1474
X-0.4099 Y0.1471 Z-0.0453
X-0.4082 Y0.1469 Z-0.0462
X-0.4068 Y0.1467 Z-0.0476
X-0.4059 Y0.1466 Z-0.0493
X-0.4056 Z-0.0512
Z-0.0537
X-0.4053 Y0.1465 Z-0.0557
X-0.4044 Y0.1464 Z-0.0574
X-0.4031 Y0.1463 Z-0.0588
X-0.4013 Y0.146 Z-0.0597
X-0.3994 Y0.1458 Z-0.06
G3 X-0.3829 Y0.1443 I0.0273 J0.2097
G1 X-0.3658 Y0.1434
X-0.3433 Y0.1428
X-0.3412 Y0.1515
X-0.3421 Y0.153
X-0.3635 Y0.1817
X-0.3641 Y0.1822
X-0.3649
X-0.3656 Y0.1819
X-0.3705 Y0.1771
X-0.4058 Y0.1565
X-0.4128 Y0.151
X-0.4134 Y0.1503
X-0.4136 Y0.1493
X-0.4133 Y0.1484
X-0.4127 Y0.1477
X-0.4118 Y0.1474
X-0.4099 Y0.1471 Z-0.0603
X-0.4082 Y0.1469 Z-0.0612
X-0.4068 Y0.1467 Z-0.0626
X-0.4059 Y0.1466 Z-0.0643
X-0.4056 Z-0.0662
Z-0.0688
X-0.4053 Y0.1465 Z-0.0707
X-0.4044 Y0.1464 Z-0.0724
X-0.4031 Y0.1463 Z-0.0738
X-0.4013 Y0.146 Z-0.0747
X-0.3994 Y0.1458 Z-0.075
G3 X-0.3829 Y0.1443 I0.0273 J0.2097
G1 X-0.3658 Y0.1434
X-0.3433 Y0.1428
X-0.3412 Y0.1515
X-0.3421 Y0.153
X-0.3635 Y0.1817
G3 X-0.3741 Y0.1808 I-0.005 J-0.0037 F12
G1 X-0.3745 Y0.18 Z-0.0752
X-0.3749 Y0.1792 Z-0.0757
X-0.3751 Y0.1788 Z-0.0765
X-0.3752 Y0.1786 Z-0.0775
X-0.3753 Y0.1784 Z-0.0785
X-0.3756 Y0.1779 Z-0.0793
X-0.3759 Y0.1772 Z-0.0798
X-0.3764 Y0.1764 Z-0.08
X-0.3881 Y0.1534
G3 X-0.3829 Y0.1443 I0.0056 J-0.0028
G1 X-0.3658 Y0.1434 F20
X-0.3433 Y0.1428
X-0.3412 Y0.1515
X-0.3421 Y0.153
X-0.3635 Y0.1817
X-0.3642 Y0.1824
X-0.429 Y0.2457
X-0.4304 Y0.2471 Z-0.0797
X-0.4317 Y0.2483 Z-0.0788
X-0.4327 Y0.2492 Z-0.0774
X-0.4333 Y0.2499 Z-0.0757
X-0.4335 Y0.2501 Z-0.0738
G0 Z0.1
X-0.9319 Y0.0344
Z0.0596
G1 Z0.0594 F2
Z-0.0137 F20
Y0.0342 Z-0.0144
X-0.932 Y0.0338 Z-0.0148
X-0.9322 Y0.0332 Z-0.015
X-0.9323 Y0.0312
X-0.9317 Y0.0293
X-0.9307 Y0.0277
X-0.9291 Y0.0265
X-0.8805 Y-0.0012
X-0.8615 Y-0.0116
X-0.8348 Y-0.0233
X-0.8067 Y-0.0317
X-0.761 Y-0.0404
X-0.7243 Y-0.047
X-0.7127 Y-0.0485
X-0.6761 Y-0.0509
X-0.6285 Y-0.0528
X-0.6708 Y-0.043
X-0.6726 Y-0.0425
X-0.7568 Y-0.0115
X-0.7581 Y-0.011
X-0.7954 Y0.0066
X-0.7967 Y0.0073
X-0.8479 Y0.0375
X-0.8493 Y0.0385
X-0.8641 Y0.0496
X-0.8645 Y0.0498
X-0.8854 Y0.0665
X-0.8858 Y0.0668
X-0.8947 Y0.0744
X-0.8955 Y0.0748
X-0.8964
X-0.8972 Y0.0743
X-0.9029 Y0.0681
X-0.9427 Y0.0486
X-0.9502 Y0.0451
X-0.9509 Y0.0446
X-0.9512 Y0.0438
X-0.9511 Y0.0429
X-0.9506 Y0.0422
X-0.9491 Y0.041 Z-0.0153
X-0.9477 Y0.0399 Z-0.0162
X-0.9467 Y0.0391 Z-0.0176
X-0.946 Y0.0385 Z-0.0193
X-0.9457 Y0.0383 Z-0.0212
Z-0.0238
X-0.9455 Y0.0381 Z-0.0257
X-0.9448 Y0.0376 Z-0.0274
X-0.9437 Y0.0367 Z-0.0288
X-0.9424 Y0.0356 Z-0.0297
X-0.9409 Y0.0344 Z-0.03
G3 X-0.9291 Y0.0265 I0.0564 J0.0705
G1 X-0.8805 Y-0.0012
X-0.8615 Y-0.0116
X-0.8348 Y-0.0233
X-0.8067 Y-0.0317
X-0.761 Y-0.0404
X-0.7243 Y-0.047
X-0.7127 Y-0.0485
X-0.6761 Y-0.0509
X-0.6285 Y-0.0528
X-0.6708 Y-0.043
X-0.6726 Y-0.0425
X-0.7568 Y-0.0115
X-0.7581 Y-0.011
X-0.7954 Y0.0066
X-0.7967 Y0.0073
X-0.8479 Y0.0375
X-0.8493 Y0.0385
X-0.8641 Y0.0496
X-0.8645 Y0.0498
X-0.8854 Y0.0665
X-0.8858 Y0.0668
X-0.8947 Y0.0744
X-0.8955 Y0.0748
X-0.8964
X-0.8972 Y0.0743
X-0.9029 Y0.0681
X-0.9427 Y0.0486
X-0.9502 Y0.0451
X-0.9509 Y0.0446
X-0.9512 Y0.0438
X-0.9511 Y0.0429
X-0.9506 Y0.0422
X-0.9491 Y0.041 Z-0.0303
X-0.9477 Y0.0399 Z-0.0312
X-0.9467 Y0.0391 Z-0.0326
X-0.946 Y0.0385 Z-0.0343
X-0.9457 Y0.0383 Z-0.0363
Z-0.0388
X-0.9455 Y0.0381 Z-0.0407
X-0.9448 Y0.0376 Z-0.0424
X-0.9437 Y0.0367 Z-0.0438
X-0.9424 Y0.0356 Z-0.0447
X-0.9409 Y0.0344 Z-0.045
G3 X-0.9291 Y0.0265 I0.0564 J0.0705
G1 X-0.8805 Y-0.0012
X-0.8615 Y-0.0116
X-0.8348 Y-0.0233
X-0.8067 Y-0.0317
X-0.761 Y-0.0404
X-0.7243 Y-0.047
X-0.7127 Y-0.0485
X-0.6761 Y-0.0509
X-0.6285 Y-0.0528
X-0.6708 Y-0.043
X-0.6726 Y-0.0425
X-0.7568 Y-0.0115
X-0.7581 Y-0.011
X-0.7954 Y0.0066
X-0.7967 Y0.0073
X-0.8479 Y0.0375
X-0.8493 Y0.0385
X-0.8641 Y0.0496
X-0.8645 Y0.0498
X-0.8854 Y0.0665
X-0.8858 Y0.0668
X-0.8947 Y0.0744
X-0.8955 Y0.0748
X-0.8964
X-0.8972 Y0.0743
X-0.9029 Y0.0681
X-0.9427 Y0.0486
X-0.9502 Y0.0451
X-0.9509 Y0.0446
X-0.9512 Y0.0438
X-0.9511 Y0.0429
X-0.9506 Y0.0422
X-0.9491 Y0.041 Z-0.0453
X-0.9477 Y0.0399 Z-0.0462
X-0.9467 Y0.0391 Z-0.0476
X-0.946 Y0.0385 Z-0.0493
X-0.9457 Y0.0383 Z-0.0512
Z-0.0537
X-0.9455 Y0.0381 Z-0.0557
X-0.9448 Y0.0376 Z-0.0574
X-0.9437 Y0.0367 Z-0.0588
X-0.9424 Y0.0356 Z-0.0597
X-0.9409 Y0.0344 Z-0.06
G3 X-0.9291 Y0.0265 I0.0564 J0.0705
G1 X-0.8805 Y-0.0012
X-0.8615 Y-0.0116
X-0.8348 Y-0.0233
X-0.8067 Y-0.0317
X-0.761 Y-0.0404
X-0.7243 Y-0.047
X-0.7127 Y-0.0485
X-0.6761 Y-0.0509
X-0.6285 Y-0.0528
X-0.6708 Y-0.043
X-0.6726 Y-0.0425
X-0.7568 Y-0.0115
X-0.7581 Y-0.011
X-0.7954 Y0.0066
X-0.7967 Y0.0073
X-0.8479 Y0.0375
X-0.8493 Y0.0385
X-0.8641 Y0.0496
X-0.8645 Y0.0498
X-0.8854 Y0.0665
X-0.8858 Y0.0668
X-0.8947 Y0.0744
X-0.8955 Y0.0748
X-0.8964
X-0.8972 Y0.0743
X-0.9029 Y0.0681
X-0.9427 Y0.0486
X-0.9502 Y0.0451
X-0.9509 Y0.0446
X-0.9512 Y0.0438
X-0.9511 Y0.0429
X-0.9506 Y0.0422
X-0.9491 Y0.041 Z-0.0603
X-0.9477 Y0.0399 Z-0.0612
X-0.9467 Y0.0391 Z-0.0626
X-0.946 Y0.0385 Z-0.0643
X-0.9457 Y0.0383 Z-0.0662
Z-0.0688
X-0.9455 Y0.0381 Z-0.0707
X-0.9448 Y0.0376 Z-0.0724
X-0.9437 Y0.0367 Z-0.0738
X-0.9424 Y0.0356 Z-0.0747
X-0.9409 Y0.0344 Z-0.075
G3 X-0.9291 Y0.0265 I0.0564 J0.0705
G1 X-0.8805 Y-0.0012
X-0.8615 Y-0.0116
X-0.8348 Y-0.0233
X-0.8067 Y-0.0317
X-0.761 Y-0.0404
X-0.7243 Y-0.047
X-0.7127 Y-0.0485
X-0.6761 Y-0.0509
X-0.6285 Y-0.0528
X-0.6708 Y-0.043
X-0.6726 Y-0.0425
X-0.7568 Y-0.0115
X-0.7581 Y-0.011
X-0.7954 Y0.0066
X-0.7967 Y0.0073
X-0.8479 Y0.0375
X-0.8493 Y0.0385
X-0.8641 Y0.0496
X-0.8645 Y0.0498
X-0.8854 Y0.0665
X-0.8858 Y0.0668
X-0.8947 Y0.0744
X-0.8962 Y0.0754 F12
X-0.8978 Y0.0759
X-0.8995
X-0.9012 Y0.0755
X-0.9027 Y0.0746
X-0.9038 Y0.0733
X-0.9044 Y0.0726 Z-0.0752
X-0.9049 Y0.0719 Z-0.0757
X-0.9052 Y0.0715 Z-0.0765
X-0.9053 Y0.0713 Z-0.0775
X-0.9054 Y0.0712 Z-0.0785
X-0.9057 Y0.0707 Z-0.0793
X-0.9062 Y0.0701 Z-0.0798
X-0.9068 Y0.0693 Z-0.08
X-0.9311 Y0.0355
X-0.9319 Y0.034
X-0.9323 Y0.0323
X-0.9321 Y0.0306
X-0.9315 Y0.0289
X-0.9305 Y0.0275
X-0.9291 Y0.0265
X-0.8805 Y-0.0012 F20
X-0.8615 Y-0.0116
X-0.8348 Y-0.0233
X-0.8067 Y-0.0317
X-0.761 Y-0.0404
X-0.7243 Y-0.047
X-0.7127 Y-0.0485
X-0.6761 Y-0.0509
X-0.6285 Y-0.0528
X-0.6708 Y-0.043
X-0.6726 Y-0.0425
X-0.7568 Y-0.0115
X-0.7581 Y-0.011
X-0.7954 Y0.0066
X-0.7967 Y0.0073
X-0.8479 Y0.0375
X-0.8493 Y0.0385
X-0.8641 Y0.0496
X-0.8645 Y0.0498
X-0.8854 Y0.0665
X-0.8858 Y0.0668
X-0.8947 Y0.0744
X-0.8955 Y0.075
X-0.9727 Y0.1224
X-0.9744 Y0.1234 Z-0.0797
X-0.9759 Y0.1244 Z-0.0788
X-0.977 Y0.1251 Z-0.0774
X-0.9778 Y0.1255 Z-0.0757
X-0.9781 Y0.1257 Z-0.0738
G0 Z0.1
X-0.7733 Y-0.3446
Z-0.01
G1 X-0.773 Z-0.0115 F20
X-0.7723 Y-0.3445 Z-0.0129
X-0.7712 Y-0.3444 Z-0.014
X-0.7698 Y-0.3442 Z-0.0148
X-0.7683 Y-0.344 Z-0.015
X-0.6614 Y-0.3297
X-0.6595 Y-0.3292
X-0.6351 Y-0.3175
X-0.6324 Y-0.3165
X-0.6064 Y-0.3096
X-0.6054 Y-0.3094
X-0.5561 Y-0.2997
X-0.5192 Y-0.2907
X-0.5189
X-0.4462 Y-0.2742
X-0.5021 Y-0.2775
X-0.5023
X-0.5644 Y-0.2804
X-0.5647
X-0.602 Y-0.2814
X-0.6024
X-0.6397 Y-0.2813
X-0.641 Y-0.2812
X-0.6682 Y-0.2789
X-0.6695 Y-0.279
X-0.6707 Y-0.2795
X-0.6716 Y-0.2803
X-0.6723 Y-0.2814
X-0.6936 Y-0.3359
X-0.6939 Y-0.3374
X-0.6935 Y-0.3389
X-0.6927 Y-0.3402
X-0.6914 Y-0.3411
X-0.6899 Y-0.3414
X-0.6884 Y-0.3411
X-0.6866 Y-0.3404 Z-0.0153
X-0.685 Y-0.3398 Z-0.0162
X-0.6837 Y-0.3393 Z-0.0176
X-0.6829 Y-0.339 Z-0.0193
X-0.6826 Y-0.3389 Z-0.0212
Z-0.0238
X-0.6823 Y-0.3388 Z-0.0257
X-0.6815 Y-0.3384 Z-0.0274
X-0.6802 Y-0.3379 Z-0.0288
X-0.6786 Y-0.3373 Z-0.0297
X-0.6767 Y-0.3366 Z-0.03
G3 X-0.6595 Y-0.3292 I-0.0861 J0.2234
G1 X-0.6351 Y-0.3175
X-0.6324 Y-0.3165
X-0.6064 Y-0.3096
X-0.6054 Y-0.3094
X-0.5561 Y-0.2997
X-0.5192 Y-0.2907
X-0.5189
X-0.4462 Y-0.2742
X-0.5021 Y-0.2775
X-0.5023
X-0.5644 Y-0.2804
X-0.5647
X-0.602 Y-0.2814
X-0.6024
X-0.6397 Y-0.2813
X-0.641 Y-0.2812
X-0.6682 Y-0.2789
X-0.6695 Y-0.279
X-0.6707 Y-0.2795
X-0.6716 Y-0.2803
X-0.6723 Y-0.2814
X-0.6936 Y-0.3359
X-0.6939 Y-0.3374
X-0.6935 Y-0.3389
X-0.6927 Y-0.3402
X-0.6914 Y-0.3411
X-0.6899 Y-0.3414
X-0.6884 Y-0.3411
X-0.6866 Y-0.3404 Z-0.0303
X-0.685 Y-0.3398 Z-0.0312
X-0.6837 Y-0.3393 Z-0.0326
X-0.6829 Y-0.339 Z-0.0343
X-0.6826 Y-0.3389 Z-0.0363
Z-0.0388
X-0.6823 Y-0.3388 Z-0.0407
X-0.6815 Y-0.3384 Z-0.0424
X-0.6802 Y-0.3379 Z-0.0438
X-0.6786 Y-0.3373 Z-0.0447
X-0.6767 Y-0.3366 Z-0.045
G3 X-0.6595 Y-0.3292 I-0.0861 J0.2234
G1 X-0.6351 Y-0.3175
X-0.6324 Y-0.3165
X-0.6064 Y-0.3096
X-0.6054 Y-0.3094
X-0.5561 Y-0.2997
X-0.5192 Y-0.2907
X-0.5189
X-0.4462 Y-0.2742
X-0.5021 Y-0.2775
X-0.5023
X-0.5644 Y-0.2804
X-0.5647
X-0.602 Y-0.2814
X-0.6024
X-0.6397 Y-0.2813
X-0.641 Y-0.2812
X-0.6682 Y-0.2789
X-0.6695 Y-0.279
X-0.6707 Y-0.2795
X-0.6716 Y-0.2803
X-0.6723 Y-0.2814
X-0.6936 Y-0.3359
X-0.6939 Y-0.3374
X-0.6935 Y-0.3389
X-0.6927 Y-0.3402
X-0.6914 Y-0.3411
X-0.6899 Y-0.3414
X-0.6884 Y-0.3411
X-0.6866 Y-0.3404 Z-0.0453
X-0.685 Y-0.3398 Z-0.0462
X-0.6837 Y-0.3393 Z-0.0476
X-0.6829 Y-0.339 Z-0.0493
X-0.6826 Y-0.3389 Z-0.0512
Z-0.0537
X-0.6823 Y-0.3388 Z-0.0557
X-0.6815 Y-0.3384 Z-0.0574
X-0.6802 Y-0.3379 Z-0.0588
X-0.6786 Y-0.3373 Z-0.0597
X-0.6767 Y-0.3366 Z-0.06
G3 X-0.6595 Y-0.3292 I-0.0861 J0.2234
G1 X-0.6351 Y-0.3175
X-0.6324 Y-0.3165
X-0.6064 Y-0.3096
X-0.6054 Y-0.3094
X-0.5561 Y-0.2997
X-0.5192 Y-0.2907
X-0.5189
X-0.4462 Y-0.2742
X-0.5021 Y-0.2775
X-0.5023
X-0.5644 Y-0.2804
X-0.5647
X-0.602 Y-0.2814
X-0.6024
X-0.6397 Y-0.2813
X-0.641 Y-0.2812
X-0.6682 Y-0.2789
X-0.6695 Y-0.279
X-0.6707 Y-0.2795
X-0.6716 Y-0.2803
X-0.6723 Y-0.2814
X-0.6936 Y-0.3359
X-0.6939 Y-0.3374
X-0.6935 Y-0.3389
X-0.6927 Y-0.3402
X-0.6914 Y-0.3411
X-0.6899 Y-0.3414
X-0.6884 Y-0.3411
X-0.6866 Y-0.3404 Z-0.0603
X-0.685 Y-0.3398 Z-0.0612
X-0.6837 Y-0.3393 Z-0.0626
X-0.6829 Y-0.339 Z-0.0643
X-0.6826 Y-0.3389 Z-0.0662
Z-0.0688
X-0.6823 Y-0.3388 Z-0.0707
X-0.6815 Y-0.3384 Z-0.0724
X-0.6802 Y-0.3379 Z-0.0738
X-0.6786 Y-0.3373 Z-0.0747
X-0.6767 Y-0.3366 Z-0.075
G3 X-0.6595 Y-0.3292 I-0.0861 J0.2234
G1 X-0.6351 Y-0.3175
X-0.6324 Y-0.3165
X-0.6064 Y-0.3096
X-0.6054 Y-0.3094
X-0.5561 Y-0.2997
X-0.5192 Y-0.2907
X-0.5189
X-0.4462 Y-0.2742
X-0.5021 Y-0.2775
X-0.5023
X-0.5644 Y-0.2804
X-0.5647
X-0.602 Y-0.2814
X-0.6024
X-0.6397 Y-0.2813
X-0.641 Y-0.2812
X-0.6682 Y-0.2789
G3 X-0.6749 Y-0.2861 I-0.0005 J-0.0062 F12
G1 X-0.6748 Y-0.2871 Z-0.0752
X-0.6746 Y-0.2879 Z-0.0757
X-0.6745 Y-0.2884 Z-0.0765
Y-0.2886 Z-0.0775
Y-0.2888 Z-0.0785
X-0.6744 Y-0.2893 Z-0.0793
X-0.6743 Y-0.2901 Z-0.0798
X-0.6741 Y-0.2911 Z-0.08
X-0.6687 Y-0.3247
G3 X-0.6598 Y-0.3293 I0.0062 J0.001
G1 X-0.6351 Y-0.3175 F20
X-0.6324 Y-0.3165
X-0.6064 Y-0.3096
X-0.6054 Y-0.3094
X-0.5561 Y-0.2997
X-0.5192 Y-0.2907
X-0.5189
X-0.4462 Y-0.2742
X-0.5021 Y-0.2775
X-0.5023
X-0.5644 Y-0.2804
X-0.5647
X-0.602 Y-0.2814
X-0.6024
X-0.6397 Y-0.2813
X-0.641 Y-0.2812
X-0.6682 Y-0.2789
X-0.6692
X-0.7596 Y-0.2854
X-0.7615 Y-0.2855 Z-0.0797
X-0.7632 Y-0.2857 Z-0.0788
X-0.7646 Y-0.2858 Z-0.0774
X-0.7655 Z-0.0757
X-0.7658 Y-0.2859 Z-0.0738
G0 Z0.1
X-0.3895 Y-0.5515
Z0.0596
G1 Z0.0594 F2
Z-0.0137 F20
X-0.3893 Y-0.5516 Z-0.0144
X-0.389 Y-0.5518 Z-0.0148
X-0.3884 Y-0.5521 Z-0.015
X-0.3866 Y-0.5529
X-0.3847 Y-0.5531
X-0.3828 Y-0.5527
X-0.3811 Y-0.5517
X-0.3764 Y-0.5478
X-0.3761 Y-0.5476
X-0.3637 Y-0.5378
X-0.3631 Y-0.5373
X-0.3235 Y-0.5089
X-0.2923 Y-0.4843
X-0.2844 Y-0.4781
X-0.2874 Y-0.479
X-0.2883 Y-0.4792
X-0.3628 Y-0.4969
X-0.3631
X-0.3755 Y-0.4996
X-0.376 Y-0.4997
X-0.4034 Y-0.5047
X-0.4042 Y-0.5051
X-0.4047 Y-0.5058
Y-0.5066
X-0.4031 Y-0.5142
X-0.4075 Y-0.5586
X-0.4077 Y-0.5674
X-0.4075 Y-0.5684
X-0.4067 Y-0.5692
X-0.4057 Y-0.5694
X-0.4047 Y-0.5691
X-0.4032 Y-0.568 Z-0.0153
X-0.4017 Y-0.567 Z-0.0162
X-0.4006 Y-0.5662 Z-0.0176
X-0.3999 Y-0.5657 Z-0.0193
X-0.3996 Y-0.5655 Z-0.0212
Z-0.0238
X-0.3994 Y-0.5653 Z-0.0257
X-0.3986 Y-0.5648 Z-0.0274
X-0.3975 Y-0.564 Z-0.0288
X-0.3961 Y-0.563 Z-0.0297
X-0.3945 Y-0.5619 Z-0.03
G3 X-0.3811 Y-0.5517 I-0.1231 J0.1757
G1 X-0.3764 Y-0.5478
X-0.3761 Y-0.5476
X-0.3637 Y-0.5378
X-0.3631 Y-0.5373
X-0.3235 Y-0.5089
X-0.2923 Y-0.4843
X-0.2844 Y-0.4781
X-0.2874 Y-0.479
X-0.2883 Y-0.4792
X-0.3628 Y-0.4969
X-0.3631
X-0.3755 Y-0.4996
X-0.376 Y-0.4997
X-0.4034 Y-0.5047
X-0.4042 Y-0.5051
X-0.4047 Y-0.5058
Y-0.5066
X-0.4031 Y-0.5142
X-0.4075 Y-0.5586
X-0.4077 Y-0.5674
X-0.4075 Y-0.5684
X-0.4067 Y-0.5692
X-0.4057 Y-0.5694
X-0.4047 Y-0.5691
X-0.4032 Y-0.568 Z-0.0303
X-0.4017 Y-0.567 Z-0.0312
X-0.4006 Y-0.5662 Z-0.0326
X-0.3999 Y-0.5657 Z-0.0343
X-0.3996 Y-0.5655 Z-0.0363
Z-0.0388
X-0.3994 Y-0.5653 Z-0.0407
X-0.3986 Y-0.5648 Z-0.0424
X-0.3975 Y-0.564 Z-0.0438
X-0.3961 Y-0.563 Z-0.0447
X-0.3945 Y-0.5619 Z-0.045
G3 X-0.3811 Y-0.5517 I-0.1231 J0.1757
G1 X-0.3764 Y-0.5478
X-0.3761 Y-0.5476
X-0.3637 Y-0.5378
X-0.3631 Y-0.5373
X-0.3235 Y-0.5089
X-0.2923 Y-0.4843
X-0.2844 Y-0.4781
X-0.2874 Y-0.479
X-0.2883 Y-0.4792
X-0.3628 Y-0.4969
X-0.3631
X-0.3755 Y-0.4996
X-0.376 Y-0.4997
X-0.4034 Y-0.5047
X-0.4042 Y-0.5051
X-0.4047 Y-0.5058
Y-0.5066
X-0.4031 Y-0.5142
X-0.4075 Y-0.5586
X-0.4077 Y-0.5674
X-0.4075 Y-0.5684
X-0.4067 Y-0.5692
X-0.4057 Y-0.5694
X-0.4047 Y-0.5691
X-0.4032 Y-0.568 Z-0.0453
X-0.4017 Y-0.567 Z-0.0462
X-0.4006 Y-0.5662 Z-0.0476
X-0.3999 Y-0.5657 Z-0.0493
X-0.3996 Y-0.5655 Z-0.0512
Z-0.0537
X-0.3994 Y-0.5653 Z-0.0557
X-0.3986 Y-0.5648 Z-0.0574
X-0.3975 Y-0.564 Z-0.0588
X-0.3961 Y-0.563 Z-0.0597
X-0.3945 Y-0.5619 Z-0.06
G3 X-0.3811 Y-0.5517 I-0.1231 J0.1757
G1 X-0.3764 Y-0.5478
X-0.3761 Y-0.5476
X-0.3637 Y-0.5378
X-0.3631 Y-0.5373
X-0.3235 Y-0.5089
X-0.2923 Y-0.4843
X-0.2844 Y-0.4781
X-0.2874 Y-0.479
X-0.2883 Y-0.4792
X-0.3628 Y-0.4969
X-0.3631
X-0.3755 Y-0.4996
X-0.376 Y-0.4997
X-0.4034 Y-0.5047
X-0.4042 Y-0.5051
X-0.4047 Y-0.5058
Y-0.5066
X-0.4031 Y-0.5142
X-0.4075 Y-0.5586
X-0.4077 Y-0.5674
X-0.4075 Y-0.5684
X-0.4067 Y-0.5692
X-0.4057 Y-0.5694
X-0.4047 Y-0.5691
X-0.4032 Y-0.568 Z-0.0603
X-0.4017 Y-0.567 Z-0.0612
X-0.4006 Y-0.5662 Z-0.0626
X-0.3999 Y-0.5657 Z-0.0643
X-0.3996 Y-0.5655 Z-0.0662
Z-0.0688
X-0.3994 Y-0.5653 Z-0.0707
X-0.3986 Y-0.5648 Z-0.0724
X-0.3975 Y-0.564 Z-0.0738
X-0.3961 Y-0.563 Z-0.0747
X-0.3945 Y-0.5619 Z-0.075
G3 X-0.3811 Y-0.5517 I-0.1231 J0.1757
G1 X-0.3764 Y-0.5478
X-0.3761 Y-0.5476
X-0.3637 Y-0.5378
X-0.3631 Y-0.5373
X-0.3235 Y-0.5089
X-0.2923 Y-0.4843
X-0.2844 Y-0.4781
X-0.2874 Y-0.479
X-0.2883 Y-0.4792
X-0.3628 Y-0.4969
X-0.3631
X-0.3755 Y-0.4996
X-0.376 Y-0.4997
X-0.4034 Y-0.5047
G3 X-0.408 Y-0.5135 I0.0011 J-0.0061 F12
G1 X-0.4075 Y-0.5144 Z-0.0752
X-0.4072 Y-0.5151 Z-0.0757
X-0.407 Y-0.5156 Z-0.0765
X-0.4069 Y-0.5158 Z-0.0775
X-0.4068 Y-0.516 Z-0.0785
X-0.4066 Y-0.5165 Z-0.0793
X-0.4062 Y-0.5172 Z-0.0798
X-0.4058 Y-0.518 Z-0.08
X-0.3907 Y-0.5496
G3 X-0.3811 Y-0.5517 I0.0056 J0.0027
G1 X-0.3764 Y-0.5478 F20
X-0.3761 Y-0.5476
X-0.3637 Y-0.5378
X-0.3631 Y-0.5373
X-0.3235 Y-0.5089
X-0.2923 Y-0.4843
X-0.2844 Y-0.4781
X-0.2874 Y-0.479
X-0.2883 Y-0.4792
X-0.3628 Y-0.4969
X-0.3631
X-0.3755 Y-0.4996
X-0.376 Y-0.4997
X-0.4034 Y-0.5047
X-0.4044 Y-0.5049
X-0.4899 Y-0.5349
X-0.4917 Y-0.5355 Z-0.0797
X-0.4934 Y-0.5361 Z-0.0788
X-0.4947 Y-0.5366 Z-0.0774
X-0.4955 Y-0.5369 Z-0.0757
X-0.4958 Y-0.537 Z-0.0738
G0 Z0.1
X-0.178 Y-0.8103
Z-0.0113
G1 Y-0.81 Z-0.0127 F20
X-0.1779 Y-0.8092 Z-0.0139
Y-0.808 Z-0.0147
X-0.1778 Y-0.8066 Z-0.015
X-0.171 Y-0.7099
X-0.1712 Y-0.7079
X-0.172 Y-0.7061
X-0.1797 Y-0.6937
X-0.1925 Y-0.7011
X-0.1932 Y-0.7018
X-0.1933 Y-0.7027
X-0.193 Y-0.7036
X-0.1878 Y-0.7096
X-0.1732 Y-0.7373
X-0.1726 Y-0.738
X-0.172 Y-0.7386
X-0.155 Y-0.7485
X-0.1538 Y-0.7489
X-0.1524 Y-0.7487
X-0.1513 Y-0.748
X-0.1505 Y-0.7469
X-0.1503 Y-0.7456
X-0.1507 Y-0.7443
X-0.1516 Y-0.7426 Z-0.0153
X-0.1524 Y-0.7411 Z-0.0162
X-0.153 Y-0.7398 Z-0.0176
X-0.1534 Y-0.739 Z-0.0193
X-0.1536 Y-0.7388 Z-0.0212
Z-0.0238
X-0.1537 Y-0.7385 Z-0.0257
X-0.1541 Y-0.7377 Z-0.0274
X-0.1548 Y-0.7365 Z-0.0288
X-0.1556 Y-0.7349 Z-0.0297
X-0.1565 Y-0.7332 Z-0.03
G3 X-0.172 Y-0.7061 I-0.3529 J-0.1839
G1 X-0.1797 Y-0.6937
X-0.1925 Y-0.7011
X-0.1932 Y-0.7018
X-0.1933 Y-0.7027
X-0.193 Y-0.7036
X-0.1878 Y-0.7096
X-0.1732 Y-0.7373
X-0.1726 Y-0.738
X-0.172 Y-0.7386
X-0.155 Y-0.7485
X-0.1538 Y-0.7489
X-0.1524 Y-0.7487
X-0.1513 Y-0.748
X-0.1505 Y-0.7469
X-0.1503 Y-0.7456
X-0.1507 Y-0.7443
X-0.1516 Y-0.7426 Z-0.0303
X-0.1524 Y-0.7411 Z-0.0312
X-0.153 Y-0.7398 Z-0.0326
X-0.1534 Y-0.739 Z-0.0343
X-0.1536 Y-0.7388 Z-0.0363
Z-0.0388
X-0.1537 Y-0.7385 Z-0.0407
X-0.1541 Y-0.7377 Z-0.0424
X-0.1548 Y-0.7365 Z-0.0438
X-0.1556 Y-0.7349 Z-0.0447
X-0.1565 Y-0.7332 Z-0.045
G3 X-0.172 Y-0.7061 I-0.3529 J-0.1839
G1 X-0.1797 Y-0.6937
X-0.1925 Y-0.7011
X-0.1932 Y-0.7018
X-0.1933 Y-0.7027
X-0.193 Y-0.7036
X-0.1878 Y-0.7096
X-0.1732 Y-0.7373
X-0.1726 Y-0.738
X-0.172 Y-0.7386
X-0.155 Y-0.7485
X-0.1538 Y-0.7489
X-0.1524 Y-0.7487
X-0.1513 Y-0.748
X-0.1505 Y-0.7469
X-0.1503 Y-0.7456
X-0.1507 Y-0.7443
X-0.1516 Y-0.7426 Z-0.0453
X-0.1524 Y-0.7411 Z-0.0462
X-0.153 Y-0.7398 Z-0.0476
X-0.1534 Y-0.739 Z-0.0493
X-0.1536 Y-0.7388 Z-0.0512
Z-0.0537
X-0.1537 Y-0.7385 Z-0.0557
X-0.1541 Y-0.7377 Z-0.0574
X-0.1548 Y-0.7365 Z-0.0588
X-0.1556 Y-0.7349 Z-0.0597
X-0.1565 Y-0.7332 Z-0.06
G3 X-0.172 Y-0.7061 I-0.3529 J-0.1839
G1 X-0.1797 Y-0.6937
X-0.1925 Y-0.7011
X-0.1932 Y-0.7018
X-0.1933 Y-0.7027
X-0.193 Y-0.7036
X-0.1878 Y-0.7096
X-0.1732 Y-0.7373
X-0.1726 Y-0.738
X-0.172 Y-0.7386
X-0.155 Y-0.7485
X-0.1538 Y-0.7489
X-0.1524 Y-0.7487
X-0.1513 Y-0.748
X-0.1505 Y-0.7469
X-0.1503 Y-0.7456
X-0.1507 Y-0.7443
X-0.1516 Y-0.7426 Z-0.0603
X-0.1524 Y-0.7411 Z-0.0612
X-0.153 Y-0.7398 Z-0.0626
X-0.1534 Y-0.739 Z-0.0643
X-0.1536 Y-0.7388 Z-0.0662
Z-0.0688
X-0.1537 Y-0.7385 Z-0.0707
X-0.1541 Y-0.7377 Z-0.0724
X-0.1548 Y-0.7365 Z-0.0738
X-0.1556 Y-0.7349 Z-0.0747
X-0.1565 Y-0.7332 Z-0.075
G3 X-0.172 Y-0.7061 I-0.3529 J-0.1839
G1 X-0.1797 Y-0.6937
X-0.1925 Y-0.7011
G3 X-0.1909 Y-0.7126 I0.0031 J-0.0054 F12
G1 X-0.1899 Y-0.7128 Z-0.0752
X-0.1891 Y-0.713 Z-0.0757
X-0.1886 Y-0.7132 Z-0.0765
X-0.1884 Z-0.0775
X-0.1883 Z-0.0785
X-0.1877 Y-0.7134 Z-0.0793
X-0.1869 Y-0.7136 Z-0.0798
X-0.186 Y-0.7138 Z-0.08
X-0.1787 Y-0.7155
G3 X-0.172 Y-0.7061 I0.0014 J0.0061
G1 X-0.1797 Y-0.6937 F20
X-0.1925 Y-0.7011
X-0.1934 Y-0.7017
X-0.2639 Y-0.7586
X-0.2654 Y-0.7598 Z-0.0797
X-0.2667 Y-0.7609 Z-0.0788
X-0.2678 Y-0.7618 Z-0.0774
X-0.2685 Y-0.7623 Z-0.0757
X-0.2687 Y-0.7625 Z-0.0738
G0 Z0.1
X0.7209 Y-0.1715
Z0.0597
G1 Z0.0594 F2
Z-0.0087 F20
X0.7206 Y-0.1716 Z-0.0107
X0.7198 Y-0.172 Z-0.0124
X0.7186 Y-0.1726 Z-0.0138
X0.717 Y-0.1733 Z-0.0147
X0.7153 Y-0.1742 Z-0.015
G3 X0.6877 Y-0.1889 I0.1731 J-0.3584
G1 X0.685 Y-0.1904
X0.6708 Y-0.1993
X0.6726 Y-0.2018
X0.6731 Y-0.2025
X0.6797 Y-0.2126
X0.6806 Y-0.2137
X0.6818 Y-0.2143
X0.6832 Y-0.2145
X0.6845 Y-0.2142
X0.6857 Y-0.2134
X0.7236 Y-0.1792
X0.7245 Y-0.1781
X0.7249 Y-0.1767
X0.7248 Y-0.1753
X0.7243 Y-0.174
X0.7233 Y-0.173
X0.722 Y-0.1724
X0.7206 Y-0.1723
X0.7192 Y-0.1726
X0.7175 Y-0.1735 Z-0.0153
X0.7159 Y-0.1742 Z-0.0162
X0.7147 Y-0.1748 Z-0.0176
X0.7139 Y-0.1752 Z-0.0193
X0.7136 Y-0.1754 Z-0.0212
Z-0.0238
X0.7133 Y-0.1755 Z-0.0257
X0.7125 Y-0.1759 Z-0.0274
X0.7113 Y-0.1765 Z-0.0288
X0.7097 Y-0.1772 Z-0.0297
X0.708 Y-0.1781 Z-0.03
G3 X0.6877 Y-0.1889 I0.1271 J-0.2632
G1 X0.685 Y-0.1904
X0.6708 Y-0.1993
X0.6726 Y-0.2018
X0.6731 Y-0.2025
X0.6797 Y-0.2126
X0.6804 Y-0.2133
X0.6813 Y-0.2134
X0.6822 Y-0.213
X0.6882 Y-0.2075
X0.7126 Y-0.1937
X0.7132 Y-0.1933
X0.7137 Y-0.1926
X0.7232 Y-0.1771
X0.7237 Y-0.1758
X0.7236 Y-0.1745
X0.7229 Y-0.1734
X0.7218 Y-0.1726
X0.7205 Y-0.1723
X0.7192 Y-0.1726
X0.7175 Y-0.1735 Z-0.0303
X0.7159 Y-0.1742 Z-0.0312
X0.7147 Y-0.1748 Z-0.0326
X0.7139 Y-0.1752 Z-0.0343
X0.7136 Y-0.1754 Z-0.0363
Z-0.0388
X0.7133 Y-0.1755 Z-0.0407
X0.7125 Y-0.1759 Z-0.0424
X0.7113 Y-0.1765 Z-0.0438
X0.7097 Y-0.1772 Z-0.0447
X0.708 Y-0.1781 Z-0.045
G3 X0.6877 Y-0.1889 I0.1271 J-0.2632
G1 X0.685 Y-0.1904
X0.6708 Y-0.1993
X0.6726 Y-0.2018
X0.6731 Y-0.2025
X0.6797 Y-0.2126
X0.6806 Y-0.2137
X0.6818 Y-0.2143
X0.6832 Y-0.2145
X0.6845 Y-0.2142
X0.6857 Y-0.2134
X0.7236 Y-0.1792
X0.7245 Y-0.1781
X0.7249 Y-0.1767
X0.7248 Y-0.1753
X0.7243 Y-0.174
X0.7233 Y-0.173
X0.722 Y-0.1724
X0.7206 Y-0.1723
X0.7192 Y-0.1726
X0.7175 Y-0.1735 Z-0.0453
X0.7159 Y-0.1742 Z-0.0462
X0.7147 Y-0.1748 Z-0.0476
X0.7139 Y-0.1752 Z-0.0493
X0.7136 Y-0.1754 Z-0.0512
Z-0.0537
X0.7133 Y-0.1755 Z-0.0557
X0.7125 Y-0.1759 Z-0.0574
X0.7113 Y-0.1765 Z-0.0588
X0.7097 Y-0.1772 Z-0.0597
X0.708 Y-0.1781 Z-0.06
G3 X0.6877 Y-0.1889 I0.1271 J-0.2632
G1 X0.685 Y-0.1904
X0.6708 Y-0.1993
X0.6726 Y-0.2018
X0.6731 Y-0.2025
X0.6797 Y-0.2126
X0.6804 Y-0.2133
X0.6813 Y-0.2134
X0.6822 Y-0.213
X0.6882 Y-0.2075
X0.7128 Y-0.1937
X0.7134 Y-0.1932
X0.7139 Y-0.1926
X0.7235 Y-0.177
X0.7239 Y-0.1757
X0.7238 Y-0.1744
X0.7231 Y-0.1732
X0.722 Y-0.1725
X0.7207 Y-0.1722
X0.7194 Y-0.1725
X0.7177 Y-0.1734 Z-0.0603
X0.7161 Y-0.1741 Z-0.0612
X0.7149 Y-0.1747 Z-0.0626
X0.7141 Y-0.1751 Z-0.0643
X0.7138 Y-0.1752 Z-0.0662
Z-0.0688
X0.7135 Y-0.1754 Z-0.0707
X0.7127 Y-0.1758 Z-0.0724
X0.7115 Y-0.1764 Z-0.0738
X0.7099 Y-0.1771 Z-0.0747
X0.7082 Y-0.178 Z-0.075
G3 X0.6877 Y-0.1889 I0.1284 J-0.266
G1 X0.685 Y-0.1904
X0.6708 Y-0.1993
X0.6726 Y-0.2018
X0.6731 Y-0.2025
X0.6797 Y-0.2126
X0.6804 Y-0.2133
X0.6814 Y-0.2134
X0.6822 Y-0.213
X0.6882 Y-0.2074
X0.7111 Y-0.194
X0.7117 Y-0.1936
X0.7122 Y-0.193
X0.7214 Y-0.1779
X0.7219 Y-0.1767
X0.7217 Y-0.1754
X0.7211 Y-0.1742
X0.72 Y-0.1734
X0.7187 Y-0.1732
X0.7174 Y-0.1735
X0.7157 Y-0.1743 Z-0.0753
X0.7141 Y-0.1751 Z-0.0762
X0.7129 Y-0.1757 Z-0.0775
X0.7117 Y-0.1763 Z-0.0788
X0.7101 Y-0.177 Z-0.0797
X0.7084 Y-0.1779 Z-0.08
G3 X0.6877 Y-0.1889 I0.1298 J-0.2688
G1 X0.685 Y-0.1904
X0.6708 Y-0.1993
X0.6726 Y-0.2018
X0.6731 Y-0.2025
X0.6797 Y-0.2126
X0.6803 Y-0.2134
X0.7408 Y-0.2808
X0.7421 Y-0.2823 Z-0.0797
X0.7433 Y-0.2836 Z-0.0788
X0.7442 Y-0.2846 Z-0.0774
X0.7448 Y-0.2853 Z-0.0757
X0.745 Y-0.2855 Z-0.0738
G0 Z0.1
X0.6203 Y0.0967
Z0.0596
G1 Z0.0594 F2
Z-0.0131 F20
X0.6201 Z-0.0141
X0.6194 Y0.0969 Z-0.0147
X0.6185 Y0.0971 Z-0.015
X0.6168 Y0.0973
X0.6151 Y0.0969
X0.6136 Y0.0962
X0.6123 Y0.095
X0.602 Y0.0827
X0.5864 Y0.0644
X0.586 Y0.064
X0.5394 Y0.0128
X0.5391 Y0.0123
X0.5173 Y-0.01
X0.5581 Y0.0106
X0.616 Y0.0389
X0.6163 Y0.039
X0.6434 Y0.0517
X0.6441 Y0.0522
X0.6444 Y0.053
X0.6442 Y0.0538
X0.6413 Y0.0609
X0.6398 Y0.1095
X0.6387 Y0.1185
X0.6383 Y0.1195
X0.6374 Y0.1202
X0.6363
X0.6353 Y0.1197
X0.634 Y0.1183 Z-0.0153
X0.6328 Y0.117 Z-0.0162
X0.6318 Y0.1161 Z-0.0176
X0.6312 Y0.1154 Z-0.0193
X0.631 Y0.1152 Z-0.0212
Z-0.0238
X0.6307 Y0.115 Z-0.0257
X0.6301 Y0.1144 Z-0.0274
X0.6292 Y0.1134 Z-0.0288
X0.6279 Y0.1121 Z-0.0297
X0.6266 Y0.1108 Z-0.03
G3 X0.6123 Y0.095 I0.1928 J-0.1897
G1 X0.602 Y0.0827
X0.5864 Y0.0644
X0.586 Y0.064
X0.5394 Y0.0128
X0.5391 Y0.0123
X0.5173 Y-0.01
X0.5581 Y0.0106
X0.616 Y0.0389
X0.6163 Y0.039
X0.6434 Y0.0517
X0.6441 Y0.0522
X0.6444 Y0.053
X0.6442 Y0.0538
X0.6413 Y0.0609
X0.6398 Y0.1095
X0.6387 Y0.1185
X0.6383 Y0.1195
X0.6374 Y0.1202
X0.6363
X0.6353 Y0.1197
X0.634 Y0.1183 Z-0.0303
X0.6328 Y0.117 Z-0.0312
X0.6318 Y0.1161 Z-0.0326
X0.6312 Y0.1154 Z-0.0343
X0.631 Y0.1152 Z-0.0363
Z-0.0388
X0.6307 Y0.115 Z-0.0407
X0.6301 Y0.1144 Z-0.0424
X0.6292 Y0.1134 Z-0.0438
X0.6279 Y0.1121 Z-0.0447
X0.6266 Y0.1108 Z-0.045
G3 X0.6123 Y0.095 I0.1928 J-0.1897
G1 X0.602 Y0.0827
X0.5864 Y0.0644
X0.586 Y0.064
X0.5394 Y0.0128
X0.5391 Y0.0123
X0.5173 Y-0.01
X0.5581 Y0.0106
X0.616 Y0.0389
X0.6163 Y0.039
X0.6434 Y0.0517
X0.6441 Y0.0522
X0.6444 Y0.053
X0.6442 Y0.0538
X0.6413 Y0.0609
X0.6398 Y0.1095
X0.6387 Y0.1185
X0.6383 Y0.1195
X0.6374 Y0.1202
X0.6363
X0.6353 Y0.1197
X0.634 Y0.1183 Z-0.0453
X0.6328 Y0.117 Z-0.0462
X0.6318 Y0.1161 Z-0.0476
X0.6312 Y0.1154 Z-0.0493
X0.631 Y0.1152 Z-0.0512
Z-0.0537
X0.6307 Y0.115 Z-0.0557
X0.6301 Y0.1144 Z-0.0574
X0.6292 Y0.1134 Z-0.0588
X0.6279 Y0.1121 Z-0.0597
X0.6266 Y0.1108 Z-0.06
G3 X0.6123 Y0.095 I0.1928 J-0.1897
G1 X0.602 Y0.0827
X0.5864 Y0.0644
X0.586 Y0.064
X0.5394 Y0.0128
X0.5391 Y0.0123
X0.5173 Y-0.01
X0.5581 Y0.0106
X0.616 Y0.0389
X0.6163 Y0.039
X0.6434 Y0.0517
X0.6441 Y0.0522
X0.6444 Y0.053
X0.6442 Y0.0538
X0.6413 Y0.0609
X0.6398 Y0.1095
X0.6387 Y0.1185
X0.6383 Y0.1195
X0.6374 Y0.1202
X0.6363
X0.6353 Y0.1197
X0.634 Y0.1183 Z-0.0603
X0.6328 Y0.117 Z-0.0612
X0.6318 Y0.1161 Z-0.0626
X0.6312 Y0.1154 Z-0.0643
X0.631 Y0.1152 Z-0.0662
Z-0.0688
X0.6307 Y0.115 Z-0.0707
X0.6301 Y0.1144 Z-0.0724
X0.6292 Y0.1134 Z-0.0738
X0.6279 Y0.1121 Z-0.0747
X0.6266 Y0.1108 Z-0.075
G3 X0.6123 Y0.095 I0.1928 J-0.1897
G1 X0.602 Y0.0827
X0.5864 Y0.0644
X0.586 Y0.064
X0.5394 Y0.0128
X0.5391 Y0.0123
X0.5173 Y-0.01
X0.5581 Y0.0106
X0.616 Y0.0389
X0.6163 Y0.039
X0.6434 Y0.0517
X0.645 Y0.0527 F12
X0.6461 Y0.0541
X0.6468 Y0.0557
X0.6471 Y0.0575
X0.6467 Y0.0593
X0.6459 Y0.0609
X0.6454 Y0.0617 Z-0.0752
X0.6449 Y0.0624 Z-0.0757
X0.6446 Y0.0628 Z-0.0765
X0.6445 Y0.063 Z-0.0775
X0.6444 Y0.0631 Z-0.0785
X0.6441 Y0.0636 Z-0.0793
X0.6436 Y0.0642 Z-0.0798
X0.643 Y0.065 Z-0.08
X0.6222 Y0.0946
G3 X0.6123 Y0.095 I-0.0051 J-0.0036
G1 X0.602 Y0.0827 F20
X0.5864 Y0.0644
X0.586 Y0.064
X0.5394 Y0.0128
X0.5391 Y0.0123
X0.5173 Y-0.01
X0.5581 Y0.0106
X0.616 Y0.0389
X0.6163 Y0.039
X0.6434 Y0.0517
X0.6443 Y0.0522
X0.7194 Y0.1029
X0.721 Y0.104 Z-0.0797
X0.7224 Y0.1049 Z-0.0788
X0.7236 Y0.1057 Z-0.0774
X0.7243 Y0.1062 Z-0.0757
X0.7246 Y0.1064 Z-0.0738
G0 Z0.1
X0.6511 Y0.5078
Z-0.0106
G1 X0.6509 Y0.5076 Z-0.012 F20
X0.6504 Y0.5073 Z-0.0132
X0.6496 Y0.5067 Z-0.0142
X0.6486 Y0.506 Z-0.0148
X0.6475 Y0.5052 Z-0.015
X0.5573 Y0.4411
X0.5562 Y0.4401
X0.5554 Y0.4389
X0.5542 Y0.4365
X0.554 Y0.4363
X0.522 Y0.3774
X0.5219 Y0.3771
X0.5042 Y0.3459
X0.5038 Y0.3452
X0.4914 Y0.3256
X0.491 Y0.325
X0.4746 Y0.3014
X0.4743 Y0.301
X0.4057 Y0.2097
X0.4184 Y0.2221
X0.4304 Y0.2342
X0.4791 Y0.2874
X0.5327 Y0.3457
X0.5329 Y0.346
X0.557 Y0.3709
X0.5576 Y0.3714
X0.5818 Y0.3941
X0.5831 Y0.3952
X0.5957 Y0.4047
X0.5962 Y0.4054
X0.5963 Y0.4062
X0.5959 Y0.407
X0.5912 Y0.4131
X0.577 Y0.4554
X0.5737 Y0.4636
X0.5731 Y0.4644
X0.5721 Y0.4648
X0.5711 Y0.4646
X0.5703 Y0.4639
X0.5693 Y0.4623 Z-0.0153
X0.5684 Y0.4608 Z-0.0162
X0.5676 Y0.4596 Z-0.0176
X0.5672 Y0.4589 Z-0.0193
X0.567 Y0.4586 Z-0.0212
Z-0.0238
X0.5668 Y0.4583 Z-0.0257
X0.5664 Y0.4576 Z-0.0274
X0.5656 Y0.4564 Z-0.0288
X0.5647 Y0.4549 Z-0.0297
X0.5637 Y0.4533 Z-0.03
G3 X0.5554 Y0.4389 I0.1791 J-0.1123
G1 X0.5542 Y0.4365
X0.554 Y0.4363
X0.522 Y0.3774
X0.5219 Y0.3771
X0.5042 Y0.3459
X0.5038 Y0.3452
X0.4914 Y0.3256
X0.491 Y0.325
X0.4746 Y0.3014
X0.4743 Y0.301
X0.4057 Y0.2097
X0.4184 Y0.2221
X0.4304 Y0.2342
X0.4791 Y0.2874
X0.5327 Y0.3457
X0.5329 Y0.346
X0.557 Y0.3709
X0.5576 Y0.3714
X0.5818 Y0.3941
X0.5831 Y0.3952
X0.5959 Y0.4049
X0.5964 Y0.4056
X0.5965 Y0.4065
X0.5962 Y0.4072
X0.5914 Y0.4134
X0.577 Y0.4554
X0.5737 Y0.4636
X0.5731 Y0.4644
X0.5721 Y0.4648
X0.5711 Y0.4646
X0.5703 Y0.4639
X0.5693 Y0.4623 Z-0.0303
X0.5684 Y0.4608 Z-0.0312
X0.5676 Y0.4596 Z-0.0326
X0.5672 Y0.4589 Z-0.0343
X0.567 Y0.4586 Z-0.0363
Z-0.0388
X0.5668 Y0.4583 Z-0.0407
X0.5664 Y0.4576 Z-0.0424
X0.5656 Y0.4564 Z-0.0438
X0.5647 Y0.4549 Z-0.0447
X0.5637 Y0.4533 Z-0.045
G3 X0.5554 Y0.4389 I0.1791 J-0.1123
G1 X0.5542 Y0.4365
X0.554 Y0.4363
X0.522 Y0.3774
X0.5219 Y0.3771
X0.5042 Y0.3459
X0.5038 Y0.3452
X0.4914 Y0.3256
X0.491 Y0.325
X0.4746 Y0.3014
X0.4743 Y0.301
X0.4057 Y0.2097
X0.4184 Y0.2221
X0.4304 Y0.2342
X0.4791 Y0.2874
X0.5327 Y0.3457
X0.5329 Y0.346
X0.557 Y0.3709
X0.5576 Y0.3714
X0.5818 Y0.3941
X0.5831 Y0.3952
X0.5959 Y0.4049
X0.5964 Y0.4056
X0.5965 Y0.4065
X0.5962 Y0.4072
X0.5914 Y0.4134
X0.577 Y0.4554
X0.5737 Y0.4636
X0.5731 Y0.4644
X0.5721 Y0.4648
X0.5711 Y0.4646
X0.5703 Y0.4639
X0.5693 Y0.4623 Z-0.0453
X0.5684 Y0.4608 Z-0.0462
X0.5676 Y0.4596 Z-0.0476
X0.5672 Y0.4589 Z-0.0493
X0.567 Y0.4586 Z-0.0512
Z-0.0537
X0.5668 Y0.4583 Z-0.0557
X0.5664 Y0.4576 Z-0.0574
X0.5656 Y0.4564 Z-0.0588
X0.5647 Y0.4549 Z-0.0597
X0.5637 Y0.4533 Z-0.06
G3 X0.5554 Y0.4389 I0.1791 J-0.1123
G1 X0.5542 Y0.4365
X0.554 Y0.4363
X0.522 Y0.3774
X0.5219 Y0.3771
X0.5042 Y0.3459
X0.5038 Y0.3452
X0.4914 Y0.3256
X0.491 Y0.325
X0.4746 Y0.3014
X0.4743 Y0.301
X0.4057 Y0.2097
X0.4184 Y0.2221
X0.4304 Y0.2342
X0.4791 Y0.2874
X0.5327 Y0.3457
X0.5329 Y0.346
X0.557 Y0.3709
X0.5576 Y0.3714
X0.5818 Y0.3941
X0.5831 Y0.3952
X0.5959 Y0.4049
X0.5964 Y0.4056
X0.5965 Y0.4065
X0.5962 Y0.4072
X0.5914 Y0.4134
X0.577 Y0.4554
X0.5737 Y0.4636
X0.5731 Y0.4644
X0.5721 Y0.4648
X0.5711 Y0.4646
X0.5703 Y0.4639
X0.5693 Y0.4623 Z-0.0603
X0.5684 Y0.4608 Z-0.0612
X0.5676 Y0.4596 Z-0.0626
X0.5672 Y0.4589 Z-0.0643
X0.567 Y0.4586 Z-0.0662
Z-0.0688
X0.5668 Y0.4583 Z-0.0707
X0.5664 Y0.4576 Z-0.0724
X0.5656 Y0.4564 Z-0.0738
X0.5647 Y0.4549 Z-0.0747
X0.5637 Y0.4533 Z-0.075
G3 X0.5554 Y0.4389 I0.1791 J-0.1123
G1 X0.5542 Y0.4365
X0.554 Y0.4363
X0.522 Y0.3774
X0.5219 Y0.3771
X0.5042 Y0.3459
X0.5038 Y0.3452
X0.4914 Y0.3256
X0.491 Y0.325
X0.4746 Y0.3014
X0.4743 Y0.301
X0.4057 Y0.2097
X0.4184 Y0.2221
X0.4304 Y0.2342
X0.4791 Y0.2874
X0.5327 Y0.3457
X0.5329 Y0.346
X0.557 Y0.3709
X0.5576 Y0.3714
X0.5818 Y0.3941
X0.5831 Y0.3952
X0.5959 Y0.4049
X0.5972 Y0.4063 F12
X0.5981 Y0.4079
X0.5984 Y0.4098
X0.5982 Y0.4116
X0.5974 Y0.4133
X0.5962 Y0.4147
X0.5954 Y0.4153 Z-0.0752
X0.5948 Y0.4159 Z-0.0757
X0.5944 Y0.4162 Z-0.0765
X0.5942 Y0.4163 Z-0.0775
X0.5941 Y0.4165 Z-0.0785
X0.5937 Y0.4168 Z-0.0793
X0.5931 Y0.4173 Z-0.0798
X0.5923 Y0.4179 Z-0.08
X0.565 Y0.4408
X0.5634 Y0.4418
X0.5616 Y0.4422
X0.5597 Y0.4421
X0.558 Y0.4415
X0.5565 Y0.4404
X0.5554 Y0.4389
X0.5542 Y0.4365 F20
X0.554 Y0.4363
X0.522 Y0.3774
X0.5219 Y0.3771
X0.5042 Y0.3459
X0.5038 Y0.3452
X0.4914 Y0.3256
X0.491 Y0.325
X0.4746 Y0.3014
X0.4743 Y0.301
X0.4057 Y0.2097
X0.4184 Y0.2221
X0.4304 Y0.2342
X0.4791 Y0.2874
X0.5327 Y0.3457
X0.5329 Y0.346
X0.557 Y0.3709
X0.5576 Y0.3714
X0.5818 Y0.3941
X0.5831 Y0.3952
X0.5959 Y0.4049
X0.5967 Y0.4056
X0.6594 Y0.471
X0.6607 Y0.4724 Z-0.0797
X0.6619 Y0.4736 Z-0.0788
X0.6629 Y0.4746 Z-0.0774
X0.6635 Y0.4753 Z-0.0757
X0.6637 Y0.4755 Z-0.0738
G0 Z0.1
X0.3624 Y0.7908
Z0.0596
G1 Z0.0594 F2
Z-0.0131 F20
X0.3622 Y0.7907 Z-0.0141
X0.3616 Y0.7903 Z-0.0147
X0.3608 Y0.7898 Z-0.015
X0.3595 Y0.7886
X0.3586 Y0.7872
X0.3581 Y0.7855
Y0.7838
X0.3644 Y0.7344
X0.3645 Y0.7323
X0.3643 Y0.6827
X0.3642 Y0.6816
X0.3607 Y0.632
X0.3606 Y0.631
X0.3571 Y0.6051
X0.3569 Y0.604
X0.3519 Y0.5803
X0.3517 Y0.5794
X0.335 Y0.5173
X0.3348 Y0.5165
X0.334 Y0.5141
X0.3568 Y0.5538
X0.3649 Y0.5689
X0.3866 Y0.6143
X0.4032 Y0.6602
X0.4126 Y0.7021
X0.4164 Y0.7338
X0.4178 Y0.7576
X0.4172 Y0.7912
X0.417 Y0.7921
X0.4163 Y0.7928
X0.4154 Y0.793
X0.4069 Y0.7928
X0.3664 Y0.8064
X0.3589 Y0.8094
X0.358 Y0.8095
X0.3573 Y0.8092
X0.3567 Y0.8086
X0.3565 Y0.8077
X0.3566 Y0.8058 Z-0.0153
X0.3567 Y0.8041 Z-0.0162
X0.3568 Y0.8027 Z-0.0176
Y0.8018 Z-0.0193
Y0.8015 Z-0.0212
Z-0.0238
X0.3569 Y0.8012 Z-0.0257
Y0.8003 Z-0.0274
X0.357 Y0.7989 Z-0.0288
Y0.7972 Z-0.0297
X0.3571 Y0.7953 Z-0.03
G3 X0.3581 Y0.7838 I0.146 J0.0069
G1 X0.3644 Y0.7344
X0.3645 Y0.7323
X0.3643 Y0.6827
X0.3642 Y0.6816
X0.3607 Y0.632
X0.3606 Y0.631
X0.3571 Y0.6051
X0.3569 Y0.604
X0.3519 Y0.5803
X0.3517 Y0.5794
X0.335 Y0.5173
X0.3348 Y0.5165
X0.334 Y0.5141
X0.3568 Y0.5538
X0.3649 Y0.5689
X0.3866 Y0.6143
X0.4032 Y0.6602
X0.4126 Y0.7021
X0.4164 Y0.7338
X0.4178 Y0.7576
X0.4172 Y0.7912
X0.417 Y0.7921
X0.4163 Y0.7928
X0.4154 Y0.793
X0.4069 Y0.7928
X0.3664 Y0.8064
X0.3589 Y0.8094
X0.358 Y0.8095
X0.3573 Y0.8092
X0.3567 Y0.8086
X0.3565 Y0.8077
X0.3566 Y0.8058 Z-0.0303
X0.3567 Y0.8041 Z-0.0312
X0.3568 Y0.8027 Z-0.0326
Y0.8018 Z-0.0343
Y0.8015 Z-0.0363
Z-0.0388
X0.3569 Y0.8012 Z-0.0407
Y0.8003 Z-0.0424
X0.357 Y0.7989 Z-0.0438
Y0.7972 Z-0.0447
X0.3571 Y0.7953 Z-0.045
G3 X0.3581 Y0.7838 I0.146 J0.0069
G1 X0.3644 Y0.7344
X0.3645 Y0.7323
X0.3643 Y0.6827
X0.3642 Y0.6816
X0.3607 Y0.632
X0.3606 Y0.631
X0.3571 Y0.6051
X0.3569 Y0.604
X0.3519 Y0.5803
X0.3517 Y0.5794
X0.335 Y0.5173
X0.3348 Y0.5165
X0.334 Y0.5141
X0.3568 Y0.5538
X0.3649 Y0.5689
X0.3866 Y0.6143
X0.4032 Y0.6602
X0.4126 Y0.7021
X0.4164 Y0.7338
X0.4178 Y0.7576
X0.4172 Y0.7912
X0.417 Y0.7921
X0.4163 Y0.7928
X0.4154 Y0.793
X0.4069 Y0.7928
X0.3664 Y0.8064
X0.3589 Y0.8094
X0.358 Y0.8095
X0.3573 Y0.8092
X0.3567 Y0.8086
X0.3565 Y0.8077
X0.3566 Y0.8058 Z-0.0453
X0.3567 Y0.8041 Z-0.0462
X0.3568 Y0.8027 Z-0.0476
Y0.8018 Z-0.0493
Y0.8015 Z-0.0512
Z-0.0537
X0.3569 Y0.8012 Z-0.0557
Y0.8003 Z-0.0574
X0.357 Y0.7989 Z-0.0588
Y0.7972 Z-0.0597
X0.3571 Y0.7953 Z-0.06
G3 X0.3581 Y0.7838 I0.146 J0.0069
G1 X0.3644 Y0.7344
X0.3645 Y0.7323
X0.3643 Y0.6827
X0.3642 Y0.6816
X0.3607 Y0.632
X0.3606 Y0.631
X0.3571 Y0.6051
X0.3569 Y0.604
X0.3519 Y0.5803
X0.3517 Y0.5794
X0.335 Y0.5173
X0.3348 Y0.5165
X0.334 Y0.5141
X0.3568 Y0.5538
X0.3649 Y0.5689
X0.3866 Y0.6143
X0.4032 Y0.6602
X0.4126 Y0.7021
X0.4164 Y0.7338
X0.4178 Y0.7576
X0.4172 Y0.7912
X0.417 Y0.7921
X0.4163 Y0.7928
X0.4154 Y0.793
X0.4069 Y0.7928
X0.3664 Y0.8064
X0.3589 Y0.8094
X0.358 Y0.8095
X0.3573 Y0.8092
X0.3567 Y0.8086
X0.3565 Y0.8077
X0.3566 Y0.8058 Z-0.0603
X0.3567 Y0.8041 Z-0.0612
X0.3568 Y0.8027 Z-0.0626
Y0.8018 Z-0.0643
Y0.8015 Z-0.0662
Z-0.0688
X0.3569 Y0.8012 Z-0.0707
Y0.8003 Z-0.0724
X0.357 Y0.7989 Z-0.0738
Y0.7972 Z-0.0747
X0.3571 Y0.7953 Z-0.075
G3 X0.3581 Y0.7838 I0.146 J0.0069
G1 X0.3644 Y0.7344
X0.3645 Y0.7323
X0.3643 Y0.6827
X0.3642 Y0.6816
X0.3607 Y0.632
X0.3606 Y0.631
X0.3571 Y0.6051
X0.3569 Y0.604
X0.3519 Y0.5803
X0.3517 Y0.5794
X0.335 Y0.5173
X0.3348 Y0.5165
X0.334 Y0.5141
X0.3568 Y0.5538
X0.3649 Y0.5689
X0.3866 Y0.6143
X0.4032 Y0.6602
X0.4126 Y0.7021
X0.4164 Y0.7338
X0.4178 Y0.7576
X0.4172 Y0.7912
X0.417 Y0.793 F12
X0.4162 Y0.7946
X0.4151 Y0.7959
X0.4136 Y0.7968
X0.4119 Y0.7973
X0.4101
X0.4092 Y0.7972 Z-0.0752
X0.4084 Y0.7971 Z-0.0757
X0.4078 Y0.797 Z-0.0765
X0.4077 Z-0.0775
X0.4075 Z-0.0785
X0.4069 Y0.7969 Z-0.0793
X0.4061 Y0.7968 Z-0.0798
X0.4052 Y0.7966 Z-0.08
X0.3635 Y0.7908
X0.3616 Y0.7902
X0.36 Y0.7891
X0.3588 Y0.7876
X0.3582 Y0.7858
X0.3581 Y0.7838
X0.3644 Y0.7344 F20
X0.3645 Y0.7323
X0.3643 Y0.6827
X0.3642 Y0.6816
X0.3607 Y0.632
X0.3606 Y0.631
X0.3571 Y0.6051
X0.3569 Y0.604
X0.3519 Y0.5803
X0.3517 Y0.5794
X0.335 Y0.5173
X0.3348 Y0.5165
X0.334 Y0.5141
X0.3568 Y0.5538
X0.3649 Y0.5689
X0.3866 Y0.6143
X0.4032 Y0.6602
X0.4126 Y0.7021
X0.4164 Y0.7338
X0.4178 Y0.7576
X0.4172 Y0.7912
Y0.7922
X0.4015 Y0.8815
X0.4012 Y0.8834 Z-0.0797
X0.4009 Y0.8851 Z-0.0788
X0.4007 Y0.8865 Z-0.0774
X0.4005 Y0.8873 Z-0.0757
Y0.8876 Z-0.0738
G0 Z0.1
X0.1083 Y1.47
Z0.0596
G1 Z0.0594 F2
Z-0.0137 F20
Y1.4702 Z-0.0144
X0.1084 Y1.4706 Z-0.0148
X0.1086 Y1.4712 Z-0.015
X0.1087 Y1.4732
X0.1083 Y1.4751
X0.1073 Y1.4768
X0.1058 Y1.478
X0.0477 Y1.5139
X0.0475 Y1.5141
X-0.0022 Y1.5458
X-0.0025 Y1.546
X-0.0397 Y1.5709
X-0.0473 Y1.576
X-0.0482 Y1.5767
X-0.0623 Y1.5877
X-0.0636 Y1.5888
X-0.0647 Y1.5901
X-0.0679 Y1.594
X-0.0688 Y1.5951
X-0.0777 Y1.608
X-0.0785 Y1.6094
X-0.0792 Y1.6109
X-0.0805 Y1.614
X-0.0813 Y1.6165
X-0.0838 Y1.6272
X-0.0844 Y1.6285
X-0.0854 Y1.6295
X-0.0867 Y1.6301
X-0.0881 Y1.6302
X-0.0895 Y1.6298
X-0.1226 Y1.6133
X-0.1237 Y1.6125
X-0.1244 Y1.6114
X-0.1248 Y1.6101
X-0.1247 Y1.6088
X-0.1241 Y1.6075
X-0.1232 Y1.6066
X-0.1164 Y1.6014
X-0.1163 Y1.6012
X-0.0835 Y1.5754
X-0.0832 Y1.5752
X-0.0242 Y1.5265
X-0.0239 Y1.5263
X0.0047 Y1.5014
X0.0053 Y1.5009
X0.031 Y1.4761
X0.0315 Y1.4756
X0.0551 Y1.4507
X0.0553 Y1.4505
X0.0674 Y1.4371
X0.0678 Y1.4368
X0.0696 Y1.4347
X0.0707 Y1.4338
X0.072 Y1.4333
X0.0735 Y1.4334
X0.1375 Y1.448
X0.1389 Y1.4486
X0.1399 Y1.4497
X0.1405 Y1.4511
Y1.4526
X0.14 Y1.454
X0.139 Y1.4551
X0.1374 Y1.4562 Z-0.0153
X0.136 Y1.4573 Z-0.0162
X0.1349 Y1.4581 Z-0.0176
X0.1342 Y1.4586 Z-0.0193
X0.1339 Y1.4588 Z-0.0212
Z-0.0238
X0.1337 Y1.459 Z-0.0257
X0.133 Y1.4595 Z-0.0274
X0.1318 Y1.4603 Z-0.0288
X0.1304 Y1.4613 Z-0.0297
X0.1289 Y1.4625 Z-0.03
G3 X0.1058 Y1.478 I-0.2094 J-0.286
G1 X0.0477 Y1.5139
X0.0475 Y1.5141
X-0.0022 Y1.5458
X-0.0025 Y1.546
X-0.0397 Y1.5709
X-0.0473 Y1.576
X-0.0482 Y1.5767
X-0.0623 Y1.5877
X-0.0636 Y1.5888
X-0.0647 Y1.5901
X-0.0679 Y1.594
X-0.0688 Y1.5951
X-0.0777 Y1.608
X-0.0785 Y1.6094
X-0.0792 Y1.6109
X-0.0805 Y1.614
X-0.0813 Y1.6165
X-0.0838 Y1.6272
X-0.0844 Y1.6285
X-0.0854 Y1.6295
X-0.0867 Y1.6301
X-0.0881 Y1.6302
X-0.0895 Y1.6298
X-0.1226 Y1.6133
X-0.1237 Y1.6125
X-0.1244 Y1.6114
X-0.1248 Y1.6101
X-0.1247 Y1.6088
X-0.1241 Y1.6075
X-0.1232 Y1.6066
X-0.1164 Y1.6014
X-0.1163 Y1.6012
X-0.0835 Y1.5754
X-0.0832 Y1.5752
X-0.0242 Y1.5265
X-0.0239 Y1.5263
X0.0047 Y1.5014
X0.0053 Y1.5009
X0.031 Y1.4761
X0.0315 Y1.4756
X0.0551 Y1.4507
X0.0553 Y1.4505
X0.0674 Y1.4371
X0.0678 Y1.4368
X0.0696 Y1.4347
X0.0707 Y1.4338
X0.072 Y1.4333
X0.0735 Y1.4334
X0.1375 Y1.448
X0.1389 Y1.4486
X0.1399 Y1.4497
X0.1405 Y1.4511
Y1.4526
X0.14 Y1.454
X0.139 Y1.4551
X0.1374 Y1.4562 Z-0.0303
X0.136 Y1.4573 Z-0.0312
X0.1349 Y1.4581 Z-0.0326
X0.1342 Y1.4586 Z-0.0343
X0.1339 Y1.4588 Z-0.0363
Z-0.0388
X0.1337 Y1.459 Z-0.0407
X0.133 Y1.4595 Z-0.0424
X0.1318 Y1.4603 Z-0.0438
X0.1304 Y1.4613 Z-0.0447
X0.1289 Y1.4625 Z-0.045
G3 X0.1058 Y1.478 I-0.2094 J-0.286
G1 X0.0477 Y1.5139
X0.0475 Y1.5141
X-0.0022 Y1.5458
X-0.0025 Y1.546
X-0.0397 Y1.5709
X-0.0473 Y1.576
X-0.0482 Y1.5767
X-0.0623 Y1.5877
X-0.0636 Y1.5888
X-0.0647 Y1.5901
X-0.0679 Y1.594
X-0.0688 Y1.5951
X-0.0777 Y1.608
X-0.0785 Y1.6094
X-0.0792 Y1.6109
X-0.0805 Y1.614
X-0.0813 Y1.6165
X-0.0838 Y1.6272
X-0.0844 Y1.6285
X-0.0854 Y1.6295
X-0.0867 Y1.6301
X-0.0881 Y1.6302
X-0.0895 Y1.6298
X-0.1226 Y1.6133
X-0.1237 Y1.6125
X-0.1244 Y1.6114
X-0.1248 Y1.6101
X-0.1247 Y1.6088
X-0.1241 Y1.6075
X-0.1232 Y1.6066
X-0.1164 Y1.6014
X-0.1163 Y1.6012
X-0.0835 Y1.5754
X-0.0832 Y1.5752
X-0.0242 Y1.5265
X-0.0239 Y1.5263
X0.0047 Y1.5014
X0.0053 Y1.5009
X0.031 Y1.4761
X0.0315 Y1.4756
X0.0551 Y1.4507
X0.0553 Y1.4505
X0.0674 Y1.4371
X0.0678 Y1.4368
X0.0696 Y1.4347
X0.0707 Y1.4338
X0.072 Y1.4333
X0.0735 Y1.4334
X0.1375 Y1.448
X0.1389 Y1.4486
X0.1399 Y1.4497
X0.1405 Y1.4511
Y1.4526
X0.14 Y1.454
X0.139 Y1.4551
X0.1374 Y1.4562 Z-0.0453
X0.136 Y1.4573 Z-0.0462
X0.1349 Y1.4581 Z-0.0476
X0.1342 Y1.4586 Z-0.0493
X0.1339 Y1.4588 Z-0.0512
Z-0.0537
X0.1337 Y1.459 Z-0.0557
X0.133 Y1.4595 Z-0.0574
X0.1318 Y1.4603 Z-0.0588
X0.1304 Y1.4613 Z-0.0597
X0.1289 Y1.4625 Z-0.06
G3 X0.1058 Y1.478 I-0.2094 J-0.286
G1 X0.0477 Y1.5139
X0.0475 Y1.5141
X-0.0022 Y1.5458
X-0.0025 Y1.546
X-0.0397 Y1.5709
X-0.0473 Y1.576
X-0.0482 Y1.5767
X-0.0623 Y1.5877
X-0.0636 Y1.5888
X-0.0647 Y1.5901
X-0.0679 Y1.594
X-0.0688 Y1.5951
X-0.0777 Y1.608
X-0.0785 Y1.6094
X-0.0792 Y1.6109
X-0.0805 Y1.614
X-0.0813 Y1.6165
X-0.0838 Y1.6272
X-0.0844 Y1.6285
X-0.0854 Y1.6295
X-0.0867 Y1.6301
X-0.0881 Y1.6302
X-0.0895 Y1.6298
X-0.1226 Y1.6133
X-0.1237 Y1.6125
X-0.1244 Y1.6114
X-0.1248 Y1.6101
X-0.1247 Y1.6088
X-0.1241 Y1.6075
X-0.1232 Y1.6066
X-0.1164 Y1.6014
X-0.1163 Y1.6012
X-0.0835 Y1.5754
X-0.0832 Y1.5752
X-0.0242 Y1.5265
X-0.0239 Y1.5263
X0.0047 Y1.5014
X0.0053 Y1.5009
X0.031 Y1.4761
X0.0315 Y1.4756
X0.0551 Y1.4507
X0.0553 Y1.4505
X0.0674 Y1.4371
X0.0678 Y1.4368
X0.0696 Y1.4347
X0.0707 Y1.4338
X0.072 Y1.4333
X0.0735 Y1.4334
X0.1379 Y1.4477
X0.1393 Y1.4483
X0.1403 Y1.4494
X0.1409 Y1.4508
Y1.4523
X0.1404 Y1.4537
X0.1394 Y1.4548
X0.1378 Y1.456 Z-0.0603
X0.1364 Y1.457 Z-0.0612
X0.1353 Y1.4578 Z-0.0626
X0.1346 Y1.4583 Z-0.0643
X0.1343 Y1.4585 Z-0.0662
Z-0.0688
X0.1341 Y1.4587 Z-0.0707
X0.1334 Y1.4592 Z-0.0724
X0.1322 Y1.46 Z-0.0738
X0.1308 Y1.4611 Z-0.0747
X0.1293 Y1.4622 Z-0.075
G3 X0.1058 Y1.478 I-0.2131 J-0.291
G1 X0.0477 Y1.5139
X0.0475 Y1.5141
X-0.0022 Y1.5458
X-0.0025 Y1.546
X-0.0397 Y1.5709
X-0.0473 Y1.576
X-0.0482 Y1.5767
X-0.0623 Y1.5877
X-0.0636 Y1.5888
X-0.0647 Y1.5901
X-0.0679 Y1.594
X-0.0688 Y1.5951
X-0.0777 Y1.608
X-0.0785 Y1.6094
X-0.0792 Y1.6109
X-0.0805 Y1.614
X-0.0813 Y1.6165
X-0.0838 Y1.6272
X-0.0844 Y1.6285
X-0.0854 Y1.6295
X-0.0867 Y1.6301
X-0.0881 Y1.6302
X-0.0895 Y1.6298
X-0.1226 Y1.6133
X-0.1237 Y1.6125
X-0.1244 Y1.6114
X-0.1248 Y1.6101
X-0.1247 Y1.6088
X-0.1241 Y1.6075
X-0.1232 Y1.6066
X-0.1164 Y1.6014
X-0.1163 Y1.6012
X-0.0835 Y1.5754
X-0.0832 Y1.5752
X-0.0242 Y1.5265
X-0.0239 Y1.5263
X0.0047 Y1.5014
X0.0053 Y1.5009
X0.031 Y1.4761
X0.0315 Y1.4756
X0.0551 Y1.4507
X0.0553 Y1.4505
X0.0674 Y1.4371
X0.0678 Y1.4368
X0.0696 Y1.4347
X0.0709 Y1.4335 F12
X0.0726 Y1.4327
X0.0743 Y1.4325
X0.0761 Y1.4328
X0.0778 Y1.4335
X0.0791 Y1.4347
X0.0797 Y1.4355 Z-0.0752
X0.0802 Y1.4361 Z-0.0757
X0.0806 Y1.4365 Z-0.0765
X0.0807 Y1.4367 Z-0.0775
X0.0808 Y1.4368 Z-0.0785
X0.0812 Y1.4372 Z-0.0793
X0.0817 Y1.4379 Z-0.0798
X0.0823 Y1.4386 Z-0.08
X0.1073 Y1.4687
X0.1082 Y1.4702
X0.1087 Y1.472
Y1.4737
X0.1081 Y1.4754
X0.1072 Y1.4769
X0.1058 Y1.478
X0.0477 Y1.5139 F20
X0.0475 Y1.5141
X-0.0022 Y1.5458
X-0.0025 Y1.546
X-0.0397 Y1.5709
X-0.0473 Y1.576
X-0.0482 Y1.5767
X-0.0623 Y1.5877
X-0.0636 Y1.5888
X-0.0647 Y1.5901
X-0.0679 Y1.594
X-0.0688 Y1.5951
X-0.0777 Y1.608
X-0.0785 Y1.6094
X-0.0792 Y1.6109
X-0.0805 Y1.614
X-0.0813 Y1.6165
X-0.0838 Y1.6272
X-0.0844 Y1.6285
X-0.0854 Y1.6295
X-0.0867 Y1.6301
X-0.0881 Y1.6302
X-0.0895 Y1.6298
X-0.1226 Y1.6133
X-0.1237 Y1.6125
X-0.1244 Y1.6114
X-0.1248 Y1.6101
X-0.1247 Y1.6088
X-0.1241 Y1.6075
X-0.1232 Y1.6066
X-0.1164 Y1.6014
X-0.1163 Y1.6012
X-0.0835 Y1.5754
X-0.0832 Y1.5752
X-0.0242 Y1.5265
X-0.0239 Y1.5263
X0.0047 Y1.5014
X0.0053 Y1.5009
X0.031 Y1.4761
X0.0315 Y1.4756
X0.0551 Y1.4507
X0.0553 Y1.4505
X0.0674 Y1.4371
X0.0678 Y1.4368
X0.0696 Y1.4347
X0.0702 Y1.434
X0.1392 Y1.3752
X0.1407 Y1.3739 Z-0.0797
X0.142 Y1.3728 Z-0.0788
X0.1431 Y1.3719 Z-0.0774
X0.1437 Y1.3713 Z-0.0757
X0.144 Y1.3711 Z-0.0738
G0 Z0.1
X-1.3193 Y0.5995
Z0.0596
G1 Z0.0594 F2
Z-0.0131 F20
X-1.3191 Y0.5997 Z-0.0141
X-1.3187 Y0.6003 Z-0.0147
X-1.3181 Y0.601 Z-0.015
X-1.3173 Y0.6025
X-1.3169 Y0.6041
Y0.6058
X-1.3174 Y0.6075
X-1.3205 Y0.6141
X-1.3206 Y0.6143
X-1.3316 Y0.6392
X-1.3319 Y0.6399
X-1.3415 Y0.6647
X-1.342 Y0.6662
X-1.3523 Y0.7034
X-1.3525 Y0.7043
X-1.3579 Y0.7291
Y0.7293
X-1.3679 Y0.779
X-1.368 Y0.7794
X-1.3809 Y0.8539
Y0.8543
X-1.3884 Y0.906
X-1.3888 Y0.9073
X-1.3896 Y0.9084
X-1.3908 Y0.9092
X-1.3921 Y0.9095
X-1.3934 Y0.9093
X-1.3947 Y0.9087
X-1.4212 Y0.8894
X-1.4223 Y0.8882
X-1.4228 Y0.8868
X-1.4227 Y0.8852
X-1.4221 Y0.8838
X-1.4209 Y0.8827
X-1.4193 Y0.8818
X-1.4177 Y0.8807
X-1.4164 Y0.8795
X-1.4136 Y0.8768
X-1.4123 Y0.8754
X-1.4112 Y0.8739
X-1.3988 Y0.8539
X-1.3977 Y0.8519
X-1.3969 Y0.8497
X-1.3882 Y0.8171
X-1.3879 Y0.8153
X-1.3852 Y0.7967
X-1.3851 Y0.796
X-1.3826 Y0.7712
X-1.3825 Y0.7706
X-1.3794 Y0.721
X-1.3748 Y0.6342
X-1.3715 Y0.5944
X-1.3711 Y0.5929
X-1.3701 Y0.5917
X-1.3688 Y0.5909
X-1.3105 Y0.5725
X-1.309 Y0.5724
X-1.3076 Y0.5727
X-1.3064 Y0.5736
X-1.3056 Y0.5748
X-1.3053 Y0.5763
X-1.3055 Y0.5777
X-1.3062 Y0.5796 Z-0.0153
X-1.3068 Y0.5812 Z-0.0162
X-1.3073 Y0.5825 Z-0.0176
X-1.3076 Y0.5833 Z-0.0193
X-1.3077 Y0.5836 Z-0.0212
Z-0.0238
X-1.3078 Y0.5839 Z-0.0257
X-1.3081 Y0.5847 Z-0.0274
X-1.3086 Y0.586 Z-0.0288
X-1.3092 Y0.5876 Z-0.0297
X-1.3099 Y0.5895 Z-0.03
G3 X-1.3174 Y0.6075 I-0.2331 J-0.0868
G1 X-1.3205 Y0.6141
X-1.3206 Y0.6143
X-1.3316 Y0.6392
X-1.3319 Y0.6399
X-1.3415 Y0.6647
X-1.342 Y0.6662
X-1.3523 Y0.7034
X-1.3525 Y0.7043
X-1.3579 Y0.7291
Y0.7293
X-1.3679 Y0.779
X-1.368 Y0.7794
X-1.3809 Y0.8539
Y0.8543
X-1.3884 Y0.906
X-1.3888 Y0.9073
X-1.3896 Y0.9084
X-1.3908 Y0.9092
X-1.3921 Y0.9095
X-1.3934 Y0.9093
X-1.3947 Y0.9087
X-1.4212 Y0.8894
X-1.4223 Y0.8882
X-1.4228 Y0.8868
X-1.4227 Y0.8852
X-1.4221 Y0.8838
X-1.4209 Y0.8827
X-1.4193 Y0.8818
X-1.4177 Y0.8807
X-1.4164 Y0.8795
X-1.4136 Y0.8768
X-1.4123 Y0.8754
X-1.4112 Y0.8739
X-1.3988 Y0.8539
X-1.3977 Y0.8519
X-1.3969 Y0.8497
X-1.3882 Y0.8171
X-1.3879 Y0.8153
X-1.3852 Y0.7967
X-1.3851 Y0.796
X-1.3826 Y0.7712
X-1.3825 Y0.7706
X-1.3794 Y0.721
X-1.3748 Y0.6342
X-1.3715 Y0.5944
X-1.3711 Y0.5929
X-1.3701 Y0.5917
X-1.3688 Y0.5909
X-1.3105 Y0.5725
X-1.309 Y0.5724
X-1.3076 Y0.5727
X-1.3064 Y0.5736
X-1.3056 Y0.5748
X-1.3053 Y0.5763
X-1.3055 Y0.5777
X-1.3062 Y0.5796 Z-0.0303
X-1.3068 Y0.5812 Z-0.0312
X-1.3073 Y0.5825 Z-0.0326
X-1.3076 Y0.5833 Z-0.0343
X-1.3077 Y0.5836 Z-0.0363
Z-0.0388
X-1.3078 Y0.5839 Z-0.0407
X-1.3081 Y0.5847 Z-0.0424
X-1.3086 Y0.586 Z-0.0438
X-1.3092 Y0.5876 Z-0.0447
X-1.3099 Y0.5895 Z-0.045
G3 X-1.3174 Y0.6075 I-0.2331 J-0.0868
G1 X-1.3205 Y0.6141
X-1.3206 Y0.6143
X-1.3316 Y0.6392
X-1.3319 Y0.6399
X-1.3415 Y0.6647
X-1.342 Y0.6662
X-1.3523 Y0.7034
X-1.3525 Y0.7043
X-1.3579 Y0.7291
Y0.7293
X-1.3679 Y0.779
X-1.368 Y0.7794
X-1.3809 Y0.8539
Y0.8543
X-1.3884 Y0.906
X-1.3888 Y0.9073
X-1.3896 Y0.9084
X-1.3908 Y0.9092
X-1.3921 Y0.9095
X-1.3934 Y0.9093
X-1.3947 Y0.9087
X-1.4212 Y0.8894
X-1.4223 Y0.8882
X-1.4228 Y0.8868
X-1.4227 Y0.8852
X-1.4221 Y0.8838
X-1.4209 Y0.8827
X-1.4193 Y0.8818
X-1.4177 Y0.8807
X-1.4164 Y0.8795
X-1.4136 Y0.8768
X-1.4123 Y0.8754
X-1.4112 Y0.8739
X-1.3988 Y0.8539
X-1.3977 Y0.8519
X-1.3969 Y0.8497
X-1.3882 Y0.8171
X-1.3879 Y0.8153
X-1.3852 Y0.7967
X-1.3851 Y0.796
X-1.3826 Y0.7712
X-1.3825 Y0.7706
X-1.3794 Y0.721
X-1.3748 Y0.6342
X-1.3715 Y0.5944
X-1.3711 Y0.5929
X-1.3701 Y0.5917
X-1.3688 Y0.5909
X-1.3105 Y0.5725
X-1.309 Y0.5724
X-1.3076 Y0.5727
X-1.3064 Y0.5736
X-1.3056 Y0.5748
X-1.3053 Y0.5763
X-1.3055 Y0.5777
X-1.3062 Y0.5796 Z-0.0453
X-1.3068 Y0.5812 Z-0.0462
X-1.3073 Y0.5825 Z-0.0476
X-1.3076 Y0.5833 Z-0.0493
X-1.3077 Y0.5836 Z-0.0512
Z-0.0537
X-1.3078 Y0.5839 Z-0.0557
X-1.3081 Y0.5847 Z-0.0574
X-1.3086 Y0.586 Z-0.0588
X-1.3092 Y0.5876 Z-0.0597
X-1.3099 Y0.5895 Z-0.06
G3 X-1.3174 Y0.6075 I-0.2331 J-0.0868
G1 X-1.3205 Y0.6141
X-1.3206 Y0.6143
X-1.3316 Y0.6392
X-1.3319 Y0.6399
X-1.3415 Y0.6647
X-1.342 Y0.6662
X-1.3523 Y0.7034
X-1.3525 Y0.7043
X-1.3579 Y0.7291
Y0.7293
X-1.3679 Y0.779
X-1.368 Y0.7794
X-1.3809 Y0.8539
Y0.8543
X-1.3884 Y0.906
X-1.3888 Y0.9073
X-1.3896 Y0.9084
X-1.3908 Y0.9092
X-1.3921 Y0.9095
X-1.3934 Y0.9093
X-1.3947 Y0.9087
X-1.4212 Y0.8894
X-1.4223 Y0.8882
X-1.4228 Y0.8868
X-1.4227 Y0.8852
X-1.4221 Y0.8838
X-1.4209 Y0.8827
X-1.4193 Y0.8818
X-1.4177 Y0.8807
X-1.4164 Y0.8795
X-1.4136 Y0.8768
X-1.4123 Y0.8754
X-1.4112 Y0.8739
X-1.3988 Y0.8539
X-1.3977 Y0.8519
X-1.3969 Y0.8497
X-1.3882 Y0.8171
X-1.3879 Y0.8153
X-1.3852 Y0.7967
X-1.3851 Y0.796
X-1.3826 Y0.7712
X-1.3825 Y0.7706
X-1.3794 Y0.721
X-1.3748 Y0.6342
X-1.3715 Y0.5944
X-1.3711 Y0.5929
X-1.3701 Y0.5917
X-1.3688 Y0.5909
X-1.3105 Y0.5725
X-1.309 Y0.5724
X-1.3076 Y0.5727
X-1.3064 Y0.5736
X-1.3056 Y0.5748
X-1.3053 Y0.5763
X-1.3055 Y0.5777
X-1.3062 Y0.5796 Z-0.0603
X-1.3068 Y0.5812 Z-0.0612
X-1.3073 Y0.5825 Z-0.0626
X-1.3076 Y0.5833 Z-0.0643
X-1.3077 Y0.5836 Z-0.0662
Z-0.0688
X-1.3078 Y0.5839 Z-0.0707
X-1.3081 Y0.5847 Z-0.0724
X-1.3086 Y0.586 Z-0.0738
X-1.3092 Y0.5876 Z-0.0747
X-1.3099 Y0.5895 Z-0.075
G3 X-1.3174 Y0.6075 I-0.2331 J-0.0868
G1 X-1.3205 Y0.6141
X-1.3206 Y0.6143
X-1.3316 Y0.6392
X-1.3319 Y0.6399
X-1.3415 Y0.6647
X-1.342 Y0.6662
X-1.3523 Y0.7034
X-1.3525 Y0.7043
X-1.3579 Y0.7291
Y0.7293
X-1.3679 Y0.779
X-1.368 Y0.7794
X-1.3809 Y0.8539
Y0.8543
X-1.3884 Y0.906
X-1.3888 Y0.9073
X-1.3896 Y0.9084
X-1.3908 Y0.9092
X-1.3921 Y0.9095
X-1.3934 Y0.9093
X-1.3947 Y0.9087
X-1.4212 Y0.8894
X-1.4223 Y0.8882
X-1.4228 Y0.8868
X-1.4227 Y0.8852
X-1.4221 Y0.8838
X-1.4209 Y0.8827
X-1.4193 Y0.8818
X-1.4177 Y0.8807
X-1.4164 Y0.8795
X-1.4136 Y0.8768
X-1.4123 Y0.8754
X-1.4112 Y0.8739
X-1.3988 Y0.8539
X-1.3977 Y0.8519
X-1.3969 Y0.8497
X-1.3882 Y0.8171
X-1.3879 Y0.8153
X-1.3852 Y0.7967
X-1.3851 Y0.796
X-1.3826 Y0.7712
X-1.3825 Y0.7706
X-1.3794 Y0.721
X-1.3748 Y0.6342
X-1.3715 Y0.5944
X-1.3711 Y0.5927 F12
X-1.3703 Y0.5911
X-1.369 Y0.5899
X-1.3674 Y0.589
X-1.3657 Y0.5887
X-1.3639 Y0.5888
X-1.3629 Y0.5891 Z-0.0752
X-1.3622 Y0.5892 Z-0.0757
X-1.3616 Y0.5894 Z-0.0765
X-1.3614 Z-0.0775
X-1.3613 Y0.5895 Z-0.0785
X-1.3607 Y0.5896 Z-0.0793
X-1.3599 Y0.5898 Z-0.0798
X-1.359 Y0.59 Z-0.08
X-1.3216 Y0.5988
X-1.3199 Y0.5994
X-1.3185 Y0.6006
X-1.3174 Y0.6021
X-1.3169 Y0.6039
Y0.6057
X-1.3174 Y0.6075
X-1.3205 Y0.6141 F20
X-1.3206 Y0.6143
X-1.3316 Y0.6392
X-1.3319 Y0.6399
X-1.3415 Y0.6647
X-1.342 Y0.6662
X-1.3523 Y0.7034
X-1.3525 Y0.7043
X-1.3579 Y0.7291
Y0.7293
X-1.3679 Y0.779
X-1.368 Y0.7794
X-1.3809 Y0.8539
Y0.8543
X-1.3884 Y0.906
X-1.3888 Y0.9073
X-1.3896 Y0.9084
X-1.3908 Y0.9092
X-1.3921 Y0.9095
X-1.3934 Y0.9093
X-1.3947 Y0.9087
X-1.4212 Y0.8894
X-1.4223 Y0.8882
X-1.4228 Y0.8868
X-1.4227 Y0.8852
X-1.4221 Y0.8838
X-1.4209 Y0.8827
X-1.4193 Y0.8818
X-1.4177 Y0.8807
X-1.4164 Y0.8795
X-1.4136 Y0.8768
X-1.4123 Y0.8754
X-1.4112 Y0.8739
X-1.3988 Y0.8539
X-1.3977 Y0.8519
X-1.3969 Y0.8497
X-1.3882 Y0.8171
X-1.3879 Y0.8153
X-1.3852 Y0.7967
X-1.3851 Y0.796
X-1.3826 Y0.7712
X-1.3825 Y0.7706
X-1.3794 Y0.721
X-1.3748 Y0.6342
X-1.3715 Y0.5944
X-1.3714 Y0.5934
X-1.3499 Y0.5054
X-1.3495 Y0.5035 Z-0.0797
X-1.3491 Y0.5018 Z-0.0788
X-1.3487 Y0.5005 Z-0.0774
X-1.3485 Y0.4996 Z-0.0757
Y0.4993 Z-0.0738
G0 Z0.3
G28 G91 Z0
G90
G28 G91 X0 Y0
G90
M5
M30
