(1003)
(T1  D=0.125 CR=0 - ZMIN=-0.24 - flat end mill)
G90 G94
G17
G20
G28 G91 Z0
G90

(2D Contour1)
T1
S1000 M3
G54
G0 X0.4816 Y-2.4769
Z0.3
Z0.0544
G1 Z-0.0025 F2
Y-2.4766 Z-0.0053 F20
X0.4817 Y-2.4757 Z-0.0079
X0.4818 Y-2.4742 Z-0.0103
X0.4819 Y-2.4722 Z-0.0123
X0.4821 Y-2.4699 Z-0.0138
X0.4823 Y-2.4673 Z-0.0147
X0.4826 Y-2.4645 Z-0.015
X0.4836 Y-2.452
G3 X0.4721 Y-2.4386 I-0.0125 J0.001
G1 X0.4484 Y-2.4367
X0.4465 Y-2.4365
X0.3983 Y-2.4311
X0.3964 Y-2.4309
X0.3478 Y-2.4239
X0.3459 Y-2.4236
X0.2969 Y-2.4151
X0.2951 Y-2.4148
X0.2457 Y-2.4047
X0.2439 Y-2.4043
X0.1943 Y-2.3926
X0.1925 Y-2.3922
X0.1425 Y-2.3789
X0.1408 Y-2.3784
X0.0905 Y-2.3635
X0.0889 Y-2.363
X0.0383 Y-2.3465
X0.0367 Y-2.346
X-0.0141 Y-2.3278
X-0.0157 Y-2.3272
X-0.0667 Y-2.3075
X-0.0682 Y-2.3068
X-0.1194 Y-2.2854
X-0.1209 Y-2.2848
X-0.1723 Y-2.2617
X-0.1737 Y-2.261
X-0.2252 Y-2.2362
X-0.2267 Y-2.2355
X-0.2783 Y-2.2091
X-0.2796 Y-2.2084
X-0.3313 Y-2.1803
X-0.3326 Y-2.1795
X-0.3843 Y-2.1497
X-0.3856 Y-2.149
X-0.4373 Y-2.1175
X-0.4386 Y-2.1167
X-0.4903 Y-2.0835
X-0.4915 Y-2.0827
X-0.5431 Y-2.0478
X-0.5443 Y-2.047
X-0.5958 Y-2.0104
X-0.5969 Y-2.0095
X-0.6483 Y-1.9712
X-0.6494 Y-1.9704
X-0.7005 Y-1.9304
X-0.7016 Y-1.9295
X-0.7525 Y-1.8878
X-0.7536 Y-1.8869
X-0.8042 Y-1.8436
X-0.8052 Y-1.8427
X-0.8555 Y-1.7976
X-0.8565 Y-1.7967
X-0.9064 Y-1.75
X-0.9073 Y-1.7491
X-0.9568 Y-1.7008
X-0.9577 Y-1.6998
X-1.0066 Y-1.6499
X-1.0076 Y-1.6489
X-1.0559 Y-1.5973
X-1.0568 Y-1.5964
X-1.1046 Y-1.5432
X-1.1055 Y-1.5423
X-1.1525 Y-1.4876
X-1.1534 Y-1.4866
X-1.1997 Y-1.4305
X-1.2005 Y-1.4295
X-1.2461 Y-1.3719
X-1.2469 Y-1.3709
X-1.2915 Y-1.3119
X-1.2923 Y-1.3109
X-1.336 Y-1.2506
X-1.3368 Y-1.2496
X-1.3795 Y-1.188
X-1.3802 Y-1.187
X-1.4219 Y-1.1242
X-1.4226 Y-1.1231
X-1.4631 Y-1.0593
X-1.4638 Y-1.0582
X-1.5031 Y-0.9933
X-1.5038 Y-0.9922
X-1.5419 Y-0.9263
X-1.5425 Y-0.9252
X-1.5793 Y-0.8585
X-1.5799 Y-0.8574
X-1.6153 Y-0.7899
X-1.6159 Y-0.7887
X-1.6499 Y-0.7206
X-1.6504 Y-0.7194
X-1.6829 Y-0.6507
X-1.6835 Y-0.6495
X-1.7145 Y-0.5803
X-1.715 Y-0.5791
X-1.7445 Y-0.5095
X-1.745 Y-0.5083
X-1.7729 Y-0.4384
X-1.7734 Y-0.4372
X-1.7997 Y-0.3671
X-1.8002 Y-0.3659
X-1.8249 Y-0.2957
X-1.8253 Y-0.2945
X-1.8483 Y-0.2243
X-1.8487 Y-0.2231
X-1.8701 Y-0.153
X-1.8705 Y-0.1517
X-1.8903 Y-0.0818
X-1.8906 Y-0.0805
X-1.9087 Y-0.0108
X-1.9091 Y-0.0096
X-1.9255 Y0.0598
X-1.9258 Y0.0611
X-1.9406 Y0.1301
X-1.9409 Y0.1314
X-1.954 Y0.1999
X-1.9543 Y0.2012
X-1.9658 Y0.2692
X-1.966 Y0.2705
X-1.9759 Y0.3379
X-1.9761 Y0.3393
X-1.9844 Y0.406
X-1.9846 Y0.4074
X-1.9913 Y0.4735
X-1.9914 Y0.4749
X-1.9966 Y0.5402
X-1.9967 Y0.5416
X-2.0003 Y0.6061
X-2.0004 Y0.6076
X-2.0025 Y0.6713
Y0.6727
X-2.0031 Y0.7356
Y0.7371
X-2.0023 Y0.799
X-2.0022 Y0.8005
X-1.9999 Y0.8616
X-1.9998 Y0.8631
X-1.9961 Y0.9232
X-1.996 Y0.9247
X-1.9909 Y0.9838
X-1.9907 Y0.9854
X-1.9842 Y1.0435
X-1.984 Y1.045
X-1.9761 Y1.1021
X-1.9759 Y1.1037
X-1.9667 Y1.1597
X-1.9664 Y1.1613
X-1.9559 Y1.2163
X-1.9556 Y1.2179
X-1.9438 Y1.2717
X-1.9434 Y1.2734
X-1.9304 Y1.3261
X-1.9299 Y1.3278
X-1.9157 Y1.3794
X-1.9152 Y1.3811
X-1.8997 Y1.4316
X-1.8992 Y1.4333
X-1.8825 Y1.4826
X-1.8819 Y1.4843
X-1.8641 Y1.5325
X-1.8634 Y1.5342
X-1.8445 Y1.5812
X-1.8438 Y1.5829
X-1.8237 Y1.6287
X-1.8229 Y1.6304
X-1.8017 Y1.675
X-1.8009 Y1.6767
X-1.7786 Y1.7201
X-1.7777 Y1.7218
X-1.7544 Y1.764
X-1.7534 Y1.7657
X-1.729 Y1.8066
X-1.728 Y1.8083
X-1.7026 Y1.848
X-1.7015 Y1.8497
X-1.6751 Y1.8881
X-1.674 Y1.8898
X-1.6466 Y1.9269
X-1.6454 Y1.9286
X-1.6171 Y1.9645
X-1.6157 Y1.9661
X-1.5865 Y2.0007
X-1.5851 Y2.0023
X-1.5549 Y2.0356
X-1.5535 Y2.0372
X-1.5224 Y2.0692
X-1.5209 Y2.0707
X-1.489 Y2.1014
X-1.4873 Y2.1029
X-1.4546 Y2.1322
X-1.4529 Y2.1337
X-1.4192 Y2.1617
X-1.4175 Y2.1631
X-1.383 Y2.1898
X-1.3812 Y2.1911
X-1.346 Y2.2164
X-1.3441 Y2.2177
X-1.3081 Y2.2417
X-1.3062 Y2.2429
X-1.2693 Y2.2655
X-1.2674 Y2.2667
X-1.2298 Y2.2879
X-1.2278 Y2.289
X-1.1895 Y2.3088
X-1.1874 Y2.3098
X-1.1484 Y2.3283
X-1.1463 Y2.3292
X-1.1066 Y2.3463
X-1.1045 Y2.3471
X-1.0641 Y2.3628
X-1.062 Y2.3635
X-1.0209 Y2.3778
X-1.0187 Y2.3784
X-0.977 Y2.3912
X-0.9749 Y2.3919
X-0.9325 Y2.4032
X-0.9303 Y2.4037
X-0.8873 Y2.4136
X-0.8852 Y2.4141
X-0.8416 Y2.4225
X-0.8395 Y2.4229
X-0.7953 Y2.4299
X-0.7932 Y2.4302
X-0.7485 Y2.4357
X-0.7464 Y2.4359
X-0.7011 Y2.4399
X-0.699 Y2.4401
X-0.6532 Y2.4426
X-0.6511 Y2.4427
X-0.6048 Y2.4437
X-0.6028
X-0.556 Y2.4432
X-0.554
X-0.5067 Y2.4411
X-0.5048 Y2.441
X-0.457 Y2.4375
X-0.4551 Y2.4373
X-0.407 Y2.4322
X-0.4051 Y2.4319
X-0.3565 Y2.4253
X-0.3547 Y2.425
X-0.3057 Y2.4168
X-0.3039 Y2.4164
X-0.2546 Y2.4066
X-0.2528 Y2.4062
X-0.2032 Y2.3948
X-0.2015 Y2.3944
X-0.1515 Y2.3814
X-0.1498 Y2.3809
X-0.0996 Y2.3663
X-0.0979 Y2.3658
X-0.0474 Y2.3496
X-0.0458 Y2.349
X0.005 Y2.3312
X0.0066 Y2.3306
X0.0576 Y2.3111
X0.0591 Y2.3105
X0.1103 Y2.2893
X0.1118 Y2.2887
X0.1631 Y2.2659
X0.1646 Y2.2652
X0.2161 Y2.2408
X0.2175 Y2.2401
X0.2691 Y2.2139
X0.2704 Y2.2132
X0.3221 Y2.1854
X0.3234 Y2.1846
X0.3751 Y2.1551
X0.3764 Y2.1544
X0.4281 Y2.1232
X0.4294 Y2.1224
X0.4811 Y2.0895
X0.4823 Y2.0887
X0.5339 Y2.0541
X0.5351 Y2.0533
X0.5866 Y2.017
X0.5878 Y2.0161
X0.6392 Y1.9781
X0.6403 Y1.9773
X0.6915 Y1.9376
X0.6926 Y1.9367
X0.7435 Y1.8953
X0.7446 Y1.8944
X0.7952 Y1.8514
X0.7963 Y1.8505
X0.8466 Y1.8057
X0.8476 Y1.8048
X0.8976 Y1.7584
X0.8986 Y1.7575
X0.9481 Y1.7094
X0.949 Y1.7085
X0.998 Y1.6588
X0.999 Y1.6578
X1.0474 Y1.6066
X1.0483 Y1.6056
X1.0962 Y1.5527
X1.0971 Y1.5517
X1.1443 Y1.4974
X1.1451 Y1.4964
X1.1916 Y1.4405
X1.1924 Y1.4395
X1.2381 Y1.3822
X1.2389 Y1.3811
X1.2837 Y1.3224
X1.2845 Y1.3214
X1.3284 Y1.2613
X1.3291 Y1.2603
X1.372 Y1.199
X1.3728 Y1.1979
X1.4146 Y1.1354
X1.4153 Y1.1343
X1.4561 Y1.0706
X1.4567 Y1.0695
X1.4963 Y1.0048
X1.4969 Y1.0037
X1.5352 Y0.938
X1.5359 Y0.9369
X1.5729 Y0.8703
X1.5735 Y0.8692
X1.6091 Y0.8018
X1.6097 Y0.8007
X1.644 Y0.7326
X1.6445 Y0.7315
X1.6773 Y0.6628
X1.6779 Y0.6617
X1.7092 Y0.5925
X1.7097 Y0.5913
X1.7394 Y0.5218
X1.7399 Y0.5206
X1.7681 Y0.4508
X1.7686 Y0.4496
X1.7952 Y0.3795
X1.7956 Y0.3783
X1.8206 Y0.3081
X1.821 Y0.3069
X1.8444 Y0.2367
X1.8448 Y0.2355
X1.8665 Y0.1653
X1.8669 Y0.1641
X1.8869 Y0.0941
X1.8873 Y0.0928
X1.9057 Y0.0231
X1.906 Y0.0218
X1.9227 Y-0.0476
X1.923 Y-0.0489
X1.9381 Y-0.1179
X1.9384 Y-0.1192
X1.9518 Y-0.1878
X1.9521 Y-0.1892
X1.9639 Y-0.2572
X1.9641 Y-0.2586
X1.9743 Y-0.326
X1.9745 Y-0.3274
X1.9831 Y-0.3943
X1.9832 Y-0.3957
X1.9902 Y-0.4618
X1.9904 Y-0.4632
X1.9958 Y-0.5287
X1.9959 Y-0.5301
X1.9998 Y-0.5948
X1.9999 Y-0.5962
X2.0022 Y-0.6601
X2.0023 Y-0.6615
X2.0031 Y-0.7245
Y-0.726
X2.0025 Y-0.7881
Y-0.7896
X2.0004 Y-0.8508
Y-0.8523
X1.9969 Y-0.9126
X1.9968 Y-0.9141
X1.9919 Y-0.9734
X1.9917 Y-0.9749
X1.9854 Y-1.0332
X1.9853 Y-1.0348
X1.9776 Y-1.092
X1.9774 Y-1.0936
X1.9684 Y-1.1498
X1.9681 Y-1.1514
X1.9579 Y-1.2065
X1.9575 Y-1.2082
X1.946 Y-1.2622
X1.9456 Y-1.2638
X1.9328 Y-1.3168
X1.9324 Y-1.3184
X1.9183 Y-1.3703
X1.9178 Y-1.3719
X1.9026 Y-1.4226
X1.902 Y-1.4243
X1.8856 Y-1.4739
X1.885 Y-1.4755
X1.8674 Y-1.5239
X1.8667 Y-1.5256
X1.848 Y-1.5728
X1.8473 Y-1.5745
X1.8274 Y-1.6205
X1.8266 Y-1.6223
X1.8056 Y-1.6671
X1.8048 Y-1.6688
X1.7827 Y-1.7124
X1.7818 Y-1.7141
X1.7587 Y-1.7565
X1.7577 Y-1.7582
X1.7335 Y-1.7993
X1.7325 Y-1.801
X1.7073 Y-1.8409
X1.7062 Y-1.8426
X1.68 Y-1.8813
X1.6788 Y-1.8829
X1.6516 Y-1.9203
X1.6504 Y-1.922
X1.6223 Y-1.9581
X1.6209 Y-1.9597
X1.5919 Y-1.9945
X1.5905 Y-1.9961
X1.5605 Y-2.0296
X1.559 Y-2.0312
X1.5281 Y-2.0634
X1.5266 Y-2.065
X1.4948 Y-2.0959
X1.4932 Y-2.0974
X1.4606 Y-2.127
X1.4589 Y-2.1284
X1.4254 Y-2.1567
X1.4237 Y-2.1581
X1.3894 Y-2.185
X1.3876 Y-2.1864
X1.3525 Y-2.2119
X1.3506 Y-2.2132
X1.3147 Y-2.2374
X1.3128 Y-2.2386
X1.2761 Y-2.2615
X1.2742 Y-2.2627
X1.2367 Y-2.2841
X1.2354 Y-2.2849
X1.2222 Y-2.292
X1.2209 Y-2.2927
X1.1824 Y-2.3123
X1.1804 Y-2.3133
X1.1412 Y-2.3315
X1.1391 Y-2.3324
X1.0993 Y-2.3492
X1.0972 Y-2.3501
X1.0566 Y-2.3655
X1.0545 Y-2.3662
X1.0133 Y-2.3802
X1.0112 Y-2.3809
X0.9693 Y-2.3934
X0.9672 Y-2.394
X0.9247 Y-2.4051
X0.9226 Y-2.4056
X0.8795 Y-2.4153
X0.8773 Y-2.4157
X0.8336 Y-2.4239
X0.8315 Y-2.4243
X0.7872 Y-2.431
X0.7851 Y-2.4313
X0.7403 Y-2.4365
X0.7382 Y-2.4368
X0.6928 Y-2.4405
X0.6907 Y-2.4407
X0.6448 Y-2.4429
X0.6428 Y-2.443
X0.5964 Y-2.4437
X0.5944
X0.5475 Y-2.443
X0.5455 Y-2.4429
X0.4982 Y-2.4406
X0.4962 Y-2.4405
X0.4721 Y-2.4386
G3 X0.4586 Y-2.45 I-0.001 J-0.0125
G1 X0.4576 Y-2.4625
X0.4574 Y-2.4653 Z-0.0147
X0.4572 Y-2.4679 Z-0.0138
X0.457 Y-2.4703 Z-0.0123
X0.4569 Y-2.4722 Z-0.0103
X0.4567 Y-2.4737 Z-0.0079
Y-2.4746 Z-0.0053
X0.4566 Y-2.4749 Z-0.0025
G0 Z0.1
X0.4816 Y-2.4769
Z0.0394
G1 Z-0.0175 F2
Y-2.4766 Z-0.0203 F20
X0.4817 Y-2.4757 Z-0.0229
X0.4818 Y-2.4742 Z-0.0253
X0.4819 Y-2.4722 Z-0.0273
X0.4821 Y-2.4699 Z-0.0288
X0.4823 Y-2.4673 Z-0.0297
X0.4826 Y-2.4645 Z-0.03
X0.4836 Y-2.452
G3 X0.4721 Y-2.4386 I-0.0125 J0.001
G1 X0.4484 Y-2.4367
X0.4465 Y-2.4365
X0.3983 Y-2.4311
X0.3964 Y-2.4309
X0.3478 Y-2.4239
X0.3459 Y-2.4236
X0.2969 Y-2.4151
X0.2951 Y-2.4148
X0.2457 Y-2.4047
X0.2439 Y-2.4043
X0.1943 Y-2.3926
X0.1925 Y-2.3922
X0.1425 Y-2.3789
X0.1408 Y-2.3784
X0.0905 Y-2.3635
X0.0889 Y-2.363
X0.0383 Y-2.3465
X0.0367 Y-2.346
X-0.0141 Y-2.3278
X-0.0157 Y-2.3272
X-0.0667 Y-2.3075
X-0.0682 Y-2.3068
X-0.1194 Y-2.2854
X-0.1209 Y-2.2848
X-0.1723 Y-2.2617
X-0.1737 Y-2.261
X-0.2252 Y-2.2362
X-0.2267 Y-2.2355
X-0.2783 Y-2.2091
X-0.2796 Y-2.2084
X-0.3313 Y-2.1803
X-0.3326 Y-2.1795
X-0.3843 Y-2.1497
X-0.3856 Y-2.149
X-0.4373 Y-2.1175
X-0.4386 Y-2.1167
X-0.4903 Y-2.0835
X-0.4915 Y-2.0827
X-0.5431 Y-2.0478
X-0.5443 Y-2.047
X-0.5958 Y-2.0104
X-0.5969 Y-2.0095
X-0.6483 Y-1.9712
X-0.6494 Y-1.9704
X-0.7005 Y-1.9304
X-0.7016 Y-1.9295
X-0.7525 Y-1.8878
X-0.7536 Y-1.8869
X-0.8042 Y-1.8436
X-0.8052 Y-1.8427
X-0.8555 Y-1.7976
X-0.8565 Y-1.7967
X-0.9064 Y-1.75
X-0.9073 Y-1.7491
X-0.9568 Y-1.7008
X-0.9577 Y-1.6998
X-1.0066 Y-1.6499
X-1.0076 Y-1.6489
X-1.0559 Y-1.5973
X-1.0568 Y-1.5964
X-1.1046 Y-1.5432
X-1.1055 Y-1.5423
X-1.1525 Y-1.4876
X-1.1534 Y-1.4866
X-1.1997 Y-1.4305
X-1.2005 Y-1.4295
X-1.2461 Y-1.3719
X-1.2469 Y-1.3709
X-1.2915 Y-1.3119
X-1.2923 Y-1.3109
X-1.336 Y-1.2506
X-1.3368 Y-1.2496
X-1.3795 Y-1.188
X-1.3802 Y-1.187
X-1.4219 Y-1.1242
X-1.4226 Y-1.1231
X-1.4631 Y-1.0593
X-1.4638 Y-1.0582
X-1.5031 Y-0.9933
X-1.5038 Y-0.9922
X-1.5419 Y-0.9263
X-1.5425 Y-0.9252
X-1.5793 Y-0.8585
X-1.5799 Y-0.8574
X-1.6153 Y-0.7899
X-1.6159 Y-0.7887
X-1.6499 Y-0.7206
X-1.6504 Y-0.7194
X-1.6829 Y-0.6507
X-1.6835 Y-0.6495
X-1.7145 Y-0.5803
X-1.715 Y-0.5791
X-1.7445 Y-0.5095
X-1.745 Y-0.5083
X-1.7729 Y-0.4384
X-1.7734 Y-0.4372
X-1.7997 Y-0.3671
X-1.8002 Y-0.3659
X-1.8249 Y-0.2957
X-1.8253 Y-0.2945
X-1.8483 Y-0.2243
X-1.8487 Y-0.2231
X-1.8701 Y-0.153
X-1.8705 Y-0.1517
X-1.8903 Y-0.0818
X-1.8906 Y-0.0805
X-1.9087 Y-0.0108
X-1.9091 Y-0.0096
X-1.9255 Y0.0598
X-1.9258 Y0.0611
X-1.9406 Y0.1301
X-1.9409 Y0.1314
X-1.954 Y0.1999
X-1.9543 Y0.2012
X-1.9658 Y0.2692
X-1.966 Y0.2705
X-1.9759 Y0.3379
X-1.9761 Y0.3393
X-1.9844 Y0.406
X-1.9846 Y0.4074
X-1.9913 Y0.4735
X-1.9914 Y0.4749
X-1.9966 Y0.5402
X-1.9967 Y0.5416
X-2.0003 Y0.6061
X-2.0004 Y0.6076
X-2.0025 Y0.6713
Y0.6727
X-2.0031 Y0.7356
Y0.7371
X-2.0023 Y0.799
X-2.0022 Y0.8005
X-1.9999 Y0.8616
X-1.9998 Y0.8631
X-1.9961 Y0.9232
X-1.996 Y0.9247
X-1.9909 Y0.9838
X-1.9907 Y0.9854
X-1.9842 Y1.0435
X-1.984 Y1.045
X-1.9761 Y1.1021
X-1.9759 Y1.1037
X-1.9667 Y1.1597
X-1.9664 Y1.1613
X-1.9559 Y1.2163
X-1.9556 Y1.2179
X-1.9438 Y1.2717
X-1.9434 Y1.2734
X-1.9304 Y1.3261
X-1.9299 Y1.3278
X-1.9157 Y1.3794
X-1.9152 Y1.3811
X-1.8997 Y1.4316
X-1.8992 Y1.4333
X-1.8825 Y1.4826
X-1.8819 Y1.4843
X-1.8641 Y1.5325
X-1.8634 Y1.5342
X-1.8445 Y1.5812
X-1.8438 Y1.5829
X-1.8237 Y1.6287
X-1.8229 Y1.6304
X-1.8017 Y1.675
X-1.8009 Y1.6767
X-1.7786 Y1.7201
X-1.7777 Y1.7218
X-1.7544 Y1.764
X-1.7534 Y1.7657
X-1.729 Y1.8066
X-1.728 Y1.8083
X-1.7026 Y1.848
X-1.7015 Y1.8497
X-1.6751 Y1.8881
X-1.674 Y1.8898
X-1.6466 Y1.9269
X-1.6454 Y1.9286
X-1.6171 Y1.9645
X-1.6157 Y1.9661
X-1.5865 Y2.0007
X-1.5851 Y2.0023
X-1.5549 Y2.0356
X-1.5535 Y2.0372
X-1.5224 Y2.0692
X-1.5209 Y2.0707
X-1.489 Y2.1014
X-1.4873 Y2.1029
X-1.4546 Y2.1322
X-1.4529 Y2.1337
X-1.4192 Y2.1617
X-1.4175 Y2.1631
X-1.383 Y2.1898
X-1.3812 Y2.1911
X-1.346 Y2.2164
X-1.3441 Y2.2177
X-1.3081 Y2.2417
X-1.3062 Y2.2429
X-1.2693 Y2.2655
X-1.2674 Y2.2667
X-1.2298 Y2.2879
X-1.2278 Y2.289
X-1.1895 Y2.3088
X-1.1874 Y2.3098
X-1.1484 Y2.3283
X-1.1463 Y2.3292
X-1.1066 Y2.3463
X-1.1045 Y2.3471
X-1.0641 Y2.3628
X-1.062 Y2.3635
X-1.0209 Y2.3778
X-1.0187 Y2.3784
X-0.977 Y2.3912
X-0.9749 Y2.3919
X-0.9325 Y2.4032
X-0.9303 Y2.4037
X-0.8873 Y2.4136
X-0.8852 Y2.4141
X-0.8416 Y2.4225
X-0.8395 Y2.4229
X-0.7953 Y2.4299
X-0.7932 Y2.4302
X-0.7485 Y2.4357
X-0.7464 Y2.4359
X-0.7011 Y2.4399
X-0.699 Y2.4401
X-0.6532 Y2.4426
X-0.6511 Y2.4427
X-0.6048 Y2.4437
X-0.6028
X-0.556 Y2.4432
X-0.554
X-0.5067 Y2.4411
X-0.5048 Y2.441
X-0.457 Y2.4375
X-0.4551 Y2.4373
X-0.407 Y2.4322
X-0.4051 Y2.4319
X-0.3565 Y2.4253
X-0.3547 Y2.425
X-0.3057 Y2.4168
X-0.3039 Y2.4164
X-0.2546 Y2.4066
X-0.2528 Y2.4062
X-0.2032 Y2.3948
X-0.2015 Y2.3944
X-0.1515 Y2.3814
X-0.1498 Y2.3809
X-0.0996 Y2.3663
X-0.0979 Y2.3658
X-0.0474 Y2.3496
X-0.0458 Y2.349
X0.005 Y2.3312
X0.0066 Y2.3306
X0.0576 Y2.3111
X0.0591 Y2.3105
X0.1103 Y2.2893
X0.1118 Y2.2887
X0.1631 Y2.2659
X0.1646 Y2.2652
X0.2161 Y2.2408
X0.2175 Y2.2401
X0.2691 Y2.2139
X0.2704 Y2.2132
X0.3221 Y2.1854
X0.3234 Y2.1846
X0.3751 Y2.1551
X0.3764 Y2.1544
X0.4281 Y2.1232
X0.4294 Y2.1224
X0.4811 Y2.0895
X0.4823 Y2.0887
X0.5339 Y2.0541
X0.5351 Y2.0533
X0.5866 Y2.017
X0.5878 Y2.0161
X0.6392 Y1.9781
X0.6403 Y1.9773
X0.6915 Y1.9376
X0.6926 Y1.9367
X0.7435 Y1.8953
X0.7446 Y1.8944
X0.7952 Y1.8514
X0.7963 Y1.8505
X0.8466 Y1.8057
X0.8476 Y1.8048
X0.8976 Y1.7584
X0.8986 Y1.7575
X0.9481 Y1.7094
X0.949 Y1.7085
X0.998 Y1.6588
X0.999 Y1.6578
X1.0474 Y1.6066
X1.0483 Y1.6056
X1.0962 Y1.5527
X1.0971 Y1.5517
X1.1443 Y1.4974
X1.1451 Y1.4964
X1.1916 Y1.4405
X1.1924 Y1.4395
X1.2381 Y1.3822
X1.2389 Y1.3811
X1.2837 Y1.3224
X1.2845 Y1.3214
X1.3284 Y1.2613
X1.3291 Y1.2603
X1.372 Y1.199
X1.3728 Y1.1979
X1.4146 Y1.1354
X1.4153 Y1.1343
X1.4561 Y1.0706
X1.4567 Y1.0695
X1.4963 Y1.0048
X1.4969 Y1.0037
X1.5352 Y0.938
X1.5359 Y0.9369
X1.5729 Y0.8703
X1.5735 Y0.8692
X1.6091 Y0.8018
X1.6097 Y0.8007
X1.644 Y0.7326
X1.6445 Y0.7315
X1.6773 Y0.6628
X1.6779 Y0.6617
X1.7092 Y0.5925
X1.7097 Y0.5913
X1.7394 Y0.5218
X1.7399 Y0.5206
X1.7681 Y0.4508
X1.7686 Y0.4496
X1.7952 Y0.3795
X1.7956 Y0.3783
X1.8206 Y0.3081
X1.821 Y0.3069
X1.8444 Y0.2367
X1.8448 Y0.2355
X1.8665 Y0.1653
X1.8669 Y0.1641
X1.8869 Y0.0941
X1.8873 Y0.0928
X1.9057 Y0.0231
X1.906 Y0.0218
X1.9227 Y-0.0476
X1.923 Y-0.0489
X1.9381 Y-0.1179
X1.9384 Y-0.1192
X1.9518 Y-0.1878
X1.9521 Y-0.1892
X1.9639 Y-0.2572
X1.9641 Y-0.2586
X1.9743 Y-0.326
X1.9745 Y-0.3274
X1.9831 Y-0.3943
X1.9832 Y-0.3957
X1.9902 Y-0.4618
X1.9904 Y-0.4632
X1.9958 Y-0.5287
X1.9959 Y-0.5301
X1.9998 Y-0.5948
X1.9999 Y-0.5962
X2.0022 Y-0.6601
X2.0023 Y-0.6615
X2.0031 Y-0.7245
Y-0.726
X2.0025 Y-0.7881
Y-0.7896
X2.0004 Y-0.8508
Y-0.8523
X1.9969 Y-0.9126
X1.9968 Y-0.9141
X1.9919 Y-0.9734
X1.9917 Y-0.9749
X1.9854 Y-1.0332
X1.9853 Y-1.0348
X1.9776 Y-1.092
X1.9774 Y-1.0936
X1.9684 Y-1.1498
X1.9681 Y-1.1514
X1.9579 Y-1.2065
X1.9575 Y-1.2082
X1.946 Y-1.2622
X1.9456 Y-1.2638
X1.9328 Y-1.3168
X1.9324 Y-1.3184
X1.9183 Y-1.3703
X1.9178 Y-1.3719
X1.9026 Y-1.4226
X1.902 Y-1.4243
X1.8856 Y-1.4739
X1.885 Y-1.4755
X1.8674 Y-1.5239
X1.8667 Y-1.5256
X1.848 Y-1.5728
X1.8473 Y-1.5745
X1.8274 Y-1.6205
X1.8266 Y-1.6223
X1.8056 Y-1.6671
X1.8048 Y-1.6688
X1.7827 Y-1.7124
X1.7818 Y-1.7141
X1.7587 Y-1.7565
X1.7577 Y-1.7582
X1.7335 Y-1.7993
X1.7325 Y-1.801
X1.7073 Y-1.8409
X1.7062 Y-1.8426
X1.68 Y-1.8813
X1.6788 Y-1.8829
X1.6516 Y-1.9203
X1.6504 Y-1.922
X1.6223 Y-1.9581
X1.6209 Y-1.9597
X1.5919 Y-1.9945
X1.5905 Y-1.9961
X1.5605 Y-2.0296
X1.559 Y-2.0312
X1.5281 Y-2.0634
X1.5266 Y-2.065
X1.4948 Y-2.0959
X1.4932 Y-2.0974
X1.4606 Y-2.127
X1.4589 Y-2.1284
X1.4254 Y-2.1567
X1.4237 Y-2.1581
X1.3894 Y-2.185
X1.3876 Y-2.1864
X1.3525 Y-2.2119
X1.3506 Y-2.2132
X1.3147 Y-2.2374
X1.3128 Y-2.2386
X1.2761 Y-2.2615
X1.2742 Y-2.2627
X1.2367 Y-2.2841
X1.2354 Y-2.2849
X1.2222 Y-2.292
X1.2209 Y-2.2927
X1.1824 Y-2.3123
X1.1804 Y-2.3133
X1.1412 Y-2.3315
X1.1391 Y-2.3324
X1.0993 Y-2.3492
X1.0972 Y-2.3501
X1.0566 Y-2.3655
X1.0545 Y-2.3662
X1.0133 Y-2.3802
X1.0112 Y-2.3809
X0.9693 Y-2.3934
X0.9672 Y-2.394
X0.9247 Y-2.4051
X0.9226 Y-2.4056
X0.8795 Y-2.4153
X0.8773 Y-2.4157
X0.8336 Y-2.4239
X0.8315 Y-2.4243
X0.7872 Y-2.431
X0.7851 Y-2.4313
X0.7403 Y-2.4365
X0.7382 Y-2.4368
X0.6928 Y-2.4405
X0.6907 Y-2.4407
X0.6448 Y-2.4429
X0.6428 Y-2.443
X0.5964 Y-2.4437
X0.5944
X0.5475 Y-2.443
X0.5455 Y-2.4429
X0.4982 Y-2.4406
X0.4962 Y-2.4405
X0.4721 Y-2.4386
G3 X0.4586 Y-2.45 I-0.001 J-0.0125
G1 X0.4576 Y-2.4625
X0.4574 Y-2.4653 Z-0.0297
X0.4572 Y-2.4679 Z-0.0288
X0.457 Y-2.4703 Z-0.0273
X0.4569 Y-2.4722 Z-0.0253
X0.4567 Y-2.4737 Z-0.0229
Y-2.4746 Z-0.0203
X0.4566 Y-2.4749 Z-0.0175
G0 Z0.1
X0.4816 Y-2.4769
Z0.0244
G1 Z-0.0325 F2
Y-2.4766 Z-0.0353 F20
X0.4817 Y-2.4757 Z-0.0379
X0.4818 Y-2.4742 Z-0.0403
X0.4819 Y-2.4722 Z-0.0423
X0.4821 Y-2.4699 Z-0.0438
X0.4823 Y-2.4673 Z-0.0447
X0.4826 Y-2.4645 Z-0.045
X0.4836 Y-2.452
G3 X0.4721 Y-2.4386 I-0.0125 J0.001
G1 X0.4484 Y-2.4367
X0.4465 Y-2.4365
X0.3983 Y-2.4311
X0.3964 Y-2.4309
X0.3478 Y-2.4239
X0.3459 Y-2.4236
X0.2969 Y-2.4151
X0.2951 Y-2.4148
X0.2457 Y-2.4047
X0.2439 Y-2.4043
X0.1943 Y-2.3926
X0.1925 Y-2.3922
X0.1425 Y-2.3789
X0.1408 Y-2.3784
X0.0905 Y-2.3635
X0.0889 Y-2.363
X0.0383 Y-2.3465
X0.0367 Y-2.346
X-0.0141 Y-2.3278
X-0.0157 Y-2.3272
X-0.0667 Y-2.3075
X-0.0682 Y-2.3068
X-0.1194 Y-2.2854
X-0.1209 Y-2.2848
X-0.1723 Y-2.2617
X-0.1737 Y-2.261
X-0.2252 Y-2.2362
X-0.2267 Y-2.2355
X-0.2783 Y-2.2091
X-0.2796 Y-2.2084
X-0.3313 Y-2.1803
X-0.3326 Y-2.1795
X-0.3843 Y-2.1497
X-0.3856 Y-2.149
X-0.4373 Y-2.1175
X-0.4386 Y-2.1167
X-0.4903 Y-2.0835
X-0.4915 Y-2.0827
X-0.5431 Y-2.0478
X-0.5443 Y-2.047
X-0.5958 Y-2.0104
X-0.5969 Y-2.0095
X-0.6483 Y-1.9712
X-0.6494 Y-1.9704
X-0.7005 Y-1.9304
X-0.7016 Y-1.9295
X-0.7525 Y-1.8878
X-0.7536 Y-1.8869
X-0.8042 Y-1.8436
X-0.8052 Y-1.8427
X-0.8555 Y-1.7976
X-0.8565 Y-1.7967
X-0.9064 Y-1.75
X-0.9073 Y-1.7491
X-0.9568 Y-1.7008
X-0.9577 Y-1.6998
X-1.0066 Y-1.6499
X-1.0076 Y-1.6489
X-1.0559 Y-1.5973
X-1.0568 Y-1.5964
X-1.1046 Y-1.5432
X-1.1055 Y-1.5423
X-1.1525 Y-1.4876
X-1.1534 Y-1.4866
X-1.1997 Y-1.4305
X-1.2005 Y-1.4295
X-1.2461 Y-1.3719
X-1.2469 Y-1.3709
X-1.2915 Y-1.3119
X-1.2923 Y-1.3109
X-1.336 Y-1.2506
X-1.3368 Y-1.2496
X-1.3795 Y-1.188
X-1.3802 Y-1.187
X-1.4219 Y-1.1242
X-1.4226 Y-1.1231
X-1.4631 Y-1.0593
X-1.4638 Y-1.0582
X-1.5031 Y-0.9933
X-1.5038 Y-0.9922
X-1.5419 Y-0.9263
X-1.5425 Y-0.9252
X-1.5793 Y-0.8585
X-1.5799 Y-0.8574
X-1.6153 Y-0.7899
X-1.6159 Y-0.7887
X-1.6499 Y-0.7206
X-1.6504 Y-0.7194
X-1.6829 Y-0.6507
X-1.6835 Y-0.6495
X-1.7145 Y-0.5803
X-1.715 Y-0.5791
X-1.7445 Y-0.5095
X-1.745 Y-0.5083
X-1.7729 Y-0.4384
X-1.7734 Y-0.4372
X-1.7997 Y-0.3671
X-1.8002 Y-0.3659
X-1.8249 Y-0.2957
X-1.8253 Y-0.2945
X-1.8483 Y-0.2243
X-1.8487 Y-0.2231
X-1.8701 Y-0.153
X-1.8705 Y-0.1517
X-1.8903 Y-0.0818
X-1.8906 Y-0.0805
X-1.9087 Y-0.0108
X-1.9091 Y-0.0096
X-1.9255 Y0.0598
X-1.9258 Y0.0611
X-1.9406 Y0.1301
X-1.9409 Y0.1314
X-1.954 Y0.1999
X-1.9543 Y0.2012
X-1.9658 Y0.2692
X-1.966 Y0.2705
X-1.9759 Y0.3379
X-1.9761 Y0.3393
X-1.9844 Y0.406
X-1.9846 Y0.4074
X-1.9913 Y0.4735
X-1.9914 Y0.4749
X-1.9966 Y0.5402
X-1.9967 Y0.5416
X-2.0003 Y0.6061
X-2.0004 Y0.6076
X-2.0025 Y0.6713
Y0.6727
X-2.0031 Y0.7356
Y0.7371
X-2.0023 Y0.799
X-2.0022 Y0.8005
X-1.9999 Y0.8616
X-1.9998 Y0.8631
X-1.9961 Y0.9232
X-1.996 Y0.9247
X-1.9909 Y0.9838
X-1.9907 Y0.9854
X-1.9842 Y1.0435
X-1.984 Y1.045
X-1.9761 Y1.1021
X-1.9759 Y1.1037
X-1.9667 Y1.1597
X-1.9664 Y1.1613
X-1.9559 Y1.2163
X-1.9556 Y1.2179
X-1.9438 Y1.2717
X-1.9434 Y1.2734
X-1.9304 Y1.3261
X-1.9299 Y1.3278
X-1.9157 Y1.3794
X-1.9152 Y1.3811
X-1.8997 Y1.4316
X-1.8992 Y1.4333
X-1.8825 Y1.4826
X-1.8819 Y1.4843
X-1.8641 Y1.5325
X-1.8634 Y1.5342
X-1.8445 Y1.5812
X-1.8438 Y1.5829
X-1.8237 Y1.6287
X-1.8229 Y1.6304
X-1.8017 Y1.675
X-1.8009 Y1.6767
X-1.7786 Y1.7201
X-1.7777 Y1.7218
X-1.7544 Y1.764
X-1.7534 Y1.7657
X-1.729 Y1.8066
X-1.728 Y1.8083
X-1.7026 Y1.848
X-1.7015 Y1.8497
X-1.6751 Y1.8881
X-1.674 Y1.8898
X-1.6466 Y1.9269
X-1.6454 Y1.9286
X-1.6171 Y1.9645
X-1.6157 Y1.9661
X-1.5865 Y2.0007
X-1.5851 Y2.0023
X-1.5549 Y2.0356
X-1.5535 Y2.0372
X-1.5224 Y2.0692
X-1.5209 Y2.0707
X-1.489 Y2.1014
X-1.4873 Y2.1029
X-1.4546 Y2.1322
X-1.4529 Y2.1337
X-1.4192 Y2.1617
X-1.4175 Y2.1631
X-1.383 Y2.1898
X-1.3812 Y2.1911
X-1.346 Y2.2164
X-1.3441 Y2.2177
X-1.3081 Y2.2417
X-1.3062 Y2.2429
X-1.2693 Y2.2655
X-1.2674 Y2.2667
X-1.2298 Y2.2879
X-1.2278 Y2.289
X-1.1895 Y2.3088
X-1.1874 Y2.3098
X-1.1484 Y2.3283
X-1.1463 Y2.3292
X-1.1066 Y2.3463
X-1.1045 Y2.3471
X-1.0641 Y2.3628
X-1.062 Y2.3635
X-1.0209 Y2.3778
X-1.0187 Y2.3784
X-0.977 Y2.3912
X-0.9749 Y2.3919
X-0.9325 Y2.4032
X-0.9303 Y2.4037
X-0.8873 Y2.4136
X-0.8852 Y2.4141
X-0.8416 Y2.4225
X-0.8395 Y2.4229
X-0.7953 Y2.4299
X-0.7932 Y2.4302
X-0.7485 Y2.4357
X-0.7464 Y2.4359
X-0.7011 Y2.4399
X-0.699 Y2.4401
X-0.6532 Y2.4426
X-0.6511 Y2.4427
X-0.6048 Y2.4437
X-0.6028
X-0.556 Y2.4432
X-0.554
X-0.5067 Y2.4411
X-0.5048 Y2.441
X-0.457 Y2.4375
X-0.4551 Y2.4373
X-0.407 Y2.4322
X-0.4051 Y2.4319
X-0.3565 Y2.4253
X-0.3547 Y2.425
X-0.3057 Y2.4168
X-0.3039 Y2.4164
X-0.2546 Y2.4066
X-0.2528 Y2.4062
X-0.2032 Y2.3948
X-0.2015 Y2.3944
X-0.1515 Y2.3814
X-0.1498 Y2.3809
X-0.0996 Y2.3663
X-0.0979 Y2.3658
X-0.0474 Y2.3496
X-0.0458 Y2.349
X0.005 Y2.3312
X0.0066 Y2.3306
X0.0576 Y2.3111
X0.0591 Y2.3105
X0.1103 Y2.2893
X0.1118 Y2.2887
X0.1631 Y2.2659
X0.1646 Y2.2652
X0.2161 Y2.2408
X0.2175 Y2.2401
X0.2691 Y2.2139
X0.2704 Y2.2132
X0.3221 Y2.1854
X0.3234 Y2.1846
X0.3751 Y2.1551
X0.3764 Y2.1544
X0.4281 Y2.1232
X0.4294 Y2.1224
X0.4811 Y2.0895
X0.4823 Y2.0887
X0.5339 Y2.0541
X0.5351 Y2.0533
X0.5866 Y2.017
X0.5878 Y2.0161
X0.6392 Y1.9781
X0.6403 Y1.9773
X0.6915 Y1.9376
X0.6926 Y1.9367
X0.7435 Y1.8953
X0.7446 Y1.8944
X0.7952 Y1.8514
X0.7963 Y1.8505
X0.8466 Y1.8057
X0.8476 Y1.8048
X0.8976 Y1.7584
X0.8986 Y1.7575
X0.9481 Y1.7094
X0.949 Y1.7085
X0.998 Y1.6588
X0.999 Y1.6578
X1.0474 Y1.6066
X1.0483 Y1.6056
X1.0962 Y1.5527
X1.0971 Y1.5517
X1.1443 Y1.4974
X1.1451 Y1.4964
X1.1916 Y1.4405
X1.1924 Y1.4395
X1.2381 Y1.3822
X1.2389 Y1.3811
X1.2837 Y1.3224
X1.2845 Y1.3214
X1.3284 Y1.2613
X1.3291 Y1.2603
X1.372 Y1.199
X1.3728 Y1.1979
X1.4146 Y1.1354
X1.4153 Y1.1343
X1.4561 Y1.0706
X1.4567 Y1.0695
X1.4963 Y1.0048
X1.4969 Y1.0037
X1.5352 Y0.938
X1.5359 Y0.9369
X1.5729 Y0.8703
X1.5735 Y0.8692
X1.6091 Y0.8018
X1.6097 Y0.8007
X1.644 Y0.7326
X1.6445 Y0.7315
X1.6773 Y0.6628
X1.6779 Y0.6617
X1.7092 Y0.5925
X1.7097 Y0.5913
X1.7394 Y0.5218
X1.7399 Y0.5206
X1.7681 Y0.4508
X1.7686 Y0.4496
X1.7952 Y0.3795
X1.7956 Y0.3783
X1.8206 Y0.3081
X1.821 Y0.3069
X1.8444 Y0.2367
X1.8448 Y0.2355
X1.8665 Y0.1653
X1.8669 Y0.1641
X1.8869 Y0.0941
X1.8873 Y0.0928
X1.9057 Y0.0231
X1.906 Y0.0218
X1.9227 Y-0.0476
X1.923 Y-0.0489
X1.9381 Y-0.1179
X1.9384 Y-0.1192
X1.9518 Y-0.1878
X1.9521 Y-0.1892
X1.9639 Y-0.2572
X1.9641 Y-0.2586
X1.9743 Y-0.326
X1.9745 Y-0.3274
X1.9831 Y-0.3943
X1.9832 Y-0.3957
X1.9902 Y-0.4618
X1.9904 Y-0.4632
X1.9958 Y-0.5287
X1.9959 Y-0.5301
X1.9998 Y-0.5948
X1.9999 Y-0.5962
X2.0022 Y-0.6601
X2.0023 Y-0.6615
X2.0031 Y-0.7245
Y-0.726
X2.0025 Y-0.7881
Y-0.7896
X2.0004 Y-0.8508
Y-0.8523
X1.9969 Y-0.9126
X1.9968 Y-0.9141
X1.9919 Y-0.9734
X1.9917 Y-0.9749
X1.9854 Y-1.0332
X1.9853 Y-1.0348
X1.9776 Y-1.092
X1.9774 Y-1.0936
X1.9684 Y-1.1498
X1.9681 Y-1.1514
X1.9579 Y-1.2065
X1.9575 Y-1.2082
X1.946 Y-1.2622
X1.9456 Y-1.2638
X1.9328 Y-1.3168
X1.9324 Y-1.3184
X1.9183 Y-1.3703
X1.9178 Y-1.3719
X1.9026 Y-1.4226
X1.902 Y-1.4243
X1.8856 Y-1.4739
X1.885 Y-1.4755
X1.8674 Y-1.5239
X1.8667 Y-1.5256
X1.848 Y-1.5728
X1.8473 Y-1.5745
X1.8274 Y-1.6205
X1.8266 Y-1.6223
X1.8056 Y-1.6671
X1.8048 Y-1.6688
X1.7827 Y-1.7124
X1.7818 Y-1.7141
X1.7587 Y-1.7565
X1.7577 Y-1.7582
X1.7335 Y-1.7993
X1.7325 Y-1.801
X1.7073 Y-1.8409
X1.7062 Y-1.8426
X1.68 Y-1.8813
X1.6788 Y-1.8829
X1.6516 Y-1.9203
X1.6504 Y-1.922
X1.6223 Y-1.9581
X1.6209 Y-1.9597
X1.5919 Y-1.9945
X1.5905 Y-1.9961
X1.5605 Y-2.0296
X1.559 Y-2.0312
X1.5281 Y-2.0634
X1.5266 Y-2.065
X1.4948 Y-2.0959
X1.4932 Y-2.0974
X1.4606 Y-2.127
X1.4589 Y-2.1284
X1.4254 Y-2.1567
X1.4237 Y-2.1581
X1.3894 Y-2.185
X1.3876 Y-2.1864
X1.3525 Y-2.2119
X1.3506 Y-2.2132
X1.3147 Y-2.2374
X1.3128 Y-2.2386
X1.2761 Y-2.2615
X1.2742 Y-2.2627
X1.2367 Y-2.2841
X1.2354 Y-2.2849
X1.2222 Y-2.292
X1.2209 Y-2.2927
X1.1824 Y-2.3123
X1.1804 Y-2.3133
X1.1412 Y-2.3315
X1.1391 Y-2.3324
X1.0993 Y-2.3492
X1.0972 Y-2.3501
X1.0566 Y-2.3655
X1.0545 Y-2.3662
X1.0133 Y-2.3802
X1.0112 Y-2.3809
X0.9693 Y-2.3934
X0.9672 Y-2.394
X0.9247 Y-2.4051
X0.9226 Y-2.4056
X0.8795 Y-2.4153
X0.8773 Y-2.4157
X0.8336 Y-2.4239
X0.8315 Y-2.4243
X0.7872 Y-2.431
X0.7851 Y-2.4313
X0.7403 Y-2.4365
X0.7382 Y-2.4368
X0.6928 Y-2.4405
X0.6907 Y-2.4407
X0.6448 Y-2.4429
X0.6428 Y-2.443
X0.5964 Y-2.4437
X0.5944
X0.5475 Y-2.443
X0.5455 Y-2.4429
X0.4982 Y-2.4406
X0.4962 Y-2.4405
X0.4721 Y-2.4386
G3 X0.4586 Y-2.45 I-0.001 J-0.0125
G1 X0.4576 Y-2.4625
X0.4574 Y-2.4653 Z-0.0447
X0.4572 Y-2.4679 Z-0.0438
X0.457 Y-2.4703 Z-0.0423
X0.4569 Y-2.4722 Z-0.0403
X0.4567 Y-2.4737 Z-0.0379
Y-2.4746 Z-0.0353
X0.4566 Y-2.4749 Z-0.0325
G0 Z0.1
X0.4816 Y-2.4769
Z0.02
G1 Z0.0094 F2
Z-0.0475
Y-2.4766 Z-0.0503 F20
X0.4817 Y-2.4757 Z-0.0529
X0.4818 Y-2.4742 Z-0.0553
X0.4819 Y-2.4722 Z-0.0573
X0.4821 Y-2.4699 Z-0.0588
X0.4823 Y-2.4673 Z-0.0597
X0.4826 Y-2.4645 Z-0.06
X0.4836 Y-2.452
G3 X0.4721 Y-2.4386 I-0.0125 J0.001
G1 X0.4484 Y-2.4367
X0.4465 Y-2.4365
X0.3983 Y-2.4311
X0.3964 Y-2.4309
X0.3478 Y-2.4239
X0.3459 Y-2.4236
X0.2969 Y-2.4151
X0.2951 Y-2.4148
X0.2457 Y-2.4047
X0.2439 Y-2.4043
X0.1943 Y-2.3926
X0.1925 Y-2.3922
X0.1425 Y-2.3789
X0.1408 Y-2.3784
X0.0905 Y-2.3635
X0.0889 Y-2.363
X0.0383 Y-2.3465
X0.0367 Y-2.346
X-0.0141 Y-2.3278
X-0.0157 Y-2.3272
X-0.0667 Y-2.3075
X-0.0682 Y-2.3068
X-0.1194 Y-2.2854
X-0.1209 Y-2.2848
X-0.1723 Y-2.2617
X-0.1737 Y-2.261
X-0.2252 Y-2.2362
X-0.2267 Y-2.2355
X-0.2783 Y-2.2091
X-0.2796 Y-2.2084
X-0.3313 Y-2.1803
X-0.3326 Y-2.1795
X-0.3843 Y-2.1497
X-0.3856 Y-2.149
X-0.4373 Y-2.1175
X-0.4386 Y-2.1167
X-0.4903 Y-2.0835
X-0.4915 Y-2.0827
X-0.5431 Y-2.0478
X-0.5443 Y-2.047
X-0.5958 Y-2.0104
X-0.5969 Y-2.0095
X-0.6483 Y-1.9712
X-0.6494 Y-1.9704
X-0.7005 Y-1.9304
X-0.7016 Y-1.9295
X-0.7525 Y-1.8878
X-0.7536 Y-1.8869
X-0.8042 Y-1.8436
X-0.8052 Y-1.8427
X-0.8555 Y-1.7976
X-0.8565 Y-1.7967
X-0.9064 Y-1.75
X-0.9073 Y-1.7491
X-0.9568 Y-1.7008
X-0.9577 Y-1.6998
X-1.0066 Y-1.6499
X-1.0076 Y-1.6489
X-1.0559 Y-1.5973
X-1.0568 Y-1.5964
X-1.1046 Y-1.5432
X-1.1055 Y-1.5423
X-1.1525 Y-1.4876
X-1.1534 Y-1.4866
X-1.1997 Y-1.4305
X-1.2005 Y-1.4295
X-1.2461 Y-1.3719
X-1.2469 Y-1.3709
X-1.2915 Y-1.3119
X-1.2923 Y-1.3109
X-1.336 Y-1.2506
X-1.3368 Y-1.2496
X-1.3795 Y-1.188
X-1.3802 Y-1.187
X-1.4219 Y-1.1242
X-1.4226 Y-1.1231
X-1.4631 Y-1.0593
X-1.4638 Y-1.0582
X-1.5031 Y-0.9933
X-1.5038 Y-0.9922
X-1.5419 Y-0.9263
X-1.5425 Y-0.9252
X-1.5793 Y-0.8585
X-1.5799 Y-0.8574
X-1.6153 Y-0.7899
X-1.6159 Y-0.7887
X-1.6499 Y-0.7206
X-1.6504 Y-0.7194
X-1.6829 Y-0.6507
X-1.6835 Y-0.6495
X-1.7145 Y-0.5803
X-1.715 Y-0.5791
X-1.7445 Y-0.5095
X-1.745 Y-0.5083
X-1.7729 Y-0.4384
X-1.7734 Y-0.4372
X-1.7997 Y-0.3671
X-1.8002 Y-0.3659
X-1.8249 Y-0.2957
X-1.8253 Y-0.2945
X-1.8483 Y-0.2243
X-1.8487 Y-0.2231
X-1.8701 Y-0.153
X-1.8705 Y-0.1517
X-1.8903 Y-0.0818
X-1.8906 Y-0.0805
X-1.9087 Y-0.0108
X-1.9091 Y-0.0096
X-1.9255 Y0.0598
X-1.9258 Y0.0611
X-1.9406 Y0.1301
X-1.9409 Y0.1314
X-1.954 Y0.1999
X-1.9543 Y0.2012
X-1.9658 Y0.2692
X-1.966 Y0.2705
X-1.9759 Y0.3379
X-1.9761 Y0.3393
X-1.9844 Y0.406
X-1.9846 Y0.4074
X-1.9913 Y0.4735
X-1.9914 Y0.4749
X-1.9966 Y0.5402
X-1.9967 Y0.5416
X-2.0003 Y0.6061
X-2.0004 Y0.6076
X-2.0025 Y0.6713
Y0.6727
X-2.0031 Y0.7356
Y0.7371
X-2.0023 Y0.799
X-2.0022 Y0.8005
X-1.9999 Y0.8616
X-1.9998 Y0.8631
X-1.9961 Y0.9232
X-1.996 Y0.9247
X-1.9909 Y0.9838
X-1.9907 Y0.9854
X-1.9842 Y1.0435
X-1.984 Y1.045
X-1.9761 Y1.1021
X-1.9759 Y1.1037
X-1.9667 Y1.1597
X-1.9664 Y1.1613
X-1.9559 Y1.2163
X-1.9556 Y1.2179
X-1.9438 Y1.2717
X-1.9434 Y1.2734
X-1.9304 Y1.3261
X-1.9299 Y1.3278
X-1.9157 Y1.3794
X-1.9152 Y1.3811
X-1.8997 Y1.4316
X-1.8992 Y1.4333
X-1.8825 Y1.4826
X-1.8819 Y1.4843
X-1.8641 Y1.5325
X-1.8634 Y1.5342
X-1.8445 Y1.5812
X-1.8438 Y1.5829
X-1.8237 Y1.6287
X-1.8229 Y1.6304
X-1.8017 Y1.675
X-1.8009 Y1.6767
X-1.7786 Y1.7201
X-1.7777 Y1.7218
X-1.7544 Y1.764
X-1.7534 Y1.7657
X-1.729 Y1.8066
X-1.728 Y1.8083
X-1.7026 Y1.848
X-1.7015 Y1.8497
X-1.6751 Y1.8881
X-1.674 Y1.8898
X-1.6466 Y1.9269
X-1.6454 Y1.9286
X-1.6171 Y1.9645
X-1.6157 Y1.9661
X-1.5865 Y2.0007
X-1.5851 Y2.0023
X-1.5549 Y2.0356
X-1.5535 Y2.0372
X-1.5224 Y2.0692
X-1.5209 Y2.0707
X-1.489 Y2.1014
X-1.4873 Y2.1029
X-1.4546 Y2.1322
X-1.4529 Y2.1337
X-1.4192 Y2.1617
X-1.4175 Y2.1631
X-1.383 Y2.1898
X-1.3812 Y2.1911
X-1.346 Y2.2164
X-1.3441 Y2.2177
X-1.3081 Y2.2417
X-1.3062 Y2.2429
X-1.2693 Y2.2655
X-1.2674 Y2.2667
X-1.2298 Y2.2879
X-1.2278 Y2.289
X-1.1895 Y2.3088
X-1.1874 Y2.3098
X-1.1484 Y2.3283
X-1.1463 Y2.3292
X-1.1066 Y2.3463
X-1.1045 Y2.3471
X-1.0641 Y2.3628
X-1.062 Y2.3635
X-1.0209 Y2.3778
X-1.0187 Y2.3784
X-0.977 Y2.3912
X-0.9749 Y2.3919
X-0.9325 Y2.4032
X-0.9303 Y2.4037
X-0.8873 Y2.4136
X-0.8852 Y2.4141
X-0.8416 Y2.4225
X-0.8395 Y2.4229
X-0.7953 Y2.4299
X-0.7932 Y2.4302
X-0.7485 Y2.4357
X-0.7464 Y2.4359
X-0.7011 Y2.4399
X-0.699 Y2.4401
X-0.6532 Y2.4426
X-0.6511 Y2.4427
X-0.6048 Y2.4437
X-0.6028
X-0.556 Y2.4432
X-0.554
X-0.5067 Y2.4411
X-0.5048 Y2.441
X-0.457 Y2.4375
X-0.4551 Y2.4373
X-0.407 Y2.4322
X-0.4051 Y2.4319
X-0.3565 Y2.4253
X-0.3547 Y2.425
X-0.3057 Y2.4168
X-0.3039 Y2.4164
X-0.2546 Y2.4066
X-0.2528 Y2.4062
X-0.2032 Y2.3948
X-0.2015 Y2.3944
X-0.1515 Y2.3814
X-0.1498 Y2.3809
X-0.0996 Y2.3663
X-0.0979 Y2.3658
X-0.0474 Y2.3496
X-0.0458 Y2.349
X0.005 Y2.3312
X0.0066 Y2.3306
X0.0576 Y2.3111
X0.0591 Y2.3105
X0.1103 Y2.2893
X0.1118 Y2.2887
X0.1631 Y2.2659
X0.1646 Y2.2652
X0.2161 Y2.2408
X0.2175 Y2.2401
X0.2691 Y2.2139
X0.2704 Y2.2132
X0.3221 Y2.1854
X0.3234 Y2.1846
X0.3751 Y2.1551
X0.3764 Y2.1544
X0.4281 Y2.1232
X0.4294 Y2.1224
X0.4811 Y2.0895
X0.4823 Y2.0887
X0.5339 Y2.0541
X0.5351 Y2.0533
X0.5866 Y2.017
X0.5878 Y2.0161
X0.6392 Y1.9781
X0.6403 Y1.9773
X0.6915 Y1.9376
X0.6926 Y1.9367
X0.7435 Y1.8953
X0.7446 Y1.8944
X0.7952 Y1.8514
X0.7963 Y1.8505
X0.8466 Y1.8057
X0.8476 Y1.8048
X0.8976 Y1.7584
X0.8986 Y1.7575
X0.9481 Y1.7094
X0.949 Y1.7085
X0.998 Y1.6588
X0.999 Y1.6578
X1.0474 Y1.6066
X1.0483 Y1.6056
X1.0962 Y1.5527
X1.0971 Y1.5517
X1.1443 Y1.4974
X1.1451 Y1.4964
X1.1916 Y1.4405
X1.1924 Y1.4395
X1.2381 Y1.3822
X1.2389 Y1.3811
X1.2837 Y1.3224
X1.2845 Y1.3214
X1.3284 Y1.2613
X1.3291 Y1.2603
X1.372 Y1.199
X1.3728 Y1.1979
X1.4146 Y1.1354
X1.4153 Y1.1343
X1.4561 Y1.0706
X1.4567 Y1.0695
X1.4963 Y1.0048
X1.4969 Y1.0037
X1.5352 Y0.938
X1.5359 Y0.9369
X1.5729 Y0.8703
X1.5735 Y0.8692
X1.6091 Y0.8018
X1.6097 Y0.8007
X1.644 Y0.7326
X1.6445 Y0.7315
X1.6773 Y0.6628
X1.6779 Y0.6617
X1.7092 Y0.5925
X1.7097 Y0.5913
X1.7394 Y0.5218
X1.7399 Y0.5206
X1.7681 Y0.4508
X1.7686 Y0.4496
X1.7952 Y0.3795
X1.7956 Y0.3783
X1.8206 Y0.3081
X1.821 Y0.3069
X1.8444 Y0.2367
X1.8448 Y0.2355
X1.8665 Y0.1653
X1.8669 Y0.1641
X1.8869 Y0.0941
X1.8873 Y0.0928
X1.9057 Y0.0231
X1.906 Y0.0218
X1.9227 Y-0.0476
X1.923 Y-0.0489
X1.9381 Y-0.1179
X1.9384 Y-0.1192
X1.9518 Y-0.1878
X1.9521 Y-0.1892
X1.9639 Y-0.2572
X1.9641 Y-0.2586
X1.9743 Y-0.326
X1.9745 Y-0.3274
X1.9831 Y-0.3943
X1.9832 Y-0.3957
X1.9902 Y-0.4618
X1.9904 Y-0.4632
X1.9958 Y-0.5287
X1.9959 Y-0.5301
X1.9998 Y-0.5948
X1.9999 Y-0.5962
X2.0022 Y-0.6601
X2.0023 Y-0.6615
X2.0031 Y-0.7245
Y-0.726
X2.0025 Y-0.7881
Y-0.7896
X2.0004 Y-0.8508
Y-0.8523
X1.9969 Y-0.9126
X1.9968 Y-0.9141
X1.9919 Y-0.9734
X1.9917 Y-0.9749
X1.9854 Y-1.0332
X1.9853 Y-1.0348
X1.9776 Y-1.092
X1.9774 Y-1.0936
X1.9684 Y-1.1498
X1.9681 Y-1.1514
X1.9579 Y-1.2065
X1.9575 Y-1.2082
X1.946 Y-1.2622
X1.9456 Y-1.2638
X1.9328 Y-1.3168
X1.9324 Y-1.3184
X1.9183 Y-1.3703
X1.9178 Y-1.3719
X1.9026 Y-1.4226
X1.902 Y-1.4243
X1.8856 Y-1.4739
X1.885 Y-1.4755
X1.8674 Y-1.5239
X1.8667 Y-1.5256
X1.848 Y-1.5728
X1.8473 Y-1.5745
X1.8274 Y-1.6205
X1.8266 Y-1.6223
X1.8056 Y-1.6671
X1.8048 Y-1.6688
X1.7827 Y-1.7124
X1.7818 Y-1.7141
X1.7587 Y-1.7565
X1.7577 Y-1.7582
X1.7335 Y-1.7993
X1.7325 Y-1.801
X1.7073 Y-1.8409
X1.7062 Y-1.8426
X1.68 Y-1.8813
X1.6788 Y-1.8829
X1.6516 Y-1.9203
X1.6504 Y-1.922
X1.6223 Y-1.9581
X1.6209 Y-1.9597
X1.5919 Y-1.9945
X1.5905 Y-1.9961
X1.5605 Y-2.0296
X1.559 Y-2.0312
X1.5281 Y-2.0634
X1.5266 Y-2.065
X1.4948 Y-2.0959
X1.4932 Y-2.0974
X1.4606 Y-2.127
X1.4589 Y-2.1284
X1.4254 Y-2.1567
X1.4237 Y-2.1581
X1.3894 Y-2.185
X1.3876 Y-2.1864
X1.3525 Y-2.2119
X1.3506 Y-2.2132
X1.3147 Y-2.2374
X1.3128 Y-2.2386
X1.2761 Y-2.2615
X1.2742 Y-2.2627
X1.2367 Y-2.2841
X1.2354 Y-2.2849
X1.2222 Y-2.292
X1.2209 Y-2.2927
X1.1824 Y-2.3123
X1.1804 Y-2.3133
X1.1412 Y-2.3315
X1.1391 Y-2.3324
X1.0993 Y-2.3492
X1.0972 Y-2.3501
X1.0566 Y-2.3655
X1.0545 Y-2.3662
X1.0133 Y-2.3802
X1.0112 Y-2.3809
X0.9693 Y-2.3934
X0.9672 Y-2.394
X0.9247 Y-2.4051
X0.9226 Y-2.4056
X0.8795 Y-2.4153
X0.8773 Y-2.4157
X0.8336 Y-2.4239
X0.8315 Y-2.4243
X0.7872 Y-2.431
X0.7851 Y-2.4313
X0.7403 Y-2.4365
X0.7382 Y-2.4368
X0.6928 Y-2.4405
X0.6907 Y-2.4407
X0.6448 Y-2.4429
X0.6428 Y-2.443
X0.5964 Y-2.4437
X0.5944
X0.5475 Y-2.443
X0.5455 Y-2.4429
X0.4982 Y-2.4406
X0.4962 Y-2.4405
X0.4721 Y-2.4386
G3 X0.4586 Y-2.45 I-0.001 J-0.0125
G1 X0.4576 Y-2.4625
X0.4574 Y-2.4653 Z-0.0597
X0.4572 Y-2.4679 Z-0.0588
X0.457 Y-2.4703 Z-0.0573
X0.4569 Y-2.4722 Z-0.0553
X0.4567 Y-2.4737 Z-0.0529
Y-2.4746 Z-0.0503
X0.4566 Y-2.4749 Z-0.0475
G0 Z0.1
X0.4816 Y-2.4769
Z0.02
G1 Z-0.0056 F2
Z-0.0625
Y-2.4766 Z-0.0653 F20
X0.4817 Y-2.4757 Z-0.0679
X0.4818 Y-2.4742 Z-0.0703
X0.4819 Y-2.4722 Z-0.0723
X0.4821 Y-2.4699 Z-0.0738
X0.4823 Y-2.4673 Z-0.0747
X0.4826 Y-2.4645 Z-0.075
X0.4836 Y-2.452
G3 X0.4721 Y-2.4386 I-0.0125 J0.001
G1 X0.4484 Y-2.4367
X0.4465 Y-2.4365
X0.3983 Y-2.4311
X0.3964 Y-2.4309
X0.3478 Y-2.4239
X0.3459 Y-2.4236
X0.2969 Y-2.4151
X0.2951 Y-2.4148
X0.2457 Y-2.4047
X0.2439 Y-2.4043
X0.1943 Y-2.3926
X0.1925 Y-2.3922
X0.1425 Y-2.3789
X0.1408 Y-2.3784
X0.0905 Y-2.3635
X0.0889 Y-2.363
X0.0383 Y-2.3465
X0.0367 Y-2.346
X-0.0141 Y-2.3278
X-0.0157 Y-2.3272
X-0.0667 Y-2.3075
X-0.0682 Y-2.3068
X-0.1194 Y-2.2854
X-0.1209 Y-2.2848
X-0.1723 Y-2.2617
X-0.1737 Y-2.261
X-0.2252 Y-2.2362
X-0.2267 Y-2.2355
X-0.2783 Y-2.2091
X-0.2796 Y-2.2084
X-0.3313 Y-2.1803
X-0.3326 Y-2.1795
X-0.3843 Y-2.1497
X-0.3856 Y-2.149
X-0.4373 Y-2.1175
X-0.4386 Y-2.1167
X-0.4903 Y-2.0835
X-0.4915 Y-2.0827
X-0.5431 Y-2.0478
X-0.5443 Y-2.047
X-0.5958 Y-2.0104
X-0.5969 Y-2.0095
X-0.6483 Y-1.9712
X-0.6494 Y-1.9704
X-0.7005 Y-1.9304
X-0.7016 Y-1.9295
X-0.7525 Y-1.8878
X-0.7536 Y-1.8869
X-0.8042 Y-1.8436
X-0.8052 Y-1.8427
X-0.8555 Y-1.7976
X-0.8565 Y-1.7967
X-0.9064 Y-1.75
X-0.9073 Y-1.7491
X-0.9568 Y-1.7008
X-0.9577 Y-1.6998
X-1.0066 Y-1.6499
X-1.0076 Y-1.6489
X-1.0559 Y-1.5973
X-1.0568 Y-1.5964
X-1.1046 Y-1.5432
X-1.1055 Y-1.5423
X-1.1525 Y-1.4876
X-1.1534 Y-1.4866
X-1.1997 Y-1.4305
X-1.2005 Y-1.4295
X-1.2461 Y-1.3719
X-1.2469 Y-1.3709
X-1.2915 Y-1.3119
X-1.2923 Y-1.3109
X-1.336 Y-1.2506
X-1.3368 Y-1.2496
X-1.3795 Y-1.188
X-1.3802 Y-1.187
X-1.4219 Y-1.1242
X-1.4226 Y-1.1231
X-1.4631 Y-1.0593
X-1.4638 Y-1.0582
X-1.5031 Y-0.9933
X-1.5038 Y-0.9922
X-1.5419 Y-0.9263
X-1.5425 Y-0.9252
X-1.5793 Y-0.8585
X-1.5799 Y-0.8574
X-1.6153 Y-0.7899
X-1.6159 Y-0.7887
X-1.6499 Y-0.7206
X-1.6504 Y-0.7194
X-1.6829 Y-0.6507
X-1.6835 Y-0.6495
X-1.7145 Y-0.5803
X-1.715 Y-0.5791
X-1.7445 Y-0.5095
X-1.745 Y-0.5083
X-1.7729 Y-0.4384
X-1.7734 Y-0.4372
X-1.7997 Y-0.3671
X-1.8002 Y-0.3659
X-1.8249 Y-0.2957
X-1.8253 Y-0.2945
X-1.8483 Y-0.2243
X-1.8487 Y-0.2231
X-1.8701 Y-0.153
X-1.8705 Y-0.1517
X-1.8903 Y-0.0818
X-1.8906 Y-0.0805
X-1.9087 Y-0.0108
X-1.9091 Y-0.0096
X-1.9255 Y0.0598
X-1.9258 Y0.0611
X-1.9406 Y0.1301
X-1.9409 Y0.1314
X-1.954 Y0.1999
X-1.9543 Y0.2012
X-1.9658 Y0.2692
X-1.966 Y0.2705
X-1.9759 Y0.3379
X-1.9761 Y0.3393
X-1.9844 Y0.406
X-1.9846 Y0.4074
X-1.9913 Y0.4735
X-1.9914 Y0.4749
X-1.9966 Y0.5402
X-1.9967 Y0.5416
X-2.0003 Y0.6061
X-2.0004 Y0.6076
X-2.0025 Y0.6713
Y0.6727
X-2.0031 Y0.7356
Y0.7371
X-2.0023 Y0.799
X-2.0022 Y0.8005
X-1.9999 Y0.8616
X-1.9998 Y0.8631
X-1.9961 Y0.9232
X-1.996 Y0.9247
X-1.9909 Y0.9838
X-1.9907 Y0.9854
X-1.9842 Y1.0435
X-1.984 Y1.045
X-1.9761 Y1.1021
X-1.9759 Y1.1037
X-1.9667 Y1.1597
X-1.9664 Y1.1613
X-1.9559 Y1.2163
X-1.9556 Y1.2179
X-1.9438 Y1.2717
X-1.9434 Y1.2734
X-1.9304 Y1.3261
X-1.9299 Y1.3278
X-1.9157 Y1.3794
X-1.9152 Y1.3811
X-1.8997 Y1.4316
X-1.8992 Y1.4333
X-1.8825 Y1.4826
X-1.8819 Y1.4843
X-1.8641 Y1.5325
X-1.8634 Y1.5342
X-1.8445 Y1.5812
X-1.8438 Y1.5829
X-1.8237 Y1.6287
X-1.8229 Y1.6304
X-1.8017 Y1.675
X-1.8009 Y1.6767
X-1.7786 Y1.7201
X-1.7777 Y1.7218
X-1.7544 Y1.764
X-1.7534 Y1.7657
X-1.729 Y1.8066
X-1.728 Y1.8083
X-1.7026 Y1.848
X-1.7015 Y1.8497
X-1.6751 Y1.8881
X-1.674 Y1.8898
X-1.6466 Y1.9269
X-1.6454 Y1.9286
X-1.6171 Y1.9645
X-1.6157 Y1.9661
X-1.5865 Y2.0007
X-1.5851 Y2.0023
X-1.5549 Y2.0356
X-1.5535 Y2.0372
X-1.5224 Y2.0692
X-1.5209 Y2.0707
X-1.489 Y2.1014
X-1.4873 Y2.1029
X-1.4546 Y2.1322
X-1.4529 Y2.1337
X-1.4192 Y2.1617
X-1.4175 Y2.1631
X-1.383 Y2.1898
X-1.3812 Y2.1911
X-1.346 Y2.2164
X-1.3441 Y2.2177
X-1.3081 Y2.2417
X-1.3062 Y2.2429
X-1.2693 Y2.2655
X-1.2674 Y2.2667
X-1.2298 Y2.2879
X-1.2278 Y2.289
X-1.1895 Y2.3088
X-1.1874 Y2.3098
X-1.1484 Y2.3283
X-1.1463 Y2.3292
X-1.1066 Y2.3463
X-1.1045 Y2.3471
X-1.0641 Y2.3628
X-1.062 Y2.3635
X-1.0209 Y2.3778
X-1.0187 Y2.3784
X-0.977 Y2.3912
X-0.9749 Y2.3919
X-0.9325 Y2.4032
X-0.9303 Y2.4037
X-0.8873 Y2.4136
X-0.8852 Y2.4141
X-0.8416 Y2.4225
X-0.8395 Y2.4229
X-0.7953 Y2.4299
X-0.7932 Y2.4302
X-0.7485 Y2.4357
X-0.7464 Y2.4359
X-0.7011 Y2.4399
X-0.699 Y2.4401
X-0.6532 Y2.4426
X-0.6511 Y2.4427
X-0.6048 Y2.4437
X-0.6028
X-0.556 Y2.4432
X-0.554
X-0.5067 Y2.4411
X-0.5048 Y2.441
X-0.457 Y2.4375
X-0.4551 Y2.4373
X-0.407 Y2.4322
X-0.4051 Y2.4319
X-0.3565 Y2.4253
X-0.3547 Y2.425
X-0.3057 Y2.4168
X-0.3039 Y2.4164
X-0.2546 Y2.4066
X-0.2528 Y2.4062
X-0.2032 Y2.3948
X-0.2015 Y2.3944
X-0.1515 Y2.3814
X-0.1498 Y2.3809
X-0.0996 Y2.3663
X-0.0979 Y2.3658
X-0.0474 Y2.3496
X-0.0458 Y2.349
X0.005 Y2.3312
X0.0066 Y2.3306
X0.0576 Y2.3111
X0.0591 Y2.3105
X0.1103 Y2.2893
X0.1118 Y2.2887
X0.1631 Y2.2659
X0.1646 Y2.2652
X0.2161 Y2.2408
X0.2175 Y2.2401
X0.2691 Y2.2139
X0.2704 Y2.2132
X0.3221 Y2.1854
X0.3234 Y2.1846
X0.3751 Y2.1551
X0.3764 Y2.1544
X0.4281 Y2.1232
X0.4294 Y2.1224
X0.4811 Y2.0895
X0.4823 Y2.0887
X0.5339 Y2.0541
X0.5351 Y2.0533
X0.5866 Y2.017
X0.5878 Y2.0161
X0.6392 Y1.9781
X0.6403 Y1.9773
X0.6915 Y1.9376
X0.6926 Y1.9367
X0.7435 Y1.8953
X0.7446 Y1.8944
X0.7952 Y1.8514
X0.7963 Y1.8505
X0.8466 Y1.8057
X0.8476 Y1.8048
X0.8976 Y1.7584
X0.8986 Y1.7575
X0.9481 Y1.7094
X0.949 Y1.7085
X0.998 Y1.6588
X0.999 Y1.6578
X1.0474 Y1.6066
X1.0483 Y1.6056
X1.0962 Y1.5527
X1.0971 Y1.5517
X1.1443 Y1.4974
X1.1451 Y1.4964
X1.1916 Y1.4405
X1.1924 Y1.4395
X1.2381 Y1.3822
X1.2389 Y1.3811
X1.2837 Y1.3224
X1.2845 Y1.3214
X1.3284 Y1.2613
X1.3291 Y1.2603
X1.372 Y1.199
X1.3728 Y1.1979
X1.4146 Y1.1354
X1.4153 Y1.1343
X1.4561 Y1.0706
X1.4567 Y1.0695
X1.4963 Y1.0048
X1.4969 Y1.0037
X1.5352 Y0.938
X1.5359 Y0.9369
X1.5729 Y0.8703
X1.5735 Y0.8692
X1.6091 Y0.8018
X1.6097 Y0.8007
X1.644 Y0.7326
X1.6445 Y0.7315
X1.6773 Y0.6628
X1.6779 Y0.6617
X1.7092 Y0.5925
X1.7097 Y0.5913
X1.7394 Y0.5218
X1.7399 Y0.5206
X1.7681 Y0.4508
X1.7686 Y0.4496
X1.7952 Y0.3795
X1.7956 Y0.3783
X1.8206 Y0.3081
X1.821 Y0.3069
X1.8444 Y0.2367
X1.8448 Y0.2355
X1.8665 Y0.1653
X1.8669 Y0.1641
X1.8869 Y0.0941
X1.8873 Y0.0928
X1.9057 Y0.0231
X1.906 Y0.0218
X1.9227 Y-0.0476
X1.923 Y-0.0489
X1.9381 Y-0.1179
X1.9384 Y-0.1192
X1.9518 Y-0.1878
X1.9521 Y-0.1892
X1.9639 Y-0.2572
X1.9641 Y-0.2586
X1.9743 Y-0.326
X1.9745 Y-0.3274
X1.9831 Y-0.3943
X1.9832 Y-0.3957
X1.9902 Y-0.4618
X1.9904 Y-0.4632
X1.9958 Y-0.5287
X1.9959 Y-0.5301
X1.9998 Y-0.5948
X1.9999 Y-0.5962
X2.0022 Y-0.6601
X2.0023 Y-0.6615
X2.0031 Y-0.7245
Y-0.726
X2.0025 Y-0.7881
Y-0.7896
X2.0004 Y-0.8508
Y-0.8523
X1.9969 Y-0.9126
X1.9968 Y-0.9141
X1.9919 Y-0.9734
X1.9917 Y-0.9749
X1.9854 Y-1.0332
X1.9853 Y-1.0348
X1.9776 Y-1.092
X1.9774 Y-1.0936
X1.9684 Y-1.1498
X1.9681 Y-1.1514
X1.9579 Y-1.2065
X1.9575 Y-1.2082
X1.946 Y-1.2622
X1.9456 Y-1.2638
X1.9328 Y-1.3168
X1.9324 Y-1.3184
X1.9183 Y-1.3703
X1.9178 Y-1.3719
X1.9026 Y-1.4226
X1.902 Y-1.4243
X1.8856 Y-1.4739
X1.885 Y-1.4755
X1.8674 Y-1.5239
X1.8667 Y-1.5256
X1.848 Y-1.5728
X1.8473 Y-1.5745
X1.8274 Y-1.6205
X1.8266 Y-1.6223
X1.8056 Y-1.6671
X1.8048 Y-1.6688
X1.7827 Y-1.7124
X1.7818 Y-1.7141
X1.7587 Y-1.7565
X1.7577 Y-1.7582
X1.7335 Y-1.7993
X1.7325 Y-1.801
X1.7073 Y-1.8409
X1.7062 Y-1.8426
X1.68 Y-1.8813
X1.6788 Y-1.8829
X1.6516 Y-1.9203
X1.6504 Y-1.922
X1.6223 Y-1.9581
X1.6209 Y-1.9597
X1.5919 Y-1.9945
X1.5905 Y-1.9961
X1.5605 Y-2.0296
X1.559 Y-2.0312
X1.5281 Y-2.0634
X1.5266 Y-2.065
X1.4948 Y-2.0959
X1.4932 Y-2.0974
X1.4606 Y-2.127
X1.4589 Y-2.1284
X1.4254 Y-2.1567
X1.4237 Y-2.1581
X1.3894 Y-2.185
X1.3876 Y-2.1864
X1.3525 Y-2.2119
X1.3506 Y-2.2132
X1.3147 Y-2.2374
X1.3128 Y-2.2386
X1.2761 Y-2.2615
X1.2742 Y-2.2627
X1.2367 Y-2.2841
X1.2354 Y-2.2849
X1.2222 Y-2.292
X1.2209 Y-2.2927
X1.1824 Y-2.3123
X1.1804 Y-2.3133
X1.1412 Y-2.3315
X1.1391 Y-2.3324
X1.0993 Y-2.3492
X1.0972 Y-2.3501
X1.0566 Y-2.3655
X1.0545 Y-2.3662
X1.0133 Y-2.3802
X1.0112 Y-2.3809
X0.9693 Y-2.3934
X0.9672 Y-2.394
X0.9247 Y-2.4051
X0.9226 Y-2.4056
X0.8795 Y-2.4153
X0.8773 Y-2.4157
X0.8336 Y-2.4239
X0.8315 Y-2.4243
X0.7872 Y-2.431
X0.7851 Y-2.4313
X0.7403 Y-2.4365
X0.7382 Y-2.4368
X0.6928 Y-2.4405
X0.6907 Y-2.4407
X0.6448 Y-2.4429
X0.6428 Y-2.443
X0.5964 Y-2.4437
X0.5944
X0.5475 Y-2.443
X0.5455 Y-2.4429
X0.4982 Y-2.4406
X0.4962 Y-2.4405
X0.4721 Y-2.4386
G3 X0.4586 Y-2.45 I-0.001 J-0.0125
G1 X0.4576 Y-2.4625
X0.4574 Y-2.4653 Z-0.0747
X0.4572 Y-2.4679 Z-0.0738
X0.457 Y-2.4703 Z-0.0723
X0.4569 Y-2.4722 Z-0.0703
X0.4567 Y-2.4737 Z-0.0679
Y-2.4746 Z-0.0653
X0.4566 Y-2.4749 Z-0.0625
G0 Z0.1
X0.4816 Y-2.4769
Z0.02
G1 Z-0.0206 F2
Z-0.0775
Y-2.4766 Z-0.0803 F20
X0.4817 Y-2.4757 Z-0.0829
X0.4818 Y-2.4742 Z-0.0853
X0.4819 Y-2.4722 Z-0.0873
X0.4821 Y-2.4699 Z-0.0888
X0.4823 Y-2.4673 Z-0.0897
X0.4826 Y-2.4645 Z-0.09
X0.4836 Y-2.452
G3 X0.4721 Y-2.4386 I-0.0125 J0.001
G1 X0.4484 Y-2.4367
X0.4465 Y-2.4365
X0.3983 Y-2.4311
X0.3964 Y-2.4309
X0.3478 Y-2.4239
X0.3459 Y-2.4236
X0.2969 Y-2.4151
X0.2951 Y-2.4148
X0.2457 Y-2.4047
X0.2439 Y-2.4043
X0.1943 Y-2.3926
X0.1925 Y-2.3922
X0.1425 Y-2.3789
X0.1408 Y-2.3784
X0.0905 Y-2.3635
X0.0889 Y-2.363
X0.0383 Y-2.3465
X0.0367 Y-2.346
X-0.0141 Y-2.3278
X-0.0157 Y-2.3272
X-0.0667 Y-2.3075
X-0.0682 Y-2.3068
X-0.1194 Y-2.2854
X-0.1209 Y-2.2848
X-0.1723 Y-2.2617
X-0.1737 Y-2.261
X-0.2252 Y-2.2362
X-0.2267 Y-2.2355
X-0.2783 Y-2.2091
X-0.2796 Y-2.2084
X-0.3313 Y-2.1803
X-0.3326 Y-2.1795
X-0.3843 Y-2.1497
X-0.3856 Y-2.149
X-0.4373 Y-2.1175
X-0.4386 Y-2.1167
X-0.4903 Y-2.0835
X-0.4915 Y-2.0827
X-0.5431 Y-2.0478
X-0.5443 Y-2.047
X-0.5958 Y-2.0104
X-0.5969 Y-2.0095
X-0.6483 Y-1.9712
X-0.6494 Y-1.9704
X-0.7005 Y-1.9304
X-0.7016 Y-1.9295
X-0.7525 Y-1.8878
X-0.7536 Y-1.8869
X-0.8042 Y-1.8436
X-0.8052 Y-1.8427
X-0.8555 Y-1.7976
X-0.8565 Y-1.7967
X-0.9064 Y-1.75
X-0.9073 Y-1.7491
X-0.9568 Y-1.7008
X-0.9577 Y-1.6998
X-1.0066 Y-1.6499
X-1.0076 Y-1.6489
X-1.0559 Y-1.5973
X-1.0568 Y-1.5964
X-1.1046 Y-1.5432
X-1.1055 Y-1.5423
X-1.1525 Y-1.4876
X-1.1534 Y-1.4866
X-1.1997 Y-1.4305
X-1.2005 Y-1.4295
X-1.2461 Y-1.3719
X-1.2469 Y-1.3709
X-1.2915 Y-1.3119
X-1.2923 Y-1.3109
X-1.336 Y-1.2506
X-1.3368 Y-1.2496
X-1.3795 Y-1.188
X-1.3802 Y-1.187
X-1.4219 Y-1.1242
X-1.4226 Y-1.1231
X-1.4631 Y-1.0593
X-1.4638 Y-1.0582
X-1.5031 Y-0.9933
X-1.5038 Y-0.9922
X-1.5419 Y-0.9263
X-1.5425 Y-0.9252
X-1.5793 Y-0.8585
X-1.5799 Y-0.8574
X-1.6153 Y-0.7899
X-1.6159 Y-0.7887
X-1.6499 Y-0.7206
X-1.6504 Y-0.7194
X-1.6829 Y-0.6507
X-1.6835 Y-0.6495
X-1.7145 Y-0.5803
X-1.715 Y-0.5791
X-1.7445 Y-0.5095
X-1.745 Y-0.5083
X-1.7729 Y-0.4384
X-1.7734 Y-0.4372
X-1.7997 Y-0.3671
X-1.8002 Y-0.3659
X-1.8249 Y-0.2957
X-1.8253 Y-0.2945
X-1.8483 Y-0.2243
X-1.8487 Y-0.2231
X-1.8701 Y-0.153
X-1.8705 Y-0.1517
X-1.8903 Y-0.0818
X-1.8906 Y-0.0805
X-1.9087 Y-0.0108
X-1.9091 Y-0.0096
X-1.9255 Y0.0598
X-1.9258 Y0.0611
X-1.9406 Y0.1301
X-1.9409 Y0.1314
X-1.954 Y0.1999
X-1.9543 Y0.2012
X-1.9658 Y0.2692
X-1.966 Y0.2705
X-1.9759 Y0.3379
X-1.9761 Y0.3393
X-1.9844 Y0.406
X-1.9846 Y0.4074
X-1.9913 Y0.4735
X-1.9914 Y0.4749
X-1.9966 Y0.5402
X-1.9967 Y0.5416
X-2.0003 Y0.6061
X-2.0004 Y0.6076
X-2.0025 Y0.6713
Y0.6727
X-2.0031 Y0.7356
Y0.7371
X-2.0023 Y0.799
X-2.0022 Y0.8005
X-1.9999 Y0.8616
X-1.9998 Y0.8631
X-1.9961 Y0.9232
X-1.996 Y0.9247
X-1.9909 Y0.9838
X-1.9907 Y0.9854
X-1.9842 Y1.0435
X-1.984 Y1.045
X-1.9761 Y1.1021
X-1.9759 Y1.1037
X-1.9667 Y1.1597
X-1.9664 Y1.1613
X-1.9559 Y1.2163
X-1.9556 Y1.2179
X-1.9438 Y1.2717
X-1.9434 Y1.2734
X-1.9304 Y1.3261
X-1.9299 Y1.3278
X-1.9157 Y1.3794
X-1.9152 Y1.3811
X-1.8997 Y1.4316
X-1.8992 Y1.4333
X-1.8825 Y1.4826
X-1.8819 Y1.4843
X-1.8641 Y1.5325
X-1.8634 Y1.5342
X-1.8445 Y1.5812
X-1.8438 Y1.5829
X-1.8237 Y1.6287
X-1.8229 Y1.6304
X-1.8017 Y1.675
X-1.8009 Y1.6767
X-1.7786 Y1.7201
X-1.7777 Y1.7218
X-1.7544 Y1.764
X-1.7534 Y1.7657
X-1.729 Y1.8066
X-1.728 Y1.8083
X-1.7026 Y1.848
X-1.7015 Y1.8497
X-1.6751 Y1.8881
X-1.674 Y1.8898
X-1.6466 Y1.9269
X-1.6454 Y1.9286
X-1.6171 Y1.9645
X-1.6157 Y1.9661
X-1.5865 Y2.0007
X-1.5851 Y2.0023
X-1.5549 Y2.0356
X-1.5535 Y2.0372
X-1.5224 Y2.0692
X-1.5209 Y2.0707
X-1.489 Y2.1014
X-1.4873 Y2.1029
X-1.4546 Y2.1322
X-1.4529 Y2.1337
X-1.4192 Y2.1617
X-1.4175 Y2.1631
X-1.383 Y2.1898
X-1.3812 Y2.1911
X-1.346 Y2.2164
X-1.3441 Y2.2177
X-1.3081 Y2.2417
X-1.3062 Y2.2429
X-1.2693 Y2.2655
X-1.2674 Y2.2667
X-1.2298 Y2.2879
X-1.2278 Y2.289
X-1.1895 Y2.3088
X-1.1874 Y2.3098
X-1.1484 Y2.3283
X-1.1463 Y2.3292
X-1.1066 Y2.3463
X-1.1045 Y2.3471
X-1.0641 Y2.3628
X-1.062 Y2.3635
X-1.0209 Y2.3778
X-1.0187 Y2.3784
X-0.977 Y2.3912
X-0.9749 Y2.3919
X-0.9325 Y2.4032
X-0.9303 Y2.4037
X-0.8873 Y2.4136
X-0.8852 Y2.4141
X-0.8416 Y2.4225
X-0.8395 Y2.4229
X-0.7953 Y2.4299
X-0.7932 Y2.4302
X-0.7485 Y2.4357
X-0.7464 Y2.4359
X-0.7011 Y2.4399
X-0.699 Y2.4401
X-0.6532 Y2.4426
X-0.6511 Y2.4427
X-0.6048 Y2.4437
X-0.6028
X-0.556 Y2.4432
X-0.554
X-0.5067 Y2.4411
X-0.5048 Y2.441
X-0.457 Y2.4375
X-0.4551 Y2.4373
X-0.407 Y2.4322
X-0.4051 Y2.4319
X-0.3565 Y2.4253
X-0.3547 Y2.425
X-0.3057 Y2.4168
X-0.3039 Y2.4164
X-0.2546 Y2.4066
X-0.2528 Y2.4062
X-0.2032 Y2.3948
X-0.2015 Y2.3944
X-0.1515 Y2.3814
X-0.1498 Y2.3809
X-0.0996 Y2.3663
X-0.0979 Y2.3658
X-0.0474 Y2.3496
X-0.0458 Y2.349
X0.005 Y2.3312
X0.0066 Y2.3306
X0.0576 Y2.3111
X0.0591 Y2.3105
X0.1103 Y2.2893
X0.1118 Y2.2887
X0.1631 Y2.2659
X0.1646 Y2.2652
X0.2161 Y2.2408
X0.2175 Y2.2401
X0.2691 Y2.2139
X0.2704 Y2.2132
X0.3221 Y2.1854
X0.3234 Y2.1846
X0.3751 Y2.1551
X0.3764 Y2.1544
X0.4281 Y2.1232
X0.4294 Y2.1224
X0.4811 Y2.0895
X0.4823 Y2.0887
X0.5339 Y2.0541
X0.5351 Y2.0533
X0.5866 Y2.017
X0.5878 Y2.0161
X0.6392 Y1.9781
X0.6403 Y1.9773
X0.6915 Y1.9376
X0.6926 Y1.9367
X0.7435 Y1.8953
X0.7446 Y1.8944
X0.7952 Y1.8514
X0.7963 Y1.8505
X0.8466 Y1.8057
X0.8476 Y1.8048
X0.8976 Y1.7584
X0.8986 Y1.7575
X0.9481 Y1.7094
X0.949 Y1.7085
X0.998 Y1.6588
X0.999 Y1.6578
X1.0474 Y1.6066
X1.0483 Y1.6056
X1.0962 Y1.5527
X1.0971 Y1.5517
X1.1443 Y1.4974
X1.1451 Y1.4964
X1.1916 Y1.4405
X1.1924 Y1.4395
X1.2381 Y1.3822
X1.2389 Y1.3811
X1.2837 Y1.3224
X1.2845 Y1.3214
X1.3284 Y1.2613
X1.3291 Y1.2603
X1.372 Y1.199
X1.3728 Y1.1979
X1.4146 Y1.1354
X1.4153 Y1.1343
X1.4561 Y1.0706
X1.4567 Y1.0695
X1.4963 Y1.0048
X1.4969 Y1.0037
X1.5352 Y0.938
X1.5359 Y0.9369
X1.5729 Y0.8703
X1.5735 Y0.8692
X1.6091 Y0.8018
X1.6097 Y0.8007
X1.644 Y0.7326
X1.6445 Y0.7315
X1.6773 Y0.6628
X1.6779 Y0.6617
X1.7092 Y0.5925
X1.7097 Y0.5913
X1.7394 Y0.5218
X1.7399 Y0.5206
X1.7681 Y0.4508
X1.7686 Y0.4496
X1.7952 Y0.3795
X1.7956 Y0.3783
X1.8206 Y0.3081
X1.821 Y0.3069
X1.8444 Y0.2367
X1.8448 Y0.2355
X1.8665 Y0.1653
X1.8669 Y0.1641
X1.8869 Y0.0941
X1.8873 Y0.0928
X1.9057 Y0.0231
X1.906 Y0.0218
X1.9227 Y-0.0476
X1.923 Y-0.0489
X1.9381 Y-0.1179
X1.9384 Y-0.1192
X1.9518 Y-0.1878
X1.9521 Y-0.1892
X1.9639 Y-0.2572
X1.9641 Y-0.2586
X1.9743 Y-0.326
X1.9745 Y-0.3274
X1.9831 Y-0.3943
X1.9832 Y-0.3957
X1.9902 Y-0.4618
X1.9904 Y-0.4632
X1.9958 Y-0.5287
X1.9959 Y-0.5301
X1.9998 Y-0.5948
X1.9999 Y-0.5962
X2.0022 Y-0.6601
X2.0023 Y-0.6615
X2.0031 Y-0.7245
Y-0.726
X2.0025 Y-0.7881
Y-0.7896
X2.0004 Y-0.8508
Y-0.8523
X1.9969 Y-0.9126
X1.9968 Y-0.9141
X1.9919 Y-0.9734
X1.9917 Y-0.9749
X1.9854 Y-1.0332
X1.9853 Y-1.0348
X1.9776 Y-1.092
X1.9774 Y-1.0936
X1.9684 Y-1.1498
X1.9681 Y-1.1514
X1.9579 Y-1.2065
X1.9575 Y-1.2082
X1.946 Y-1.2622
X1.9456 Y-1.2638
X1.9328 Y-1.3168
X1.9324 Y-1.3184
X1.9183 Y-1.3703
X1.9178 Y-1.3719
X1.9026 Y-1.4226
X1.902 Y-1.4243
X1.8856 Y-1.4739
X1.885 Y-1.4755
X1.8674 Y-1.5239
X1.8667 Y-1.5256
X1.848 Y-1.5728
X1.8473 Y-1.5745
X1.8274 Y-1.6205
X1.8266 Y-1.6223
X1.8056 Y-1.6671
X1.8048 Y-1.6688
X1.7827 Y-1.7124
X1.7818 Y-1.7141
X1.7587 Y-1.7565
X1.7577 Y-1.7582
X1.7335 Y-1.7993
X1.7325 Y-1.801
X1.7073 Y-1.8409
X1.7062 Y-1.8426
X1.68 Y-1.8813
X1.6788 Y-1.8829
X1.6516 Y-1.9203
X1.6504 Y-1.922
X1.6223 Y-1.9581
X1.6209 Y-1.9597
X1.5919 Y-1.9945
X1.5905 Y-1.9961
X1.5605 Y-2.0296
X1.559 Y-2.0312
X1.5281 Y-2.0634
X1.5266 Y-2.065
X1.4948 Y-2.0959
X1.4932 Y-2.0974
X1.4606 Y-2.127
X1.4589 Y-2.1284
X1.4254 Y-2.1567
X1.4237 Y-2.1581
X1.3894 Y-2.185
X1.3876 Y-2.1864
X1.3525 Y-2.2119
X1.3506 Y-2.2132
X1.3147 Y-2.2374
X1.3128 Y-2.2386
X1.2761 Y-2.2615
X1.2742 Y-2.2627
X1.2367 Y-2.2841
X1.2354 Y-2.2849
X1.2222 Y-2.292
X1.2209 Y-2.2927
X1.1824 Y-2.3123
X1.1804 Y-2.3133
X1.1412 Y-2.3315
X1.1391 Y-2.3324
X1.0993 Y-2.3492
X1.0972 Y-2.3501
X1.0566 Y-2.3655
X1.0545 Y-2.3662
X1.0133 Y-2.3802
X1.0112 Y-2.3809
X0.9693 Y-2.3934
X0.9672 Y-2.394
X0.9247 Y-2.4051
X0.9226 Y-2.4056
X0.8795 Y-2.4153
X0.8773 Y-2.4157
X0.8336 Y-2.4239
X0.8315 Y-2.4243
X0.7872 Y-2.431
X0.7851 Y-2.4313
X0.7403 Y-2.4365
X0.7382 Y-2.4368
X0.6928 Y-2.4405
X0.6907 Y-2.4407
X0.6448 Y-2.4429
X0.6428 Y-2.443
X0.5964 Y-2.4437
X0.5944
X0.5475 Y-2.443
X0.5455 Y-2.4429
X0.4982 Y-2.4406
X0.4962 Y-2.4405
X0.4721 Y-2.4386
G3 X0.4586 Y-2.45 I-0.001 J-0.0125
G1 X0.4576 Y-2.4625
X0.4574 Y-2.4653 Z-0.0897
X0.4572 Y-2.4679 Z-0.0888
X0.457 Y-2.4703 Z-0.0873
X0.4569 Y-2.4722 Z-0.0853
X0.4567 Y-2.4737 Z-0.0829
Y-2.4746 Z-0.0803
X0.4566 Y-2.4749 Z-0.0775
G0 Z0.1
X0.4816 Y-2.4769
Z0.02
G1 Z-0.0356 F2
Z-0.0925
Y-2.4766 Z-0.0953 F20
X0.4817 Y-2.4757 Z-0.0979
X0.4818 Y-2.4742 Z-0.1003
X0.4819 Y-2.4722 Z-0.1023
X0.4821 Y-2.4699 Z-0.1038
X0.4823 Y-2.4673 Z-0.1047
X0.4826 Y-2.4645 Z-0.105
X0.4836 Y-2.452
G3 X0.4721 Y-2.4386 I-0.0125 J0.001
G1 X0.4484 Y-2.4367
X0.4465 Y-2.4365
X0.3983 Y-2.4311
X0.3964 Y-2.4309
X0.3478 Y-2.4239
X0.3459 Y-2.4236
X0.2969 Y-2.4151
X0.2951 Y-2.4148
X0.2457 Y-2.4047
X0.2439 Y-2.4043
X0.1943 Y-2.3926
X0.1925 Y-2.3922
X0.1425 Y-2.3789
X0.1408 Y-2.3784
X0.0905 Y-2.3635
X0.0889 Y-2.363
X0.0383 Y-2.3465
X0.0367 Y-2.346
X-0.0141 Y-2.3278
X-0.0157 Y-2.3272
X-0.0667 Y-2.3075
X-0.0682 Y-2.3068
X-0.1194 Y-2.2854
X-0.1209 Y-2.2848
X-0.1723 Y-2.2617
X-0.1737 Y-2.261
X-0.2252 Y-2.2362
X-0.2267 Y-2.2355
X-0.2783 Y-2.2091
X-0.2796 Y-2.2084
X-0.3313 Y-2.1803
X-0.3326 Y-2.1795
X-0.3843 Y-2.1497
X-0.3856 Y-2.149
X-0.4373 Y-2.1175
X-0.4386 Y-2.1167
X-0.4903 Y-2.0835
X-0.4915 Y-2.0827
X-0.5431 Y-2.0478
X-0.5443 Y-2.047
X-0.5958 Y-2.0104
X-0.5969 Y-2.0095
X-0.6483 Y-1.9712
X-0.6494 Y-1.9704
X-0.7005 Y-1.9304
X-0.7016 Y-1.9295
X-0.7525 Y-1.8878
X-0.7536 Y-1.8869
X-0.8042 Y-1.8436
X-0.8052 Y-1.8427
X-0.8555 Y-1.7976
X-0.8565 Y-1.7967
X-0.9064 Y-1.75
X-0.9073 Y-1.7491
X-0.9568 Y-1.7008
X-0.9577 Y-1.6998
X-1.0066 Y-1.6499
X-1.0076 Y-1.6489
X-1.0559 Y-1.5973
X-1.0568 Y-1.5964
X-1.1046 Y-1.5432
X-1.1055 Y-1.5423
X-1.1525 Y-1.4876
X-1.1534 Y-1.4866
X-1.1997 Y-1.4305
X-1.2005 Y-1.4295
X-1.2461 Y-1.3719
X-1.2469 Y-1.3709
X-1.2915 Y-1.3119
X-1.2923 Y-1.3109
X-1.336 Y-1.2506
X-1.3368 Y-1.2496
X-1.3795 Y-1.188
X-1.3802 Y-1.187
X-1.4219 Y-1.1242
X-1.4226 Y-1.1231
X-1.4631 Y-1.0593
X-1.4638 Y-1.0582
X-1.5031 Y-0.9933
X-1.5038 Y-0.9922
X-1.5419 Y-0.9263
X-1.5425 Y-0.9252
X-1.5793 Y-0.8585
X-1.5799 Y-0.8574
X-1.6153 Y-0.7899
X-1.6159 Y-0.7887
X-1.6499 Y-0.7206
X-1.6504 Y-0.7194
X-1.6829 Y-0.6507
X-1.6835 Y-0.6495
X-1.7145 Y-0.5803
X-1.715 Y-0.5791
X-1.7445 Y-0.5095
X-1.745 Y-0.5083
X-1.7729 Y-0.4384
X-1.7734 Y-0.4372
X-1.7997 Y-0.3671
X-1.8002 Y-0.3659
X-1.8249 Y-0.2957
X-1.8253 Y-0.2945
X-1.8483 Y-0.2243
X-1.8487 Y-0.2231
X-1.8701 Y-0.153
X-1.8705 Y-0.1517
X-1.8903 Y-0.0818
X-1.8906 Y-0.0805
X-1.9087 Y-0.0108
X-1.9091 Y-0.0096
X-1.9255 Y0.0598
X-1.9258 Y0.0611
X-1.9406 Y0.1301
X-1.9409 Y0.1314
X-1.954 Y0.1999
X-1.9543 Y0.2012
X-1.9658 Y0.2692
X-1.966 Y0.2705
X-1.9759 Y0.3379
X-1.9761 Y0.3393
X-1.9844 Y0.406
X-1.9846 Y0.4074
X-1.9913 Y0.4735
X-1.9914 Y0.4749
X-1.9966 Y0.5402
X-1.9967 Y0.5416
X-2.0003 Y0.6061
X-2.0004 Y0.6076
X-2.0025 Y0.6713
Y0.6727
X-2.0031 Y0.7356
Y0.7371
X-2.0023 Y0.799
X-2.0022 Y0.8005
X-1.9999 Y0.8616
X-1.9998 Y0.8631
X-1.9961 Y0.9232
X-1.996 Y0.9247
X-1.9909 Y0.9838
X-1.9907 Y0.9854
X-1.9842 Y1.0435
X-1.984 Y1.045
X-1.9761 Y1.1021
X-1.9759 Y1.1037
X-1.9667 Y1.1597
X-1.9664 Y1.1613
X-1.9559 Y1.2163
X-1.9556 Y1.2179
X-1.9438 Y1.2717
X-1.9434 Y1.2734
X-1.9304 Y1.3261
X-1.9299 Y1.3278
X-1.9157 Y1.3794
X-1.9152 Y1.3811
X-1.8997 Y1.4316
X-1.8992 Y1.4333
X-1.8825 Y1.4826
X-1.8819 Y1.4843
X-1.8641 Y1.5325
X-1.8634 Y1.5342
X-1.8445 Y1.5812
X-1.8438 Y1.5829
X-1.8237 Y1.6287
X-1.8229 Y1.6304
X-1.8017 Y1.675
X-1.8009 Y1.6767
X-1.7786 Y1.7201
X-1.7777 Y1.7218
X-1.7544 Y1.764
X-1.7534 Y1.7657
X-1.729 Y1.8066
X-1.728 Y1.8083
X-1.7026 Y1.848
X-1.7015 Y1.8497
X-1.6751 Y1.8881
X-1.674 Y1.8898
X-1.6466 Y1.9269
X-1.6454 Y1.9286
X-1.6171 Y1.9645
X-1.6157 Y1.9661
X-1.5865 Y2.0007
X-1.5851 Y2.0023
X-1.5549 Y2.0356
X-1.5535 Y2.0372
X-1.5224 Y2.0692
X-1.5209 Y2.0707
X-1.489 Y2.1014
X-1.4873 Y2.1029
X-1.4546 Y2.1322
X-1.4529 Y2.1337
X-1.4192 Y2.1617
X-1.4175 Y2.1631
X-1.383 Y2.1898
X-1.3812 Y2.1911
X-1.346 Y2.2164
X-1.3441 Y2.2177
X-1.3081 Y2.2417
X-1.3062 Y2.2429
X-1.2693 Y2.2655
X-1.2674 Y2.2667
X-1.2298 Y2.2879
X-1.2278 Y2.289
X-1.1895 Y2.3088
X-1.1874 Y2.3098
X-1.1484 Y2.3283
X-1.1463 Y2.3292
X-1.1066 Y2.3463
X-1.1045 Y2.3471
X-1.0641 Y2.3628
X-1.062 Y2.3635
X-1.0209 Y2.3778
X-1.0187 Y2.3784
X-0.977 Y2.3912
X-0.9749 Y2.3919
X-0.9325 Y2.4032
X-0.9303 Y2.4037
X-0.8873 Y2.4136
X-0.8852 Y2.4141
X-0.8416 Y2.4225
X-0.8395 Y2.4229
X-0.7953 Y2.4299
X-0.7932 Y2.4302
X-0.7485 Y2.4357
X-0.7464 Y2.4359
X-0.7011 Y2.4399
X-0.699 Y2.4401
X-0.6532 Y2.4426
X-0.6511 Y2.4427
X-0.6048 Y2.4437
X-0.6028
X-0.556 Y2.4432
X-0.554
X-0.5067 Y2.4411
X-0.5048 Y2.441
X-0.457 Y2.4375
X-0.4551 Y2.4373
X-0.407 Y2.4322
X-0.4051 Y2.4319
X-0.3565 Y2.4253
X-0.3547 Y2.425
X-0.3057 Y2.4168
X-0.3039 Y2.4164
X-0.2546 Y2.4066
X-0.2528 Y2.4062
X-0.2032 Y2.3948
X-0.2015 Y2.3944
X-0.1515 Y2.3814
X-0.1498 Y2.3809
X-0.0996 Y2.3663
X-0.0979 Y2.3658
X-0.0474 Y2.3496
X-0.0458 Y2.349
X0.005 Y2.3312
X0.0066 Y2.3306
X0.0576 Y2.3111
X0.0591 Y2.3105
X0.1103 Y2.2893
X0.1118 Y2.2887
X0.1631 Y2.2659
X0.1646 Y2.2652
X0.2161 Y2.2408
X0.2175 Y2.2401
X0.2691 Y2.2139
X0.2704 Y2.2132
X0.3221 Y2.1854
X0.3234 Y2.1846
X0.3751 Y2.1551
X0.3764 Y2.1544
X0.4281 Y2.1232
X0.4294 Y2.1224
X0.4811 Y2.0895
X0.4823 Y2.0887
X0.5339 Y2.0541
X0.5351 Y2.0533
X0.5866 Y2.017
X0.5878 Y2.0161
X0.6392 Y1.9781
X0.6403 Y1.9773
X0.6915 Y1.9376
X0.6926 Y1.9367
X0.7435 Y1.8953
X0.7446 Y1.8944
X0.7952 Y1.8514
X0.7963 Y1.8505
X0.8466 Y1.8057
X0.8476 Y1.8048
X0.8976 Y1.7584
X0.8986 Y1.7575
X0.9481 Y1.7094
X0.949 Y1.7085
X0.998 Y1.6588
X0.999 Y1.6578
X1.0474 Y1.6066
X1.0483 Y1.6056
X1.0962 Y1.5527
X1.0971 Y1.5517
X1.1443 Y1.4974
X1.1451 Y1.4964
X1.1916 Y1.4405
X1.1924 Y1.4395
X1.2381 Y1.3822
X1.2389 Y1.3811
X1.2837 Y1.3224
X1.2845 Y1.3214
X1.3284 Y1.2613
X1.3291 Y1.2603
X1.372 Y1.199
X1.3728 Y1.1979
X1.4146 Y1.1354
X1.4153 Y1.1343
X1.4561 Y1.0706
X1.4567 Y1.0695
X1.4963 Y1.0048
X1.4969 Y1.0037
X1.5352 Y0.938
X1.5359 Y0.9369
X1.5729 Y0.8703
X1.5735 Y0.8692
X1.6091 Y0.8018
X1.6097 Y0.8007
X1.644 Y0.7326
X1.6445 Y0.7315
X1.6773 Y0.6628
X1.6779 Y0.6617
X1.7092 Y0.5925
X1.7097 Y0.5913
X1.7394 Y0.5218
X1.7399 Y0.5206
X1.7681 Y0.4508
X1.7686 Y0.4496
X1.7952 Y0.3795
X1.7956 Y0.3783
X1.8206 Y0.3081
X1.821 Y0.3069
X1.8444 Y0.2367
X1.8448 Y0.2355
X1.8665 Y0.1653
X1.8669 Y0.1641
X1.8869 Y0.0941
X1.8873 Y0.0928
X1.9057 Y0.0231
X1.906 Y0.0218
X1.9227 Y-0.0476
X1.923 Y-0.0489
X1.9381 Y-0.1179
X1.9384 Y-0.1192
X1.9518 Y-0.1878
X1.9521 Y-0.1892
X1.9639 Y-0.2572
X1.9641 Y-0.2586
X1.9743 Y-0.326
X1.9745 Y-0.3274
X1.9831 Y-0.3943
X1.9832 Y-0.3957
X1.9902 Y-0.4618
X1.9904 Y-0.4632
X1.9958 Y-0.5287
X1.9959 Y-0.5301
X1.9998 Y-0.5948
X1.9999 Y-0.5962
X2.0022 Y-0.6601
X2.0023 Y-0.6615
X2.0031 Y-0.7245
Y-0.726
X2.0025 Y-0.7881
Y-0.7896
X2.0004 Y-0.8508
Y-0.8523
X1.9969 Y-0.9126
X1.9968 Y-0.9141
X1.9919 Y-0.9734
X1.9917 Y-0.9749
X1.9854 Y-1.0332
X1.9853 Y-1.0348
X1.9776 Y-1.092
X1.9774 Y-1.0936
X1.9684 Y-1.1498
X1.9681 Y-1.1514
X1.9579 Y-1.2065
X1.9575 Y-1.2082
X1.946 Y-1.2622
X1.9456 Y-1.2638
X1.9328 Y-1.3168
X1.9324 Y-1.3184
X1.9183 Y-1.3703
X1.9178 Y-1.3719
X1.9026 Y-1.4226
X1.902 Y-1.4243
X1.8856 Y-1.4739
X1.885 Y-1.4755
X1.8674 Y-1.5239
X1.8667 Y-1.5256
X1.848 Y-1.5728
X1.8473 Y-1.5745
X1.8274 Y-1.6205
X1.8266 Y-1.6223
X1.8056 Y-1.6671
X1.8048 Y-1.6688
X1.7827 Y-1.7124
X1.7818 Y-1.7141
X1.7587 Y-1.7565
X1.7577 Y-1.7582
X1.7335 Y-1.7993
X1.7325 Y-1.801
X1.7073 Y-1.8409
X1.7062 Y-1.8426
X1.68 Y-1.8813
X1.6788 Y-1.8829
X1.6516 Y-1.9203
X1.6504 Y-1.922
X1.6223 Y-1.9581
X1.6209 Y-1.9597
X1.5919 Y-1.9945
X1.5905 Y-1.9961
X1.5605 Y-2.0296
X1.559 Y-2.0312
X1.5281 Y-2.0634
X1.5266 Y-2.065
X1.4948 Y-2.0959
X1.4932 Y-2.0974
X1.4606 Y-2.127
X1.4589 Y-2.1284
X1.4254 Y-2.1567
X1.4237 Y-2.1581
X1.3894 Y-2.185
X1.3876 Y-2.1864
X1.3525 Y-2.2119
X1.3506 Y-2.2132
X1.3147 Y-2.2374
X1.3128 Y-2.2386
X1.2761 Y-2.2615
X1.2742 Y-2.2627
X1.2367 Y-2.2841
X1.2354 Y-2.2849
X1.2222 Y-2.292
X1.2209 Y-2.2927
X1.1824 Y-2.3123
X1.1804 Y-2.3133
X1.1412 Y-2.3315
X1.1391 Y-2.3324
X1.0993 Y-2.3492
X1.0972 Y-2.3501
X1.0566 Y-2.3655
X1.0545 Y-2.3662
X1.0133 Y-2.3802
X1.0112 Y-2.3809
X0.9693 Y-2.3934
X0.9672 Y-2.394
X0.9247 Y-2.4051
X0.9226 Y-2.4056
X0.8795 Y-2.4153
X0.8773 Y-2.4157
X0.8336 Y-2.4239
X0.8315 Y-2.4243
X0.7872 Y-2.431
X0.7851 Y-2.4313
X0.7403 Y-2.4365
X0.7382 Y-2.4368
X0.6928 Y-2.4405
X0.6907 Y-2.4407
X0.6448 Y-2.4429
X0.6428 Y-2.443
X0.5964 Y-2.4437
X0.5944
X0.5475 Y-2.443
X0.5455 Y-2.4429
X0.4982 Y-2.4406
X0.4962 Y-2.4405
X0.4721 Y-2.4386
G3 X0.4586 Y-2.45 I-0.001 J-0.0125
G1 X0.4576 Y-2.4625
X0.4574 Y-2.4653 Z-0.1047
X0.4572 Y-2.4679 Z-0.1038
X0.457 Y-2.4703 Z-0.1023
X0.4569 Y-2.4722 Z-0.1003
X0.4567 Y-2.4737 Z-0.0979
Y-2.4746 Z-0.0953
X0.4566 Y-2.4749 Z-0.0925
G0 Z0.1
X0.4816 Y-2.4769
Z0.02
G1 Z-0.0506 F2
Z-0.1075
Y-2.4766 Z-0.1103 F20
X0.4817 Y-2.4757 Z-0.1129
X0.4818 Y-2.4742 Z-0.1153
X0.4819 Y-2.4722 Z-0.1173
X0.4821 Y-2.4699 Z-0.1188
X0.4823 Y-2.4673 Z-0.1197
X0.4826 Y-2.4645 Z-0.12
X0.4836 Y-2.452
G3 X0.4721 Y-2.4386 I-0.0125 J0.001
G1 X0.4484 Y-2.4367
X0.4465 Y-2.4365
X0.3983 Y-2.4311
X0.3964 Y-2.4309
X0.3478 Y-2.4239
X0.3459 Y-2.4236
X0.2969 Y-2.4151
X0.2951 Y-2.4148
X0.2457 Y-2.4047
X0.2439 Y-2.4043
X0.1943 Y-2.3926
X0.1925 Y-2.3922
X0.1425 Y-2.3789
X0.1408 Y-2.3784
X0.0905 Y-2.3635
X0.0889 Y-2.363
X0.0383 Y-2.3465
X0.0367 Y-2.346
X-0.0141 Y-2.3278
X-0.0157 Y-2.3272
X-0.0667 Y-2.3075
X-0.0682 Y-2.3068
X-0.1194 Y-2.2854
X-0.1209 Y-2.2848
X-0.1723 Y-2.2617
X-0.1737 Y-2.261
X-0.2252 Y-2.2362
X-0.2267 Y-2.2355
X-0.2783 Y-2.2091
X-0.2796 Y-2.2084
X-0.3313 Y-2.1803
X-0.3326 Y-2.1795
X-0.3843 Y-2.1497
X-0.3856 Y-2.149
X-0.4373 Y-2.1175
X-0.4386 Y-2.1167
X-0.4903 Y-2.0835
X-0.4915 Y-2.0827
X-0.5431 Y-2.0478
X-0.5443 Y-2.047
X-0.5958 Y-2.0104
X-0.5969 Y-2.0095
X-0.6483 Y-1.9712
X-0.6494 Y-1.9704
X-0.7005 Y-1.9304
X-0.7016 Y-1.9295
X-0.7525 Y-1.8878
X-0.7536 Y-1.8869
X-0.8042 Y-1.8436
X-0.8052 Y-1.8427
X-0.8555 Y-1.7976
X-0.8565 Y-1.7967
X-0.9064 Y-1.75
X-0.9073 Y-1.7491
X-0.9568 Y-1.7008
X-0.9577 Y-1.6998
X-1.0066 Y-1.6499
X-1.0076 Y-1.6489
X-1.0559 Y-1.5973
X-1.0568 Y-1.5964
X-1.1046 Y-1.5432
X-1.1055 Y-1.5423
X-1.1525 Y-1.4876
X-1.1534 Y-1.4866
X-1.1997 Y-1.4305
X-1.2005 Y-1.4295
X-1.2461 Y-1.3719
X-1.2469 Y-1.3709
X-1.2915 Y-1.3119
X-1.2923 Y-1.3109
X-1.336 Y-1.2506
X-1.3368 Y-1.2496
X-1.3795 Y-1.188
X-1.3802 Y-1.187
X-1.4219 Y-1.1242
X-1.4226 Y-1.1231
X-1.4631 Y-1.0593
X-1.4638 Y-1.0582
X-1.5031 Y-0.9933
X-1.5038 Y-0.9922
X-1.5419 Y-0.9263
X-1.5425 Y-0.9252
X-1.5793 Y-0.8585
X-1.5799 Y-0.8574
X-1.6153 Y-0.7899
X-1.6159 Y-0.7887
X-1.6499 Y-0.7206
X-1.6504 Y-0.7194
X-1.6829 Y-0.6507
X-1.6835 Y-0.6495
X-1.7145 Y-0.5803
X-1.715 Y-0.5791
X-1.7445 Y-0.5095
X-1.745 Y-0.5083
X-1.7729 Y-0.4384
X-1.7734 Y-0.4372
X-1.7997 Y-0.3671
X-1.8002 Y-0.3659
X-1.8249 Y-0.2957
X-1.8253 Y-0.2945
X-1.8483 Y-0.2243
X-1.8487 Y-0.2231
X-1.8701 Y-0.153
X-1.8705 Y-0.1517
X-1.8903 Y-0.0818
X-1.8906 Y-0.0805
X-1.9087 Y-0.0108
X-1.9091 Y-0.0096
X-1.9255 Y0.0598
X-1.9258 Y0.0611
X-1.9406 Y0.1301
X-1.9409 Y0.1314
X-1.954 Y0.1999
X-1.9543 Y0.2012
X-1.9658 Y0.2692
X-1.966 Y0.2705
X-1.9759 Y0.3379
X-1.9761 Y0.3393
X-1.9844 Y0.406
X-1.9846 Y0.4074
X-1.9913 Y0.4735
X-1.9914 Y0.4749
X-1.9966 Y0.5402
X-1.9967 Y0.5416
X-2.0003 Y0.6061
X-2.0004 Y0.6076
X-2.0025 Y0.6713
Y0.6727
X-2.0031 Y0.7356
Y0.7371
X-2.0023 Y0.799
X-2.0022 Y0.8005
X-1.9999 Y0.8616
X-1.9998 Y0.8631
X-1.9961 Y0.9232
X-1.996 Y0.9247
X-1.9909 Y0.9838
X-1.9907 Y0.9854
X-1.9842 Y1.0435
X-1.984 Y1.045
X-1.9761 Y1.1021
X-1.9759 Y1.1037
X-1.9667 Y1.1597
X-1.9664 Y1.1613
X-1.9559 Y1.2163
X-1.9556 Y1.2179
X-1.9438 Y1.2717
X-1.9434 Y1.2734
X-1.9304 Y1.3261
X-1.9299 Y1.3278
X-1.9157 Y1.3794
X-1.9152 Y1.3811
X-1.8997 Y1.4316
X-1.8992 Y1.4333
X-1.8825 Y1.4826
X-1.8819 Y1.4843
X-1.8641 Y1.5325
X-1.8634 Y1.5342
X-1.8445 Y1.5812
X-1.8438 Y1.5829
X-1.8237 Y1.6287
X-1.8229 Y1.6304
X-1.8017 Y1.675
X-1.8009 Y1.6767
X-1.7786 Y1.7201
X-1.7777 Y1.7218
X-1.7544 Y1.764
X-1.7534 Y1.7657
X-1.729 Y1.8066
X-1.728 Y1.8083
X-1.7026 Y1.848
X-1.7015 Y1.8497
X-1.6751 Y1.8881
X-1.674 Y1.8898
X-1.6466 Y1.9269
X-1.6454 Y1.9286
X-1.6171 Y1.9645
X-1.6157 Y1.9661
X-1.5865 Y2.0007
X-1.5851 Y2.0023
X-1.5549 Y2.0356
X-1.5535 Y2.0372
X-1.5224 Y2.0692
X-1.5209 Y2.0707
X-1.489 Y2.1014
X-1.4873 Y2.1029
X-1.4546 Y2.1322
X-1.4529 Y2.1337
X-1.4192 Y2.1617
X-1.4175 Y2.1631
X-1.383 Y2.1898
X-1.3812 Y2.1911
X-1.346 Y2.2164
X-1.3441 Y2.2177
X-1.3081 Y2.2417
X-1.3062 Y2.2429
X-1.2693 Y2.2655
X-1.2674 Y2.2667
X-1.2298 Y2.2879
X-1.2278 Y2.289
X-1.1895 Y2.3088
X-1.1874 Y2.3098
X-1.1484 Y2.3283
X-1.1463 Y2.3292
X-1.1066 Y2.3463
X-1.1045 Y2.3471
X-1.0641 Y2.3628
X-1.062 Y2.3635
X-1.0209 Y2.3778
X-1.0187 Y2.3784
X-0.977 Y2.3912
X-0.9749 Y2.3919
X-0.9325 Y2.4032
X-0.9303 Y2.4037
X-0.8873 Y2.4136
X-0.8852 Y2.4141
X-0.8416 Y2.4225
X-0.8395 Y2.4229
X-0.7953 Y2.4299
X-0.7932 Y2.4302
X-0.7485 Y2.4357
X-0.7464 Y2.4359
X-0.7011 Y2.4399
X-0.699 Y2.4401
X-0.6532 Y2.4426
X-0.6511 Y2.4427
X-0.6048 Y2.4437
X-0.6028
X-0.556 Y2.4432
X-0.554
X-0.5067 Y2.4411
X-0.5048 Y2.441
X-0.457 Y2.4375
X-0.4551 Y2.4373
X-0.407 Y2.4322
X-0.4051 Y2.4319
X-0.3565 Y2.4253
X-0.3547 Y2.425
X-0.3057 Y2.4168
X-0.3039 Y2.4164
X-0.2546 Y2.4066
X-0.2528 Y2.4062
X-0.2032 Y2.3948
X-0.2015 Y2.3944
X-0.1515 Y2.3814
X-0.1498 Y2.3809
X-0.0996 Y2.3663
X-0.0979 Y2.3658
X-0.0474 Y2.3496
X-0.0458 Y2.349
X0.005 Y2.3312
X0.0066 Y2.3306
X0.0576 Y2.3111
X0.0591 Y2.3105
X0.1103 Y2.2893
X0.1118 Y2.2887
X0.1631 Y2.2659
X0.1646 Y2.2652
X0.2161 Y2.2408
X0.2175 Y2.2401
X0.2691 Y2.2139
X0.2704 Y2.2132
X0.3221 Y2.1854
X0.3234 Y2.1846
X0.3751 Y2.1551
X0.3764 Y2.1544
X0.4281 Y2.1232
X0.4294 Y2.1224
X0.4811 Y2.0895
X0.4823 Y2.0887
X0.5339 Y2.0541
X0.5351 Y2.0533
X0.5866 Y2.017
X0.5878 Y2.0161
X0.6392 Y1.9781
X0.6403 Y1.9773
X0.6915 Y1.9376
X0.6926 Y1.9367
X0.7435 Y1.8953
X0.7446 Y1.8944
X0.7952 Y1.8514
X0.7963 Y1.8505
X0.8466 Y1.8057
X0.8476 Y1.8048
X0.8976 Y1.7584
X0.8986 Y1.7575
X0.9481 Y1.7094
X0.949 Y1.7085
X0.998 Y1.6588
X0.999 Y1.6578
X1.0474 Y1.6066
X1.0483 Y1.6056
X1.0962 Y1.5527
X1.0971 Y1.5517
X1.1443 Y1.4974
X1.1451 Y1.4964
X1.1916 Y1.4405
X1.1924 Y1.4395
X1.2381 Y1.3822
X1.2389 Y1.3811
X1.2837 Y1.3224
X1.2845 Y1.3214
X1.3284 Y1.2613
X1.3291 Y1.2603
X1.372 Y1.199
X1.3728 Y1.1979
X1.4146 Y1.1354
X1.4153 Y1.1343
X1.4561 Y1.0706
X1.4567 Y1.0695
X1.4963 Y1.0048
X1.4969 Y1.0037
X1.5352 Y0.938
X1.5359 Y0.9369
X1.5729 Y0.8703
X1.5735 Y0.8692
X1.6091 Y0.8018
X1.6097 Y0.8007
X1.644 Y0.7326
X1.6445 Y0.7315
X1.6773 Y0.6628
X1.6779 Y0.6617
X1.7092 Y0.5925
X1.7097 Y0.5913
X1.7394 Y0.5218
X1.7399 Y0.5206
X1.7681 Y0.4508
X1.7686 Y0.4496
X1.7952 Y0.3795
X1.7956 Y0.3783
X1.8206 Y0.3081
X1.821 Y0.3069
X1.8444 Y0.2367
X1.8448 Y0.2355
X1.8665 Y0.1653
X1.8669 Y0.1641
X1.8869 Y0.0941
X1.8873 Y0.0928
X1.9057 Y0.0231
X1.906 Y0.0218
X1.9227 Y-0.0476
X1.923 Y-0.0489
X1.9381 Y-0.1179
X1.9384 Y-0.1192
X1.9518 Y-0.1878
X1.9521 Y-0.1892
X1.9639 Y-0.2572
X1.9641 Y-0.2586
X1.9743 Y-0.326
X1.9745 Y-0.3274
X1.9831 Y-0.3943
X1.9832 Y-0.3957
X1.9902 Y-0.4618
X1.9904 Y-0.4632
X1.9958 Y-0.5287
X1.9959 Y-0.5301
X1.9998 Y-0.5948
X1.9999 Y-0.5962
X2.0022 Y-0.6601
X2.0023 Y-0.6615
X2.0031 Y-0.7245
Y-0.726
X2.0025 Y-0.7881
Y-0.7896
X2.0004 Y-0.8508
Y-0.8523
X1.9969 Y-0.9126
X1.9968 Y-0.9141
X1.9919 Y-0.9734
X1.9917 Y-0.9749
X1.9854 Y-1.0332
X1.9853 Y-1.0348
X1.9776 Y-1.092
X1.9774 Y-1.0936
X1.9684 Y-1.1498
X1.9681 Y-1.1514
X1.9579 Y-1.2065
X1.9575 Y-1.2082
X1.946 Y-1.2622
X1.9456 Y-1.2638
X1.9328 Y-1.3168
X1.9324 Y-1.3184
X1.9183 Y-1.3703
X1.9178 Y-1.3719
X1.9026 Y-1.4226
X1.902 Y-1.4243
X1.8856 Y-1.4739
X1.885 Y-1.4755
X1.8674 Y-1.5239
X1.8667 Y-1.5256
X1.848 Y-1.5728
X1.8473 Y-1.5745
X1.8274 Y-1.6205
X1.8266 Y-1.6223
X1.8056 Y-1.6671
X1.8048 Y-1.6688
X1.7827 Y-1.7124
X1.7818 Y-1.7141
X1.7587 Y-1.7565
X1.7577 Y-1.7582
X1.7335 Y-1.7993
X1.7325 Y-1.801
X1.7073 Y-1.8409
X1.7062 Y-1.8426
X1.68 Y-1.8813
X1.6788 Y-1.8829
X1.6516 Y-1.9203
X1.6504 Y-1.922
X1.6223 Y-1.9581
X1.6209 Y-1.9597
X1.5919 Y-1.9945
X1.5905 Y-1.9961
X1.5605 Y-2.0296
X1.559 Y-2.0312
X1.5281 Y-2.0634
X1.5266 Y-2.065
X1.4948 Y-2.0959
X1.4932 Y-2.0974
X1.4606 Y-2.127
X1.4589 Y-2.1284
X1.4254 Y-2.1567
X1.4237 Y-2.1581
X1.3894 Y-2.185
X1.3876 Y-2.1864
X1.3525 Y-2.2119
X1.3506 Y-2.2132
X1.3147 Y-2.2374
X1.3128 Y-2.2386
X1.2761 Y-2.2615
X1.2742 Y-2.2627
X1.2367 Y-2.2841
X1.2354 Y-2.2849
X1.2222 Y-2.292
X1.2209 Y-2.2927
X1.1824 Y-2.3123
X1.1804 Y-2.3133
X1.1412 Y-2.3315
X1.1391 Y-2.3324
X1.0993 Y-2.3492
X1.0972 Y-2.3501
X1.0566 Y-2.3655
X1.0545 Y-2.3662
X1.0133 Y-2.3802
X1.0112 Y-2.3809
X0.9693 Y-2.3934
X0.9672 Y-2.394
X0.9247 Y-2.4051
X0.9226 Y-2.4056
X0.8795 Y-2.4153
X0.8773 Y-2.4157
X0.8336 Y-2.4239
X0.8315 Y-2.4243
X0.7872 Y-2.431
X0.7851 Y-2.4313
X0.7403 Y-2.4365
X0.7382 Y-2.4368
X0.6928 Y-2.4405
X0.6907 Y-2.4407
X0.6448 Y-2.4429
X0.6428 Y-2.443
X0.5964 Y-2.4437
X0.5944
X0.5475 Y-2.443
X0.5455 Y-2.4429
X0.4982 Y-2.4406
X0.4962 Y-2.4405
X0.4721 Y-2.4386
G3 X0.4586 Y-2.45 I-0.001 J-0.0125
G1 X0.4576 Y-2.4625
X0.4574 Y-2.4653 Z-0.1197
X0.4572 Y-2.4679 Z-0.1188
X0.457 Y-2.4703 Z-0.1173
X0.4569 Y-2.4722 Z-0.1153
X0.4567 Y-2.4737 Z-0.1129
Y-2.4746 Z-0.1103
X0.4566 Y-2.4749 Z-0.1075
G0 Z0.1
X0.4816 Y-2.4769
Z0.02
G1 Z-0.0656 F2
Z-0.1225
Y-2.4766 Z-0.1253 F20
X0.4817 Y-2.4757 Z-0.1279
X0.4818 Y-2.4742 Z-0.1303
X0.4819 Y-2.4722 Z-0.1323
X0.4821 Y-2.4699 Z-0.1338
X0.4823 Y-2.4673 Z-0.1347
X0.4826 Y-2.4645 Z-0.135
X0.4836 Y-2.452
G3 X0.4721 Y-2.4386 I-0.0125 J0.001
G1 X0.4484 Y-2.4367
X0.4465 Y-2.4365
X0.3983 Y-2.4311
X0.3964 Y-2.4309
X0.3478 Y-2.4239
X0.3459 Y-2.4236
X0.2969 Y-2.4151
X0.2951 Y-2.4148
X0.2457 Y-2.4047
X0.2439 Y-2.4043
X0.1943 Y-2.3926
X0.1925 Y-2.3922
X0.1425 Y-2.3789
X0.1408 Y-2.3784
X0.0905 Y-2.3635
X0.0889 Y-2.363
X0.0383 Y-2.3465
X0.0367 Y-2.346
X-0.0141 Y-2.3278
X-0.0157 Y-2.3272
X-0.0667 Y-2.3075
X-0.0682 Y-2.3068
X-0.1194 Y-2.2854
X-0.1209 Y-2.2848
X-0.1723 Y-2.2617
X-0.1737 Y-2.261
X-0.2252 Y-2.2362
X-0.2267 Y-2.2355
X-0.2783 Y-2.2091
X-0.2796 Y-2.2084
X-0.3313 Y-2.1803
X-0.3326 Y-2.1795
X-0.3843 Y-2.1497
X-0.3856 Y-2.149
X-0.4373 Y-2.1175
X-0.4386 Y-2.1167
X-0.4903 Y-2.0835
X-0.4915 Y-2.0827
X-0.5431 Y-2.0478
X-0.5443 Y-2.047
X-0.5958 Y-2.0104
X-0.5969 Y-2.0095
X-0.6483 Y-1.9712
X-0.6494 Y-1.9704
X-0.7005 Y-1.9304
X-0.7016 Y-1.9295
X-0.7525 Y-1.8878
X-0.7536 Y-1.8869
X-0.8042 Y-1.8436
X-0.8052 Y-1.8427
X-0.8555 Y-1.7976
X-0.8565 Y-1.7967
X-0.9064 Y-1.75
X-0.9073 Y-1.7491
X-0.9568 Y-1.7008
X-0.9577 Y-1.6998
X-1.0066 Y-1.6499
X-1.0076 Y-1.6489
X-1.0559 Y-1.5973
X-1.0568 Y-1.5964
X-1.1046 Y-1.5432
X-1.1055 Y-1.5423
X-1.1525 Y-1.4876
X-1.1534 Y-1.4866
X-1.1997 Y-1.4305
X-1.2005 Y-1.4295
X-1.2461 Y-1.3719
X-1.2469 Y-1.3709
X-1.2915 Y-1.3119
X-1.2923 Y-1.3109
X-1.336 Y-1.2506
X-1.3368 Y-1.2496
X-1.3795 Y-1.188
X-1.3802 Y-1.187
X-1.4219 Y-1.1242
X-1.4226 Y-1.1231
X-1.4631 Y-1.0593
X-1.4638 Y-1.0582
X-1.5031 Y-0.9933
X-1.5038 Y-0.9922
X-1.5419 Y-0.9263
X-1.5425 Y-0.9252
X-1.5793 Y-0.8585
X-1.5799 Y-0.8574
X-1.6153 Y-0.7899
X-1.6159 Y-0.7887
X-1.6499 Y-0.7206
X-1.6504 Y-0.7194
X-1.6829 Y-0.6507
X-1.6835 Y-0.6495
X-1.7145 Y-0.5803
X-1.715 Y-0.5791
X-1.7445 Y-0.5095
X-1.745 Y-0.5083
X-1.7729 Y-0.4384
X-1.7734 Y-0.4372
X-1.7997 Y-0.3671
X-1.8002 Y-0.3659
X-1.8249 Y-0.2957
X-1.8253 Y-0.2945
X-1.8483 Y-0.2243
X-1.8487 Y-0.2231
X-1.8701 Y-0.153
X-1.8705 Y-0.1517
X-1.8903 Y-0.0818
X-1.8906 Y-0.0805
X-1.9087 Y-0.0108
X-1.9091 Y-0.0096
X-1.9255 Y0.0598
X-1.9258 Y0.0611
X-1.9406 Y0.1301
X-1.9409 Y0.1314
X-1.954 Y0.1999
X-1.9543 Y0.2012
X-1.9658 Y0.2692
X-1.966 Y0.2705
X-1.9759 Y0.3379
X-1.9761 Y0.3393
X-1.9844 Y0.406
X-1.9846 Y0.4074
X-1.9913 Y0.4735
X-1.9914 Y0.4749
X-1.9966 Y0.5402
X-1.9967 Y0.5416
X-2.0003 Y0.6061
X-2.0004 Y0.6076
X-2.0025 Y0.6713
Y0.6727
X-2.0031 Y0.7356
Y0.7371
X-2.0023 Y0.799
X-2.0022 Y0.8005
X-1.9999 Y0.8616
X-1.9998 Y0.8631
X-1.9961 Y0.9232
X-1.996 Y0.9247
X-1.9909 Y0.9838
X-1.9907 Y0.9854
X-1.9842 Y1.0435
X-1.984 Y1.045
X-1.9761 Y1.1021
X-1.9759 Y1.1037
X-1.9667 Y1.1597
X-1.9664 Y1.1613
X-1.9559 Y1.2163
X-1.9556 Y1.2179
X-1.9438 Y1.2717
X-1.9434 Y1.2734
X-1.9304 Y1.3261
X-1.9299 Y1.3278
X-1.9157 Y1.3794
X-1.9152 Y1.3811
X-1.8997 Y1.4316
X-1.8992 Y1.4333
X-1.8825 Y1.4826
X-1.8819 Y1.4843
X-1.8641 Y1.5325
X-1.8634 Y1.5342
X-1.8445 Y1.5812
X-1.8438 Y1.5829
X-1.8237 Y1.6287
X-1.8229 Y1.6304
X-1.8017 Y1.675
X-1.8009 Y1.6767
X-1.7786 Y1.7201
X-1.7777 Y1.7218
X-1.7544 Y1.764
X-1.7534 Y1.7657
X-1.729 Y1.8066
X-1.728 Y1.8083
X-1.7026 Y1.848
X-1.7015 Y1.8497
X-1.6751 Y1.8881
X-1.674 Y1.8898
X-1.6466 Y1.9269
X-1.6454 Y1.9286
X-1.6171 Y1.9645
X-1.6157 Y1.9661
X-1.5865 Y2.0007
X-1.5851 Y2.0023
X-1.5549 Y2.0356
X-1.5535 Y2.0372
X-1.5224 Y2.0692
X-1.5209 Y2.0707
X-1.489 Y2.1014
X-1.4873 Y2.1029
X-1.4546 Y2.1322
X-1.4529 Y2.1337
X-1.4192 Y2.1617
X-1.4175 Y2.1631
X-1.383 Y2.1898
X-1.3812 Y2.1911
X-1.346 Y2.2164
X-1.3441 Y2.2177
X-1.3081 Y2.2417
X-1.3062 Y2.2429
X-1.2693 Y2.2655
X-1.2674 Y2.2667
X-1.2298 Y2.2879
X-1.2278 Y2.289
X-1.1895 Y2.3088
X-1.1874 Y2.3098
X-1.1484 Y2.3283
X-1.1463 Y2.3292
X-1.1066 Y2.3463
X-1.1045 Y2.3471
X-1.0641 Y2.3628
X-1.062 Y2.3635
X-1.0209 Y2.3778
X-1.0187 Y2.3784
X-0.977 Y2.3912
X-0.9749 Y2.3919
X-0.9325 Y2.4032
X-0.9303 Y2.4037
X-0.8873 Y2.4136
X-0.8852 Y2.4141
X-0.8416 Y2.4225
X-0.8395 Y2.4229
X-0.7953 Y2.4299
X-0.7932 Y2.4302
X-0.7485 Y2.4357
X-0.7464 Y2.4359
X-0.7011 Y2.4399
X-0.699 Y2.4401
X-0.6532 Y2.4426
X-0.6511 Y2.4427
X-0.6048 Y2.4437
X-0.6028
X-0.556 Y2.4432
X-0.554
X-0.5067 Y2.4411
X-0.5048 Y2.441
X-0.457 Y2.4375
X-0.4551 Y2.4373
X-0.407 Y2.4322
X-0.4051 Y2.4319
X-0.3565 Y2.4253
X-0.3547 Y2.425
X-0.3057 Y2.4168
X-0.3039 Y2.4164
X-0.2546 Y2.4066
X-0.2528 Y2.4062
X-0.2032 Y2.3948
X-0.2015 Y2.3944
X-0.1515 Y2.3814
X-0.1498 Y2.3809
X-0.0996 Y2.3663
X-0.0979 Y2.3658
X-0.0474 Y2.3496
X-0.0458 Y2.349
X0.005 Y2.3312
X0.0066 Y2.3306
X0.0576 Y2.3111
X0.0591 Y2.3105
X0.1103 Y2.2893
X0.1118 Y2.2887
X0.1631 Y2.2659
X0.1646 Y2.2652
X0.2161 Y2.2408
X0.2175 Y2.2401
X0.2691 Y2.2139
X0.2704 Y2.2132
X0.3221 Y2.1854
X0.3234 Y2.1846
X0.3751 Y2.1551
X0.3764 Y2.1544
X0.4281 Y2.1232
X0.4294 Y2.1224
X0.4811 Y2.0895
X0.4823 Y2.0887
X0.5339 Y2.0541
X0.5351 Y2.0533
X0.5866 Y2.017
X0.5878 Y2.0161
X0.6392 Y1.9781
X0.6403 Y1.9773
X0.6915 Y1.9376
X0.6926 Y1.9367
X0.7435 Y1.8953
X0.7446 Y1.8944
X0.7952 Y1.8514
X0.7963 Y1.8505
X0.8466 Y1.8057
X0.8476 Y1.8048
X0.8976 Y1.7584
X0.8986 Y1.7575
X0.9481 Y1.7094
X0.949 Y1.7085
X0.998 Y1.6588
X0.999 Y1.6578
X1.0474 Y1.6066
X1.0483 Y1.6056
X1.0962 Y1.5527
X1.0971 Y1.5517
X1.1443 Y1.4974
X1.1451 Y1.4964
X1.1916 Y1.4405
X1.1924 Y1.4395
X1.2381 Y1.3822
X1.2389 Y1.3811
X1.2837 Y1.3224
X1.2845 Y1.3214
X1.3284 Y1.2613
X1.3291 Y1.2603
X1.372 Y1.199
X1.3728 Y1.1979
X1.4146 Y1.1354
X1.4153 Y1.1343
X1.4561 Y1.0706
X1.4567 Y1.0695
X1.4963 Y1.0048
X1.4969 Y1.0037
X1.5352 Y0.938
X1.5359 Y0.9369
X1.5729 Y0.8703
X1.5735 Y0.8692
X1.6091 Y0.8018
X1.6097 Y0.8007
X1.644 Y0.7326
X1.6445 Y0.7315
X1.6773 Y0.6628
X1.6779 Y0.6617
X1.7092 Y0.5925
X1.7097 Y0.5913
X1.7394 Y0.5218
X1.7399 Y0.5206
X1.7681 Y0.4508
X1.7686 Y0.4496
X1.7952 Y0.3795
X1.7956 Y0.3783
X1.8206 Y0.3081
X1.821 Y0.3069
X1.8444 Y0.2367
X1.8448 Y0.2355
X1.8665 Y0.1653
X1.8669 Y0.1641
X1.8869 Y0.0941
X1.8873 Y0.0928
X1.9057 Y0.0231
X1.906 Y0.0218
X1.9227 Y-0.0476
X1.923 Y-0.0489
X1.9381 Y-0.1179
X1.9384 Y-0.1192
X1.9518 Y-0.1878
X1.9521 Y-0.1892
X1.9639 Y-0.2572
X1.9641 Y-0.2586
X1.9743 Y-0.326
X1.9745 Y-0.3274
X1.9831 Y-0.3943
X1.9832 Y-0.3957
X1.9902 Y-0.4618
X1.9904 Y-0.4632
X1.9958 Y-0.5287
X1.9959 Y-0.5301
X1.9998 Y-0.5948
X1.9999 Y-0.5962
X2.0022 Y-0.6601
X2.0023 Y-0.6615
X2.0031 Y-0.7245
Y-0.726
X2.0025 Y-0.7881
Y-0.7896
X2.0004 Y-0.8508
Y-0.8523
X1.9969 Y-0.9126
X1.9968 Y-0.9141
X1.9919 Y-0.9734
X1.9917 Y-0.9749
X1.9854 Y-1.0332
X1.9853 Y-1.0348
X1.9776 Y-1.092
X1.9774 Y-1.0936
X1.9684 Y-1.1498
X1.9681 Y-1.1514
X1.9579 Y-1.2065
X1.9575 Y-1.2082
X1.946 Y-1.2622
X1.9456 Y-1.2638
X1.9328 Y-1.3168
X1.9324 Y-1.3184
X1.9183 Y-1.3703
X1.9178 Y-1.3719
X1.9026 Y-1.4226
X1.902 Y-1.4243
X1.8856 Y-1.4739
X1.885 Y-1.4755
X1.8674 Y-1.5239
X1.8667 Y-1.5256
X1.848 Y-1.5728
X1.8473 Y-1.5745
X1.8274 Y-1.6205
X1.8266 Y-1.6223
X1.8056 Y-1.6671
X1.8048 Y-1.6688
X1.7827 Y-1.7124
X1.7818 Y-1.7141
X1.7587 Y-1.7565
X1.7577 Y-1.7582
X1.7335 Y-1.7993
X1.7325 Y-1.801
X1.7073 Y-1.8409
X1.7062 Y-1.8426
X1.68 Y-1.8813
X1.6788 Y-1.8829
X1.6516 Y-1.9203
X1.6504 Y-1.922
X1.6223 Y-1.9581
X1.6209 Y-1.9597
X1.5919 Y-1.9945
X1.5905 Y-1.9961
X1.5605 Y-2.0296
X1.559 Y-2.0312
X1.5281 Y-2.0634
X1.5266 Y-2.065
X1.4948 Y-2.0959
X1.4932 Y-2.0974
X1.4606 Y-2.127
X1.4589 Y-2.1284
X1.4254 Y-2.1567
X1.4237 Y-2.1581
X1.3894 Y-2.185
X1.3876 Y-2.1864
X1.3525 Y-2.2119
X1.3506 Y-2.2132
X1.3147 Y-2.2374
X1.3128 Y-2.2386
X1.2761 Y-2.2615
X1.2742 Y-2.2627
X1.2367 Y-2.2841
X1.2354 Y-2.2849
X1.2222 Y-2.292
X1.2209 Y-2.2927
X1.1824 Y-2.3123
X1.1804 Y-2.3133
X1.1412 Y-2.3315
X1.1391 Y-2.3324
X1.0993 Y-2.3492
X1.0972 Y-2.3501
X1.0566 Y-2.3655
X1.0545 Y-2.3662
X1.0133 Y-2.3802
X1.0112 Y-2.3809
X0.9693 Y-2.3934
X0.9672 Y-2.394
X0.9247 Y-2.4051
X0.9226 Y-2.4056
X0.8795 Y-2.4153
X0.8773 Y-2.4157
X0.8336 Y-2.4239
X0.8315 Y-2.4243
X0.7872 Y-2.431
X0.7851 Y-2.4313
X0.7403 Y-2.4365
X0.7382 Y-2.4368
X0.6928 Y-2.4405
X0.6907 Y-2.4407
X0.6448 Y-2.4429
X0.6428 Y-2.443
X0.5964 Y-2.4437
X0.5944
X0.5475 Y-2.443
X0.5455 Y-2.4429
X0.4982 Y-2.4406
X0.4962 Y-2.4405
X0.4721 Y-2.4386
G3 X0.4586 Y-2.45 I-0.001 J-0.0125
G1 X0.4576 Y-2.4625
X0.4574 Y-2.4653 Z-0.1347
X0.4572 Y-2.4679 Z-0.1338
X0.457 Y-2.4703 Z-0.1323
X0.4569 Y-2.4722 Z-0.1303
X0.4567 Y-2.4737 Z-0.1279
Y-2.4746 Z-0.1253
X0.4566 Y-2.4749 Z-0.1225
G0 Z0.1
X0.4816 Y-2.4769
Z0.02
G1 Z-0.0806 F2
Z-0.1375
Y-2.4766 Z-0.1403 F20
X0.4817 Y-2.4757 Z-0.1429
X0.4818 Y-2.4742 Z-0.1453
X0.4819 Y-2.4722 Z-0.1473
X0.4821 Y-2.4699 Z-0.1488
X0.4823 Y-2.4673 Z-0.1497
X0.4826 Y-2.4645 Z-0.15
X0.4836 Y-2.452
G3 X0.4721 Y-2.4386 I-0.0125 J0.001
G1 X0.4484 Y-2.4367
X0.4465 Y-2.4365
X0.3983 Y-2.4311
X0.3964 Y-2.4309
X0.3478 Y-2.4239
X0.3459 Y-2.4236
X0.2969 Y-2.4151
X0.2951 Y-2.4148
X0.2457 Y-2.4047
X0.2439 Y-2.4043
X0.1943 Y-2.3926
X0.1925 Y-2.3922
X0.1425 Y-2.3789
X0.1408 Y-2.3784
X0.0905 Y-2.3635
X0.0889 Y-2.363
X0.0383 Y-2.3465
X0.0367 Y-2.346
X-0.0141 Y-2.3278
X-0.0157 Y-2.3272
X-0.0667 Y-2.3075
X-0.0682 Y-2.3068
X-0.1194 Y-2.2854
X-0.1209 Y-2.2848
X-0.1723 Y-2.2617
X-0.1737 Y-2.261
X-0.2252 Y-2.2362
X-0.2267 Y-2.2355
X-0.2783 Y-2.2091
X-0.2796 Y-2.2084
X-0.3313 Y-2.1803
X-0.3326 Y-2.1795
X-0.3843 Y-2.1497
X-0.3856 Y-2.149
X-0.4373 Y-2.1175
X-0.4386 Y-2.1167
X-0.4903 Y-2.0835
X-0.4915 Y-2.0827
X-0.5431 Y-2.0478
X-0.5443 Y-2.047
X-0.5958 Y-2.0104
X-0.5969 Y-2.0095
X-0.6483 Y-1.9712
X-0.6494 Y-1.9704
X-0.7005 Y-1.9304
X-0.7016 Y-1.9295
X-0.7525 Y-1.8878
X-0.7536 Y-1.8869
X-0.8042 Y-1.8436
X-0.8052 Y-1.8427
X-0.8555 Y-1.7976
X-0.8565 Y-1.7967
X-0.9064 Y-1.75
X-0.9073 Y-1.7491
X-0.9568 Y-1.7008
X-0.9577 Y-1.6998
X-1.0066 Y-1.6499
X-1.0076 Y-1.6489
X-1.0559 Y-1.5973
X-1.0568 Y-1.5964
X-1.1046 Y-1.5432
X-1.1055 Y-1.5423
X-1.1525 Y-1.4876
X-1.1534 Y-1.4866
X-1.1997 Y-1.4305
X-1.2005 Y-1.4295
X-1.2461 Y-1.3719
X-1.2469 Y-1.3709
X-1.2915 Y-1.3119
X-1.2923 Y-1.3109
X-1.336 Y-1.2506
X-1.3368 Y-1.2496
X-1.3795 Y-1.188
X-1.3802 Y-1.187
X-1.4219 Y-1.1242
X-1.4226 Y-1.1231
X-1.4631 Y-1.0593
X-1.4638 Y-1.0582
X-1.5031 Y-0.9933
X-1.5038 Y-0.9922
X-1.5419 Y-0.9263
X-1.5425 Y-0.9252
X-1.5793 Y-0.8585
X-1.5799 Y-0.8574
X-1.6153 Y-0.7899
X-1.6159 Y-0.7887
X-1.6499 Y-0.7206
X-1.6504 Y-0.7194
X-1.6829 Y-0.6507
X-1.6835 Y-0.6495
X-1.7145 Y-0.5803
X-1.715 Y-0.5791
X-1.7445 Y-0.5095
X-1.745 Y-0.5083
X-1.7729 Y-0.4384
X-1.7734 Y-0.4372
X-1.7997 Y-0.3671
X-1.8002 Y-0.3659
X-1.8249 Y-0.2957
X-1.8253 Y-0.2945
X-1.8483 Y-0.2243
X-1.8487 Y-0.2231
X-1.8701 Y-0.153
X-1.8705 Y-0.1517
X-1.8903 Y-0.0818
X-1.8906 Y-0.0805
X-1.9087 Y-0.0108
X-1.9091 Y-0.0096
X-1.9255 Y0.0598
X-1.9258 Y0.0611
X-1.9406 Y0.1301
X-1.9409 Y0.1314
X-1.954 Y0.1999
X-1.9543 Y0.2012
X-1.9658 Y0.2692
X-1.966 Y0.2705
X-1.9759 Y0.3379
X-1.9761 Y0.3393
X-1.9844 Y0.406
X-1.9846 Y0.4074
X-1.9913 Y0.4735
X-1.9914 Y0.4749
X-1.9966 Y0.5402
X-1.9967 Y0.5416
X-2.0003 Y0.6061
X-2.0004 Y0.6076
X-2.0025 Y0.6713
Y0.6727
X-2.0031 Y0.7356
Y0.7371
X-2.0023 Y0.799
X-2.0022 Y0.8005
X-1.9999 Y0.8616
X-1.9998 Y0.8631
X-1.9961 Y0.9232
X-1.996 Y0.9247
X-1.9909 Y0.9838
X-1.9907 Y0.9854
X-1.9842 Y1.0435
X-1.984 Y1.045
X-1.9761 Y1.1021
X-1.9759 Y1.1037
X-1.9667 Y1.1597
X-1.9664 Y1.1613
X-1.9559 Y1.2163
X-1.9556 Y1.2179
X-1.9438 Y1.2717
X-1.9434 Y1.2734
X-1.9304 Y1.3261
X-1.9299 Y1.3278
X-1.9157 Y1.3794
X-1.9152 Y1.3811
X-1.8997 Y1.4316
X-1.8992 Y1.4333
X-1.8825 Y1.4826
X-1.8819 Y1.4843
X-1.8641 Y1.5325
X-1.8634 Y1.5342
X-1.8445 Y1.5812
X-1.8438 Y1.5829
X-1.8237 Y1.6287
X-1.8229 Y1.6304
X-1.8017 Y1.675
X-1.8009 Y1.6767
X-1.7786 Y1.7201
X-1.7777 Y1.7218
X-1.7544 Y1.764
X-1.7534 Y1.7657
X-1.729 Y1.8066
X-1.728 Y1.8083
X-1.7026 Y1.848
X-1.7015 Y1.8497
X-1.6751 Y1.8881
X-1.674 Y1.8898
X-1.6466 Y1.9269
X-1.6454 Y1.9286
X-1.6171 Y1.9645
X-1.6157 Y1.9661
X-1.5865 Y2.0007
X-1.5851 Y2.0023
X-1.5549 Y2.0356
X-1.5535 Y2.0372
X-1.5224 Y2.0692
X-1.5209 Y2.0707
X-1.489 Y2.1014
X-1.4873 Y2.1029
X-1.4546 Y2.1322
X-1.4529 Y2.1337
X-1.4192 Y2.1617
X-1.4175 Y2.1631
X-1.383 Y2.1898
X-1.3812 Y2.1911
X-1.346 Y2.2164
X-1.3441 Y2.2177
X-1.3081 Y2.2417
X-1.3062 Y2.2429
X-1.2693 Y2.2655
X-1.2674 Y2.2667
X-1.2298 Y2.2879
X-1.2278 Y2.289
X-1.1895 Y2.3088
X-1.1874 Y2.3098
X-1.1484 Y2.3283
X-1.1463 Y2.3292
X-1.1066 Y2.3463
X-1.1045 Y2.3471
X-1.0641 Y2.3628
X-1.062 Y2.3635
X-1.0209 Y2.3778
X-1.0187 Y2.3784
X-0.977 Y2.3912
X-0.9749 Y2.3919
X-0.9325 Y2.4032
X-0.9303 Y2.4037
X-0.8873 Y2.4136
X-0.8852 Y2.4141
X-0.8416 Y2.4225
X-0.8395 Y2.4229
X-0.7953 Y2.4299
X-0.7932 Y2.4302
X-0.7485 Y2.4357
X-0.7464 Y2.4359
X-0.7011 Y2.4399
X-0.699 Y2.4401
X-0.6532 Y2.4426
X-0.6511 Y2.4427
X-0.6048 Y2.4437
X-0.6028
X-0.556 Y2.4432
X-0.554
X-0.5067 Y2.4411
X-0.5048 Y2.441
X-0.457 Y2.4375
X-0.4551 Y2.4373
X-0.407 Y2.4322
X-0.4051 Y2.4319
X-0.3565 Y2.4253
X-0.3547 Y2.425
X-0.3057 Y2.4168
X-0.3039 Y2.4164
X-0.2546 Y2.4066
X-0.2528 Y2.4062
X-0.2032 Y2.3948
X-0.2015 Y2.3944
X-0.1515 Y2.3814
X-0.1498 Y2.3809
X-0.0996 Y2.3663
X-0.0979 Y2.3658
X-0.0474 Y2.3496
X-0.0458 Y2.349
X0.005 Y2.3312
X0.0066 Y2.3306
X0.0576 Y2.3111
X0.0591 Y2.3105
X0.1103 Y2.2893
X0.1118 Y2.2887
X0.1631 Y2.2659
X0.1646 Y2.2652
X0.2161 Y2.2408
X0.2175 Y2.2401
X0.2691 Y2.2139
X0.2704 Y2.2132
X0.3221 Y2.1854
X0.3234 Y2.1846
X0.3751 Y2.1551
X0.3764 Y2.1544
X0.4281 Y2.1232
X0.4294 Y2.1224
X0.4811 Y2.0895
X0.4823 Y2.0887
X0.5339 Y2.0541
X0.5351 Y2.0533
X0.5866 Y2.017
X0.5878 Y2.0161
X0.6392 Y1.9781
X0.6403 Y1.9773
X0.6915 Y1.9376
X0.6926 Y1.9367
X0.7435 Y1.8953
X0.7446 Y1.8944
X0.7952 Y1.8514
X0.7963 Y1.8505
X0.8466 Y1.8057
X0.8476 Y1.8048
X0.8976 Y1.7584
X0.8986 Y1.7575
X0.9481 Y1.7094
X0.949 Y1.7085
X0.998 Y1.6588
X0.999 Y1.6578
X1.0474 Y1.6066
X1.0483 Y1.6056
X1.0962 Y1.5527
X1.0971 Y1.5517
X1.1443 Y1.4974
X1.1451 Y1.4964
X1.1916 Y1.4405
X1.1924 Y1.4395
X1.2381 Y1.3822
X1.2389 Y1.3811
X1.2837 Y1.3224
X1.2845 Y1.3214
X1.3284 Y1.2613
X1.3291 Y1.2603
X1.372 Y1.199
X1.3728 Y1.1979
X1.4146 Y1.1354
X1.4153 Y1.1343
X1.4561 Y1.0706
X1.4567 Y1.0695
X1.4963 Y1.0048
X1.4969 Y1.0037
X1.5352 Y0.938
X1.5359 Y0.9369
X1.5729 Y0.8703
X1.5735 Y0.8692
X1.6091 Y0.8018
X1.6097 Y0.8007
X1.644 Y0.7326
X1.6445 Y0.7315
X1.6773 Y0.6628
X1.6779 Y0.6617
X1.7092 Y0.5925
X1.7097 Y0.5913
X1.7394 Y0.5218
X1.7399 Y0.5206
X1.7681 Y0.4508
X1.7686 Y0.4496
X1.7952 Y0.3795
X1.7956 Y0.3783
X1.8206 Y0.3081
X1.821 Y0.3069
X1.8444 Y0.2367
X1.8448 Y0.2355
X1.8665 Y0.1653
X1.8669 Y0.1641
X1.8869 Y0.0941
X1.8873 Y0.0928
X1.9057 Y0.0231
X1.906 Y0.0218
X1.9227 Y-0.0476
X1.923 Y-0.0489
X1.9381 Y-0.1179
X1.9384 Y-0.1192
X1.9518 Y-0.1878
X1.9521 Y-0.1892
X1.9639 Y-0.2572
X1.9641 Y-0.2586
X1.9743 Y-0.326
X1.9745 Y-0.3274
X1.9831 Y-0.3943
X1.9832 Y-0.3957
X1.9902 Y-0.4618
X1.9904 Y-0.4632
X1.9958 Y-0.5287
X1.9959 Y-0.5301
X1.9998 Y-0.5948
X1.9999 Y-0.5962
X2.0022 Y-0.6601
X2.0023 Y-0.6615
X2.0031 Y-0.7245
Y-0.726
X2.0025 Y-0.7881
Y-0.7896
X2.0004 Y-0.8508
Y-0.8523
X1.9969 Y-0.9126
X1.9968 Y-0.9141
X1.9919 Y-0.9734
X1.9917 Y-0.9749
X1.9854 Y-1.0332
X1.9853 Y-1.0348
X1.9776 Y-1.092
X1.9774 Y-1.0936
X1.9684 Y-1.1498
X1.9681 Y-1.1514
X1.9579 Y-1.2065
X1.9575 Y-1.2082
X1.946 Y-1.2622
X1.9456 Y-1.2638
X1.9328 Y-1.3168
X1.9324 Y-1.3184
X1.9183 Y-1.3703
X1.9178 Y-1.3719
X1.9026 Y-1.4226
X1.902 Y-1.4243
X1.8856 Y-1.4739
X1.885 Y-1.4755
X1.8674 Y-1.5239
X1.8667 Y-1.5256
X1.848 Y-1.5728
X1.8473 Y-1.5745
X1.8274 Y-1.6205
X1.8266 Y-1.6223
X1.8056 Y-1.6671
X1.8048 Y-1.6688
X1.7827 Y-1.7124
X1.7818 Y-1.7141
X1.7587 Y-1.7565
X1.7577 Y-1.7582
X1.7335 Y-1.7993
X1.7325 Y-1.801
X1.7073 Y-1.8409
X1.7062 Y-1.8426
X1.68 Y-1.8813
X1.6788 Y-1.8829
X1.6516 Y-1.9203
X1.6504 Y-1.922
X1.6223 Y-1.9581
X1.6209 Y-1.9597
X1.5919 Y-1.9945
X1.5905 Y-1.9961
X1.5605 Y-2.0296
X1.559 Y-2.0312
X1.5281 Y-2.0634
X1.5266 Y-2.065
X1.4948 Y-2.0959
X1.4932 Y-2.0974
X1.4606 Y-2.127
X1.4589 Y-2.1284
X1.4254 Y-2.1567
X1.4237 Y-2.1581
X1.3894 Y-2.185
X1.3876 Y-2.1864
X1.3525 Y-2.2119
X1.3506 Y-2.2132
X1.3147 Y-2.2374
X1.3128 Y-2.2386
X1.2761 Y-2.2615
X1.2742 Y-2.2627
X1.2367 Y-2.2841
X1.2354 Y-2.2849
X1.2222 Y-2.292
X1.2209 Y-2.2927
X1.1824 Y-2.3123
X1.1804 Y-2.3133
X1.1412 Y-2.3315
X1.1391 Y-2.3324
X1.0993 Y-2.3492
X1.0972 Y-2.3501
X1.0566 Y-2.3655
X1.0545 Y-2.3662
X1.0133 Y-2.3802
X1.0112 Y-2.3809
X0.9693 Y-2.3934
X0.9672 Y-2.394
X0.9247 Y-2.4051
X0.9226 Y-2.4056
X0.8795 Y-2.4153
X0.8773 Y-2.4157
X0.8336 Y-2.4239
X0.8315 Y-2.4243
X0.7872 Y-2.431
X0.7851 Y-2.4313
X0.7403 Y-2.4365
X0.7382 Y-2.4368
X0.6928 Y-2.4405
X0.6907 Y-2.4407
X0.6448 Y-2.4429
X0.6428 Y-2.443
X0.5964 Y-2.4437
X0.5944
X0.5475 Y-2.443
X0.5455 Y-2.4429
X0.4982 Y-2.4406
X0.4962 Y-2.4405
X0.4721 Y-2.4386
G3 X0.4586 Y-2.45 I-0.001 J-0.0125
G1 X0.4576 Y-2.4625
X0.4574 Y-2.4653 Z-0.1497
X0.4572 Y-2.4679 Z-0.1488
X0.457 Y-2.4703 Z-0.1473
X0.4569 Y-2.4722 Z-0.1453
X0.4567 Y-2.4737 Z-0.1429
Y-2.4746 Z-0.1403
X0.4566 Y-2.4749 Z-0.1375
G0 Z0.1
X0.4816 Y-2.4769
Z0.02
G1 Z-0.0956 F2
Z-0.1525
Y-2.4766 Z-0.1553 F20
X0.4817 Y-2.4757 Z-0.1579
X0.4818 Y-2.4742 Z-0.1603
X0.4819 Y-2.4722 Z-0.1623
X0.4821 Y-2.4699 Z-0.1638
X0.4823 Y-2.4673 Z-0.1647
X0.4826 Y-2.4645 Z-0.165
X0.4836 Y-2.452
G3 X0.4721 Y-2.4386 I-0.0125 J0.001
G1 X0.4484 Y-2.4367
X0.4465 Y-2.4365
X0.3983 Y-2.4311
X0.3964 Y-2.4309
X0.3478 Y-2.4239
X0.3459 Y-2.4236
X0.2969 Y-2.4151
X0.2951 Y-2.4148
X0.2457 Y-2.4047
X0.2439 Y-2.4043
X0.1943 Y-2.3926
X0.1925 Y-2.3922
X0.1425 Y-2.3789
X0.1408 Y-2.3784
X0.0905 Y-2.3635
X0.0889 Y-2.363
X0.0383 Y-2.3465
X0.0367 Y-2.346
X-0.0141 Y-2.3278
X-0.0157 Y-2.3272
X-0.0667 Y-2.3075
X-0.0682 Y-2.3068
X-0.1194 Y-2.2854
X-0.1209 Y-2.2848
X-0.1723 Y-2.2617
X-0.1737 Y-2.261
X-0.2252 Y-2.2362
X-0.2267 Y-2.2355
X-0.2783 Y-2.2091
X-0.2796 Y-2.2084
X-0.3313 Y-2.1803
X-0.3326 Y-2.1795
X-0.3843 Y-2.1497
X-0.3856 Y-2.149
X-0.4373 Y-2.1175
X-0.4386 Y-2.1167
X-0.4903 Y-2.0835
X-0.4915 Y-2.0827
X-0.5431 Y-2.0478
X-0.5443 Y-2.047
X-0.5958 Y-2.0104
X-0.5969 Y-2.0095
X-0.6483 Y-1.9712
X-0.6494 Y-1.9704
X-0.7005 Y-1.9304
X-0.7016 Y-1.9295
X-0.7525 Y-1.8878
X-0.7536 Y-1.8869
X-0.8042 Y-1.8436
X-0.8052 Y-1.8427
X-0.8555 Y-1.7976
X-0.8565 Y-1.7967
X-0.9064 Y-1.75
X-0.9073 Y-1.7491
X-0.9568 Y-1.7008
X-0.9577 Y-1.6998
X-1.0066 Y-1.6499
X-1.0076 Y-1.6489
X-1.0559 Y-1.5973
X-1.0568 Y-1.5964
X-1.1046 Y-1.5432
X-1.1055 Y-1.5423
X-1.1525 Y-1.4876
X-1.1534 Y-1.4866
X-1.1997 Y-1.4305
X-1.2005 Y-1.4295
X-1.2461 Y-1.3719
X-1.2469 Y-1.3709
X-1.2915 Y-1.3119
X-1.2923 Y-1.3109
X-1.336 Y-1.2506
X-1.3368 Y-1.2496
X-1.3795 Y-1.188
X-1.3802 Y-1.187
X-1.4219 Y-1.1242
X-1.4226 Y-1.1231
X-1.4631 Y-1.0593
X-1.4638 Y-1.0582
X-1.5031 Y-0.9933
X-1.5038 Y-0.9922
X-1.5419 Y-0.9263
X-1.5425 Y-0.9252
X-1.5793 Y-0.8585
X-1.5799 Y-0.8574
X-1.6153 Y-0.7899
X-1.6159 Y-0.7887
X-1.6499 Y-0.7206
X-1.6504 Y-0.7194
X-1.6829 Y-0.6507
X-1.6835 Y-0.6495
X-1.7145 Y-0.5803
X-1.715 Y-0.5791
X-1.7445 Y-0.5095
X-1.745 Y-0.5083
X-1.7729 Y-0.4384
X-1.7734 Y-0.4372
X-1.7997 Y-0.3671
X-1.8002 Y-0.3659
X-1.8249 Y-0.2957
X-1.8253 Y-0.2945
X-1.8483 Y-0.2243
X-1.8487 Y-0.2231
X-1.8701 Y-0.153
X-1.8705 Y-0.1517
X-1.8903 Y-0.0818
X-1.8906 Y-0.0805
X-1.9087 Y-0.0108
X-1.9091 Y-0.0096
X-1.9255 Y0.0598
X-1.9258 Y0.0611
X-1.9406 Y0.1301
X-1.9409 Y0.1314
X-1.954 Y0.1999
X-1.9543 Y0.2012
X-1.9658 Y0.2692
X-1.966 Y0.2705
X-1.9759 Y0.3379
X-1.9761 Y0.3393
X-1.9844 Y0.406
X-1.9846 Y0.4074
X-1.9913 Y0.4735
X-1.9914 Y0.4749
X-1.9966 Y0.5402
X-1.9967 Y0.5416
X-2.0003 Y0.6061
X-2.0004 Y0.6076
X-2.0025 Y0.6713
Y0.6727
X-2.0031 Y0.7356
Y0.7371
X-2.0023 Y0.799
X-2.0022 Y0.8005
X-1.9999 Y0.8616
X-1.9998 Y0.8631
X-1.9961 Y0.9232
X-1.996 Y0.9247
X-1.9909 Y0.9838
X-1.9907 Y0.9854
X-1.9842 Y1.0435
X-1.984 Y1.045
X-1.9761 Y1.1021
X-1.9759 Y1.1037
X-1.9667 Y1.1597
X-1.9664 Y1.1613
X-1.9559 Y1.2163
X-1.9556 Y1.2179
X-1.9438 Y1.2717
X-1.9434 Y1.2734
X-1.9304 Y1.3261
X-1.9299 Y1.3278
X-1.9157 Y1.3794
X-1.9152 Y1.3811
X-1.8997 Y1.4316
X-1.8992 Y1.4333
X-1.8825 Y1.4826
X-1.8819 Y1.4843
X-1.8641 Y1.5325
X-1.8634 Y1.5342
X-1.8445 Y1.5812
X-1.8438 Y1.5829
X-1.8237 Y1.6287
X-1.8229 Y1.6304
X-1.8017 Y1.675
X-1.8009 Y1.6767
X-1.7786 Y1.7201
X-1.7777 Y1.7218
X-1.7544 Y1.764
X-1.7534 Y1.7657
X-1.729 Y1.8066
X-1.728 Y1.8083
X-1.7026 Y1.848
X-1.7015 Y1.8497
X-1.6751 Y1.8881
X-1.674 Y1.8898
X-1.6466 Y1.9269
X-1.6454 Y1.9286
X-1.6171 Y1.9645
X-1.6157 Y1.9661
X-1.5865 Y2.0007
X-1.5851 Y2.0023
X-1.5549 Y2.0356
X-1.5535 Y2.0372
X-1.5224 Y2.0692
X-1.5209 Y2.0707
X-1.489 Y2.1014
X-1.4873 Y2.1029
X-1.4546 Y2.1322
X-1.4529 Y2.1337
X-1.4192 Y2.1617
X-1.4175 Y2.1631
X-1.383 Y2.1898
X-1.3812 Y2.1911
X-1.346 Y2.2164
X-1.3441 Y2.2177
X-1.3081 Y2.2417
X-1.3062 Y2.2429
X-1.2693 Y2.2655
X-1.2674 Y2.2667
X-1.2298 Y2.2879
X-1.2278 Y2.289
X-1.1895 Y2.3088
X-1.1874 Y2.3098
X-1.1484 Y2.3283
X-1.1463 Y2.3292
X-1.1066 Y2.3463
X-1.1045 Y2.3471
X-1.0641 Y2.3628
X-1.062 Y2.3635
X-1.0209 Y2.3778
X-1.0187 Y2.3784
X-0.977 Y2.3912
X-0.9749 Y2.3919
X-0.9325 Y2.4032
X-0.9303 Y2.4037
X-0.8873 Y2.4136
X-0.8852 Y2.4141
X-0.8416 Y2.4225
X-0.8395 Y2.4229
X-0.7953 Y2.4299
X-0.7932 Y2.4302
X-0.7485 Y2.4357
X-0.7464 Y2.4359
X-0.7011 Y2.4399
X-0.699 Y2.4401
X-0.6532 Y2.4426
X-0.6511 Y2.4427
X-0.6048 Y2.4437
X-0.6028
X-0.556 Y2.4432
X-0.554
X-0.5067 Y2.4411
X-0.5048 Y2.441
X-0.457 Y2.4375
X-0.4551 Y2.4373
X-0.407 Y2.4322
X-0.4051 Y2.4319
X-0.3565 Y2.4253
X-0.3547 Y2.425
X-0.3057 Y2.4168
X-0.3039 Y2.4164
X-0.2546 Y2.4066
X-0.2528 Y2.4062
X-0.2032 Y2.3948
X-0.2015 Y2.3944
X-0.1515 Y2.3814
X-0.1498 Y2.3809
X-0.0996 Y2.3663
X-0.0979 Y2.3658
X-0.0474 Y2.3496
X-0.0458 Y2.349
X0.005 Y2.3312
X0.0066 Y2.3306
X0.0576 Y2.3111
X0.0591 Y2.3105
X0.1103 Y2.2893
X0.1118 Y2.2887
X0.1631 Y2.2659
X0.1646 Y2.2652
X0.2161 Y2.2408
X0.2175 Y2.2401
X0.2691 Y2.2139
X0.2704 Y2.2132
X0.3221 Y2.1854
X0.3234 Y2.1846
X0.3751 Y2.1551
X0.3764 Y2.1544
X0.4281 Y2.1232
X0.4294 Y2.1224
X0.4811 Y2.0895
X0.4823 Y2.0887
X0.5339 Y2.0541
X0.5351 Y2.0533
X0.5866 Y2.017
X0.5878 Y2.0161
X0.6392 Y1.9781
X0.6403 Y1.9773
X0.6915 Y1.9376
X0.6926 Y1.9367
X0.7435 Y1.8953
X0.7446 Y1.8944
X0.7952 Y1.8514
X0.7963 Y1.8505
X0.8466 Y1.8057
X0.8476 Y1.8048
X0.8976 Y1.7584
X0.8986 Y1.7575
X0.9481 Y1.7094
X0.949 Y1.7085
X0.998 Y1.6588
X0.999 Y1.6578
X1.0474 Y1.6066
X1.0483 Y1.6056
X1.0962 Y1.5527
X1.0971 Y1.5517
X1.1443 Y1.4974
X1.1451 Y1.4964
X1.1916 Y1.4405
X1.1924 Y1.4395
X1.2381 Y1.3822
X1.2389 Y1.3811
X1.2837 Y1.3224
X1.2845 Y1.3214
X1.3284 Y1.2613
X1.3291 Y1.2603
X1.372 Y1.199
X1.3728 Y1.1979
X1.4146 Y1.1354
X1.4153 Y1.1343
X1.4561 Y1.0706
X1.4567 Y1.0695
X1.4963 Y1.0048
X1.4969 Y1.0037
X1.5352 Y0.938
X1.5359 Y0.9369
X1.5729 Y0.8703
X1.5735 Y0.8692
X1.6091 Y0.8018
X1.6097 Y0.8007
X1.644 Y0.7326
X1.6445 Y0.7315
X1.6773 Y0.6628
X1.6779 Y0.6617
X1.7092 Y0.5925
X1.7097 Y0.5913
X1.7394 Y0.5218
X1.7399 Y0.5206
X1.7681 Y0.4508
X1.7686 Y0.4496
X1.7952 Y0.3795
X1.7956 Y0.3783
X1.8206 Y0.3081
X1.821 Y0.3069
X1.8444 Y0.2367
X1.8448 Y0.2355
X1.8665 Y0.1653
X1.8669 Y0.1641
X1.8869 Y0.0941
X1.8873 Y0.0928
X1.9057 Y0.0231
X1.906 Y0.0218
X1.9227 Y-0.0476
X1.923 Y-0.0489
X1.9381 Y-0.1179
X1.9384 Y-0.1192
X1.9518 Y-0.1878
X1.9521 Y-0.1892
X1.9639 Y-0.2572
X1.9641 Y-0.2586
X1.9743 Y-0.326
X1.9745 Y-0.3274
X1.9831 Y-0.3943
X1.9832 Y-0.3957
X1.9902 Y-0.4618
X1.9904 Y-0.4632
X1.9958 Y-0.5287
X1.9959 Y-0.5301
X1.9998 Y-0.5948
X1.9999 Y-0.5962
X2.0022 Y-0.6601
X2.0023 Y-0.6615
X2.0031 Y-0.7245
Y-0.726
X2.0025 Y-0.7881
Y-0.7896
X2.0004 Y-0.8508
Y-0.8523
X1.9969 Y-0.9126
X1.9968 Y-0.9141
X1.9919 Y-0.9734
X1.9917 Y-0.9749
X1.9854 Y-1.0332
X1.9853 Y-1.0348
X1.9776 Y-1.092
X1.9774 Y-1.0936
X1.9684 Y-1.1498
X1.9681 Y-1.1514
X1.9579 Y-1.2065
X1.9575 Y-1.2082
X1.946 Y-1.2622
X1.9456 Y-1.2638
X1.9328 Y-1.3168
X1.9324 Y-1.3184
X1.9183 Y-1.3703
X1.9178 Y-1.3719
X1.9026 Y-1.4226
X1.902 Y-1.4243
X1.8856 Y-1.4739
X1.885 Y-1.4755
X1.8674 Y-1.5239
X1.8667 Y-1.5256
X1.848 Y-1.5728
X1.8473 Y-1.5745
X1.8274 Y-1.6205
X1.8266 Y-1.6223
X1.8056 Y-1.6671
X1.8048 Y-1.6688
X1.7827 Y-1.7124
X1.7818 Y-1.7141
X1.7587 Y-1.7565
X1.7577 Y-1.7582
X1.7335 Y-1.7993
X1.7325 Y-1.801
X1.7073 Y-1.8409
X1.7062 Y-1.8426
X1.68 Y-1.8813
X1.6788 Y-1.8829
X1.6516 Y-1.9203
X1.6504 Y-1.922
X1.6223 Y-1.9581
X1.6209 Y-1.9597
X1.5919 Y-1.9945
X1.5905 Y-1.9961
X1.5605 Y-2.0296
X1.559 Y-2.0312
X1.5281 Y-2.0634
X1.5266 Y-2.065
X1.4948 Y-2.0959
X1.4932 Y-2.0974
X1.4606 Y-2.127
X1.4589 Y-2.1284
X1.4254 Y-2.1567
X1.4237 Y-2.1581
X1.3894 Y-2.185
X1.3876 Y-2.1864
X1.3525 Y-2.2119
X1.3506 Y-2.2132
X1.3147 Y-2.2374
X1.3128 Y-2.2386
X1.2761 Y-2.2615
X1.2742 Y-2.2627
X1.2367 Y-2.2841
X1.2354 Y-2.2849
X1.2222 Y-2.292
X1.2209 Y-2.2927
X1.1824 Y-2.3123
X1.1804 Y-2.3133
X1.1412 Y-2.3315
X1.1391 Y-2.3324
X1.0993 Y-2.3492
X1.0972 Y-2.3501
X1.0566 Y-2.3655
X1.0545 Y-2.3662
X1.0133 Y-2.3802
X1.0112 Y-2.3809
X0.9693 Y-2.3934
X0.9672 Y-2.394
X0.9247 Y-2.4051
X0.9226 Y-2.4056
X0.8795 Y-2.4153
X0.8773 Y-2.4157
X0.8336 Y-2.4239
X0.8315 Y-2.4243
X0.7872 Y-2.431
X0.7851 Y-2.4313
X0.7403 Y-2.4365
X0.7382 Y-2.4368
X0.6928 Y-2.4405
X0.6907 Y-2.4407
X0.6448 Y-2.4429
X0.6428 Y-2.443
X0.5964 Y-2.4437
X0.5944
X0.5475 Y-2.443
X0.5455 Y-2.4429
X0.4982 Y-2.4406
X0.4962 Y-2.4405
X0.4721 Y-2.4386
G3 X0.4586 Y-2.45 I-0.001 J-0.0125
G1 X0.4576 Y-2.4625
X0.4574 Y-2.4653 Z-0.1647
X0.4572 Y-2.4679 Z-0.1638
X0.457 Y-2.4703 Z-0.1623
X0.4569 Y-2.4722 Z-0.1603
X0.4567 Y-2.4737 Z-0.1579
Y-2.4746 Z-0.1553
X0.4566 Y-2.4749 Z-0.1525
G0 Z0.1
X0.4816 Y-2.4769
Z0.02
G1 Z-0.1106 F2
Z-0.1675
Y-2.4766 Z-0.1703 F20
X0.4817 Y-2.4757 Z-0.1729
X0.4818 Y-2.4742 Z-0.1753
X0.4819 Y-2.4722 Z-0.1773
X0.4821 Y-2.4699 Z-0.1788
X0.4823 Y-2.4673 Z-0.1797
X0.4826 Y-2.4645 Z-0.18
X0.4836 Y-2.452
G3 X0.4721 Y-2.4386 I-0.0125 J0.001
G1 X0.4484 Y-2.4367
X0.4465 Y-2.4365
X0.3983 Y-2.4311
X0.3964 Y-2.4309
X0.3478 Y-2.4239
X0.3459 Y-2.4236
X0.2969 Y-2.4151
X0.2951 Y-2.4148
X0.2457 Y-2.4047
X0.2439 Y-2.4043
X0.1943 Y-2.3926
X0.1925 Y-2.3922
X0.1425 Y-2.3789
X0.1408 Y-2.3784
X0.0905 Y-2.3635
X0.0889 Y-2.363
X0.0383 Y-2.3465
X0.0367 Y-2.346
X-0.0141 Y-2.3278
X-0.0157 Y-2.3272
X-0.0667 Y-2.3075
X-0.0682 Y-2.3068
X-0.1194 Y-2.2854
X-0.1209 Y-2.2848
X-0.1723 Y-2.2617
X-0.1737 Y-2.261
X-0.2252 Y-2.2362
X-0.2267 Y-2.2355
X-0.2783 Y-2.2091
X-0.2796 Y-2.2084
X-0.3313 Y-2.1803
X-0.3326 Y-2.1795
X-0.3843 Y-2.1497
X-0.3856 Y-2.149
X-0.4373 Y-2.1175
X-0.4386 Y-2.1167
X-0.4903 Y-2.0835
X-0.4915 Y-2.0827
X-0.5431 Y-2.0478
X-0.5443 Y-2.047
X-0.5958 Y-2.0104
X-0.5969 Y-2.0095
X-0.6483 Y-1.9712
X-0.6494 Y-1.9704
X-0.7005 Y-1.9304
X-0.7016 Y-1.9295
X-0.7525 Y-1.8878
X-0.7536 Y-1.8869
X-0.8042 Y-1.8436
X-0.8052 Y-1.8427
X-0.8555 Y-1.7976
X-0.8565 Y-1.7967
X-0.9064 Y-1.75
X-0.9073 Y-1.7491
X-0.9568 Y-1.7008
X-0.9577 Y-1.6998
X-1.0066 Y-1.6499
X-1.0076 Y-1.6489
X-1.0559 Y-1.5973
X-1.0568 Y-1.5964
X-1.1046 Y-1.5432
X-1.1055 Y-1.5423
X-1.1525 Y-1.4876
X-1.1534 Y-1.4866
X-1.1997 Y-1.4305
X-1.2005 Y-1.4295
X-1.2461 Y-1.3719
X-1.2469 Y-1.3709
X-1.2915 Y-1.3119
X-1.2923 Y-1.3109
X-1.336 Y-1.2506
X-1.3368 Y-1.2496
X-1.3795 Y-1.188
X-1.3802 Y-1.187
X-1.4219 Y-1.1242
X-1.4226 Y-1.1231
X-1.4631 Y-1.0593
X-1.4638 Y-1.0582
X-1.5031 Y-0.9933
X-1.5038 Y-0.9922
X-1.5419 Y-0.9263
X-1.5425 Y-0.9252
X-1.5793 Y-0.8585
X-1.5799 Y-0.8574
X-1.6153 Y-0.7899
X-1.6159 Y-0.7887
X-1.6499 Y-0.7206
X-1.6504 Y-0.7194
X-1.6829 Y-0.6507
X-1.6835 Y-0.6495
X-1.7145 Y-0.5803
X-1.715 Y-0.5791
X-1.7445 Y-0.5095
X-1.745 Y-0.5083
X-1.7729 Y-0.4384
X-1.7734 Y-0.4372
X-1.7997 Y-0.3671
X-1.8002 Y-0.3659
X-1.8249 Y-0.2957
X-1.8253 Y-0.2945
X-1.8483 Y-0.2243
X-1.8487 Y-0.2231
X-1.8701 Y-0.153
X-1.8705 Y-0.1517
X-1.8903 Y-0.0818
X-1.8906 Y-0.0805
X-1.9087 Y-0.0108
X-1.9091 Y-0.0096
X-1.9255 Y0.0598
X-1.9258 Y0.0611
X-1.9406 Y0.1301
X-1.9409 Y0.1314
X-1.954 Y0.1999
X-1.9543 Y0.2012
X-1.9658 Y0.2692
X-1.966 Y0.2705
X-1.9759 Y0.3379
X-1.9761 Y0.3393
X-1.9844 Y0.406
X-1.9846 Y0.4074
X-1.9913 Y0.4735
X-1.9914 Y0.4749
X-1.9966 Y0.5402
X-1.9967 Y0.5416
X-2.0003 Y0.6061
X-2.0004 Y0.6076
X-2.0025 Y0.6713
Y0.6727
X-2.0031 Y0.7356
Y0.7371
X-2.0023 Y0.799
X-2.0022 Y0.8005
X-1.9999 Y0.8616
X-1.9998 Y0.8631
X-1.9961 Y0.9232
X-1.996 Y0.9247
X-1.9909 Y0.9838
X-1.9907 Y0.9854
X-1.9842 Y1.0435
X-1.984 Y1.045
X-1.9761 Y1.1021
X-1.9759 Y1.1037
X-1.9667 Y1.1597
X-1.9664 Y1.1613
X-1.9559 Y1.2163
X-1.9556 Y1.2179
X-1.9438 Y1.2717
X-1.9434 Y1.2734
X-1.9304 Y1.3261
X-1.9299 Y1.3278
X-1.9157 Y1.3794
X-1.9152 Y1.3811
X-1.8997 Y1.4316
X-1.8992 Y1.4333
X-1.8825 Y1.4826
X-1.8819 Y1.4843
X-1.8641 Y1.5325
X-1.8634 Y1.5342
X-1.8445 Y1.5812
X-1.8438 Y1.5829
X-1.8237 Y1.6287
X-1.8229 Y1.6304
X-1.8017 Y1.675
X-1.8009 Y1.6767
X-1.7786 Y1.7201
X-1.7777 Y1.7218
X-1.7544 Y1.764
X-1.7534 Y1.7657
X-1.729 Y1.8066
X-1.728 Y1.8083
X-1.7026 Y1.848
X-1.7015 Y1.8497
X-1.6751 Y1.8881
X-1.674 Y1.8898
X-1.6466 Y1.9269
X-1.6454 Y1.9286
X-1.6171 Y1.9645
X-1.6157 Y1.9661
X-1.5865 Y2.0007
X-1.5851 Y2.0023
X-1.5549 Y2.0356
X-1.5535 Y2.0372
X-1.5224 Y2.0692
X-1.5209 Y2.0707
X-1.489 Y2.1014
X-1.4873 Y2.1029
X-1.4546 Y2.1322
X-1.4529 Y2.1337
X-1.4192 Y2.1617
X-1.4175 Y2.1631
X-1.383 Y2.1898
X-1.3812 Y2.1911
X-1.346 Y2.2164
X-1.3441 Y2.2177
X-1.3081 Y2.2417
X-1.3062 Y2.2429
X-1.2693 Y2.2655
X-1.2674 Y2.2667
X-1.2298 Y2.2879
X-1.2278 Y2.289
X-1.1895 Y2.3088
X-1.1874 Y2.3098
X-1.1484 Y2.3283
X-1.1463 Y2.3292
X-1.1066 Y2.3463
X-1.1045 Y2.3471
X-1.0641 Y2.3628
X-1.062 Y2.3635
X-1.0209 Y2.3778
X-1.0187 Y2.3784
X-0.977 Y2.3912
X-0.9749 Y2.3919
X-0.9325 Y2.4032
X-0.9303 Y2.4037
X-0.8873 Y2.4136
X-0.8852 Y2.4141
X-0.8416 Y2.4225
X-0.8395 Y2.4229
X-0.7953 Y2.4299
X-0.7932 Y2.4302
X-0.7485 Y2.4357
X-0.7464 Y2.4359
X-0.7011 Y2.4399
X-0.699 Y2.4401
X-0.6532 Y2.4426
X-0.6511 Y2.4427
X-0.6048 Y2.4437
X-0.6028
X-0.556 Y2.4432
X-0.554
X-0.5067 Y2.4411
X-0.5048 Y2.441
X-0.457 Y2.4375
X-0.4551 Y2.4373
X-0.407 Y2.4322
X-0.4051 Y2.4319
X-0.3565 Y2.4253
X-0.3547 Y2.425
X-0.3057 Y2.4168
X-0.3039 Y2.4164
X-0.2546 Y2.4066
X-0.2528 Y2.4062
X-0.2032 Y2.3948
X-0.2015 Y2.3944
X-0.1515 Y2.3814
X-0.1498 Y2.3809
X-0.0996 Y2.3663
X-0.0979 Y2.3658
X-0.0474 Y2.3496
X-0.0458 Y2.349
X0.005 Y2.3312
X0.0066 Y2.3306
X0.0576 Y2.3111
X0.0591 Y2.3105
X0.1103 Y2.2893
X0.1118 Y2.2887
X0.1631 Y2.2659
X0.1646 Y2.2652
X0.2161 Y2.2408
X0.2175 Y2.2401
X0.2691 Y2.2139
X0.2704 Y2.2132
X0.3221 Y2.1854
X0.3234 Y2.1846
X0.3751 Y2.1551
X0.3764 Y2.1544
X0.4281 Y2.1232
X0.4294 Y2.1224
X0.4811 Y2.0895
X0.4823 Y2.0887
X0.5339 Y2.0541
X0.5351 Y2.0533
X0.5866 Y2.017
X0.5878 Y2.0161
X0.6392 Y1.9781
X0.6403 Y1.9773
X0.6915 Y1.9376
X0.6926 Y1.9367
X0.7435 Y1.8953
X0.7446 Y1.8944
X0.7952 Y1.8514
X0.7963 Y1.8505
X0.8466 Y1.8057
X0.8476 Y1.8048
X0.8976 Y1.7584
X0.8986 Y1.7575
X0.9481 Y1.7094
X0.949 Y1.7085
X0.998 Y1.6588
X0.999 Y1.6578
X1.0474 Y1.6066
X1.0483 Y1.6056
X1.0962 Y1.5527
X1.0971 Y1.5517
X1.1443 Y1.4974
X1.1451 Y1.4964
X1.1916 Y1.4405
X1.1924 Y1.4395
X1.2381 Y1.3822
X1.2389 Y1.3811
X1.2837 Y1.3224
X1.2845 Y1.3214
X1.3284 Y1.2613
X1.3291 Y1.2603
X1.372 Y1.199
X1.3728 Y1.1979
X1.4146 Y1.1354
X1.4153 Y1.1343
X1.4561 Y1.0706
X1.4567 Y1.0695
X1.4963 Y1.0048
X1.4969 Y1.0037
X1.5352 Y0.938
X1.5359 Y0.9369
X1.5729 Y0.8703
X1.5735 Y0.8692
X1.6091 Y0.8018
X1.6097 Y0.8007
X1.644 Y0.7326
X1.6445 Y0.7315
X1.6773 Y0.6628
X1.6779 Y0.6617
X1.7092 Y0.5925
X1.7097 Y0.5913
X1.7394 Y0.5218
X1.7399 Y0.5206
X1.7681 Y0.4508
X1.7686 Y0.4496
X1.7952 Y0.3795
X1.7956 Y0.3783
X1.8206 Y0.3081
X1.821 Y0.3069
X1.8444 Y0.2367
X1.8448 Y0.2355
X1.8665 Y0.1653
X1.8669 Y0.1641
X1.8869 Y0.0941
X1.8873 Y0.0928
X1.9057 Y0.0231
X1.906 Y0.0218
X1.9227 Y-0.0476
X1.923 Y-0.0489
X1.9381 Y-0.1179
X1.9384 Y-0.1192
X1.9518 Y-0.1878
X1.9521 Y-0.1892
X1.9639 Y-0.2572
X1.9641 Y-0.2586
X1.9743 Y-0.326
X1.9745 Y-0.3274
X1.9831 Y-0.3943
X1.9832 Y-0.3957
X1.9902 Y-0.4618
X1.9904 Y-0.4632
X1.9958 Y-0.5287
X1.9959 Y-0.5301
X1.9998 Y-0.5948
X1.9999 Y-0.5962
X2.0022 Y-0.6601
X2.0023 Y-0.6615
X2.0031 Y-0.7245
Y-0.726
X2.0025 Y-0.7881
Y-0.7896
X2.0004 Y-0.8508
Y-0.8523
X1.9969 Y-0.9126
X1.9968 Y-0.9141
X1.9919 Y-0.9734
X1.9917 Y-0.9749
X1.9854 Y-1.0332
X1.9853 Y-1.0348
X1.9776 Y-1.092
X1.9774 Y-1.0936
X1.9684 Y-1.1498
X1.9681 Y-1.1514
X1.9579 Y-1.2065
X1.9575 Y-1.2082
X1.946 Y-1.2622
X1.9456 Y-1.2638
X1.9328 Y-1.3168
X1.9324 Y-1.3184
X1.9183 Y-1.3703
X1.9178 Y-1.3719
X1.9026 Y-1.4226
X1.902 Y-1.4243
X1.8856 Y-1.4739
X1.885 Y-1.4755
X1.8674 Y-1.5239
X1.8667 Y-1.5256
X1.848 Y-1.5728
X1.8473 Y-1.5745
X1.8274 Y-1.6205
X1.8266 Y-1.6223
X1.8056 Y-1.6671
X1.8048 Y-1.6688
X1.7827 Y-1.7124
X1.7818 Y-1.7141
X1.7587 Y-1.7565
X1.7577 Y-1.7582
X1.7335 Y-1.7993
X1.7325 Y-1.801
X1.7073 Y-1.8409
X1.7062 Y-1.8426
X1.68 Y-1.8813
X1.6788 Y-1.8829
X1.6516 Y-1.9203
X1.6504 Y-1.922
X1.6223 Y-1.9581
X1.6209 Y-1.9597
X1.5919 Y-1.9945
X1.5905 Y-1.9961
X1.5605 Y-2.0296
X1.559 Y-2.0312
X1.5281 Y-2.0634
X1.5266 Y-2.065
X1.4948 Y-2.0959
X1.4932 Y-2.0974
X1.4606 Y-2.127
X1.4589 Y-2.1284
X1.4254 Y-2.1567
X1.4237 Y-2.1581
X1.3894 Y-2.185
X1.3876 Y-2.1864
X1.3525 Y-2.2119
X1.3506 Y-2.2132
X1.3147 Y-2.2374
X1.3128 Y-2.2386
X1.2761 Y-2.2615
X1.2742 Y-2.2627
X1.2367 Y-2.2841
X1.2354 Y-2.2849
X1.2222 Y-2.292
X1.2209 Y-2.2927
X1.1824 Y-2.3123
X1.1804 Y-2.3133
X1.1412 Y-2.3315
X1.1391 Y-2.3324
X1.0993 Y-2.3492
X1.0972 Y-2.3501
X1.0566 Y-2.3655
X1.0545 Y-2.3662
X1.0133 Y-2.3802
X1.0112 Y-2.3809
X0.9693 Y-2.3934
X0.9672 Y-2.394
X0.9247 Y-2.4051
X0.9226 Y-2.4056
X0.8795 Y-2.4153
X0.8773 Y-2.4157
X0.8336 Y-2.4239
X0.8315 Y-2.4243
X0.7872 Y-2.431
X0.7851 Y-2.4313
X0.7403 Y-2.4365
X0.7382 Y-2.4368
X0.6928 Y-2.4405
X0.6907 Y-2.4407
X0.6448 Y-2.4429
X0.6428 Y-2.443
X0.5964 Y-2.4437
X0.5944
X0.5475 Y-2.443
X0.5455 Y-2.4429
X0.4982 Y-2.4406
X0.4962 Y-2.4405
X0.4721 Y-2.4386
G3 X0.4586 Y-2.45 I-0.001 J-0.0125
G1 X0.4576 Y-2.4625
X0.4574 Y-2.4653 Z-0.1797
X0.4572 Y-2.4679 Z-0.1788
X0.457 Y-2.4703 Z-0.1773
X0.4569 Y-2.4722 Z-0.1753
X0.4567 Y-2.4737 Z-0.1729
Y-2.4746 Z-0.1703
X0.4566 Y-2.4749 Z-0.1675
G0 Z0.1
X0.4816 Y-2.4769
Z0.02
G1 Z-0.1256 F2
Z-0.1825
Y-2.4766 Z-0.1853 F20
X0.4817 Y-2.4757 Z-0.1879
X0.4818 Y-2.4742 Z-0.1903
