
%
(Header)
(Generated by gcodetools from Inkscape.)
(Using default header. To add your own header create file "header" in the output dir.)
M3
(Header end.)
G21 (All units in mm)

(Start cutting path id: rect2188)
(Change tool to Default tool)

G00 Z5.000000
G00 X0.24219 Y319.75781

G01 Z-0.500000 F100.0(Penetrate)
G01 X0.24219 Y220.24219 Z-0.500000 F400.000000
G01 X49.75781 Y220.24219 Z-0.500000
G01 X49.75781 Y319.75781 Z-0.500000
G01 X0.24219 Y319.75781 Z-0.500000
G00 Z5.000000

(End cutting path id: rect2188)


(Footer)
M5
G00 X0.0 Y220.0
M2
(Using default footer. To add your own footer create file "footer" in the output dir.)
(end)
%
%
(Header)
(Generated by gcodetools from Inkscape.)
(Using default header. To add your own header create file "header" in the output dir.)
M3
(Header end.)
G21 (All units in mm)

(Start cutting path id: rect2188)
(Change tool to Default tool)

G00 Z5.000000
G00 X0.24219 Y1780.0

G01 Z-0.500000 F100.0(Penetrate)
G01 X0.24219 Y1680.48438 Z-0.500000 F400.000000
G01 X49.75781 Y1680.48438 Z-0.500000
G01 X49.75781 Y1780.0 Z-0.500000
G01 X0.24219 Y1780.0 Z-0.500000
G00 Z5.000000

(End cutting path id: rect2188)


(Footer)
M5
G00 X0.0 Y1680.24219
M2
(Using default footer. To add your own footer create file "footer" in the output dir.)
(end)
%
%
(Header)
(Generated by gcodetools from Inkscape.)
(Using default header. To add your own header create file "header" in the output dir.)
M3
(Header end.)
G21 (All units in mm)

(Start cutting path id: path15515)
(Change tool to Cylindrical cutter)

G00 Z5.000000
G00 X430.29688 Y1049.85156

G01 Z-0.500000 F100.0(Penetrate)
G03 X411.27623 Y1046.06828 Z-0.500000 I380.29634 J900.44585 F100.000000
G03 X395.1513 Y1035.29401 Z-0.500000 I399.31699 J904.22913
G03 X384.37703 Y1019.16908 Z-0.500000 I415.44191 J915.0034
G03 X380.59375 Y1000.14844 Z-0.500000 I426.21618 J931.12833
G03 X384.37703 Y981.12779 Z-0.500000 I429.99947 J950.1479
G03 X395.1513 Y965.00286 Z-0.500000 I426.21618 J969.16855
G03 X411.27623 Y954.22859 Z-0.500000 I415.44191 J985.29348
G03 X430.29688 Y950.44531 Z-0.500000 I399.31699 J996.06775
G03 X449.31752 Y954.22859 Z-0.500000 I380.29741 J999.85103
G03 X465.44245 Y965.00286 Z-0.500000 I361.27676 J996.06775
G03 X476.21672 Y981.12779 Z-0.500000 I345.15184 J985.29348
G03 X480.0 Y1000.14844 Z-0.500000 I334.37757 J969.16855
G03 X476.21672 Y1019.16908 Z-0.500000 I330.59428 J950.14897
G03 X465.44245 Y1035.29401 Z-0.500000 I334.37757 J931.12833
G03 X449.31752 Y1046.06828 Z-0.500000 I345.15184 J915.0034
G03 X430.29688 Y1049.85156 Z-0.500000 I361.27676 J904.22913
G01 X430.29688 Y1049.85156 Z-0.500000
G00 Z5.000000

(End cutting path id: path15515)


(Footer)
M5
G00 X380.29688 Y950.14844
M2
(Using default footer. To add your own footer create file "footer" in the output dir.)
(end)
%