%
(Header)
(Generated by gcodetools from Inkscape.)
(Using default header. To add your own header create file "header" in the output dir.)
M3
(Header end.)
G21 (All units in mm)

(Start cutting path id: path15515)
(Change tool to Cylindrical cutter)

G00 Z5.000000
G00 X50.000000 Y99.703125

G01 Z-0.500000 F100.0(Penetrate)
G03 X30.979355 Y95.919843 Z-0.500000 I-0.000534 J-49.702591 F100.000000
G03 X14.854427 Y85.145573 Z-0.500000 I19.020111 J-45.919309
G03 X4.080157 Y69.020645 Z-0.500000 I35.145039 J-35.145039
G03 X0.296875 Y50.000000 Z-0.500000 I45.919309 J-19.020111
G03 X4.080157 Y30.979355 Z-0.500000 I49.702591 J-0.000534
G03 X14.854427 Y14.854427 Z-0.500000 I45.919309 J19.020111
G03 X30.979355 Y4.080157 Z-0.500000 I35.145039 J35.145039
G03 X50.000000 Y0.296875 Z-0.500000 I19.020111 J45.919309
G03 X69.020645 Y4.080157 Z-0.500000 I0.000534 J49.702591
G03 X85.145573 Y14.854427 Z-0.500000 I-19.020111 J45.919309
G03 X95.919843 Y30.979355 Z-0.500000 I-35.145039 J35.145039
G03 X99.703125 Y50.000000 Z-0.500000 I-45.919309 J19.020111
G03 X95.919843 Y69.020645 Z-0.500000 I-49.702591 J0.000534
G03 X85.145573 Y85.145573 Z-0.500000 I-45.919309 J-19.020111
G03 X69.020645 Y95.919843 Z-0.500000 I-35.145039 J-35.145039
G03 X50.000000 Y99.703125 Z-0.500000 I-19.020111 J-45.919309
G01 X50.000000 Y99.703125 Z-0.500000
G00 Z5.000000

(End cutting path id: path15515)


(Footer)
M5
G00 X0.0000 Y0.0000
M2
(Using default footer. To add your own footer create file "footer" in the output dir.)
(end)
%