
(Header)
(Generated by gcodetools from Inkscape.)
(Using default header. To add your own header create file "header" in the output dir.)
M3
(Header end.)
G21 (All units in mm)

(Start cutting path id: path846)
(Change tool to Cylindrical cutter)

G00 Z5.000000
G00 X20.331499 Y34.082473

G01 Z-0.500000 F50.0(Penetrate)
G01 X15.438921 Y24.560989 Z-0.500000 F100.000000
G01 X4.821734 Y23.191848 Z-0.500000
G01 X12.366656 Y15.596145 Z-0.500000
G01 X10.386187 Y5.076614 Z-0.500000
G01 X19.940874 Y9.904739 Z-0.500000
G01 X29.335406 Y4.769973 Z-0.500000
G01 X27.696734 Y15.350051 Z-0.500000
G01 X35.481890 Y22.697708 Z-0.500000
G01 X24.913530 Y24.406692 Z-0.500000
G01 X20.331499 Y34.082473 Z-0.500000
G00 Z5.000000

(End cutting path id: path846)


(Footer)
M5
G00 X0.0000 Y0.0000
M2
(Using default footer. To add your own footer create file "footer" in the output dir.)
(end)
